( Profile 1 )
( USBCNC Postprocessor )
N20G00G21G17G90G40G49
N30G80
N40G00G43Z20.000H1
N50S16000M03
N60G94
N70X0.000Y0.000F500.0
N80G00X5.644Y5.629Z6.000
N90G01Z-0.040F20.0
N100G2X5.544Y5.528I-0.101J0.000F500.0
N110G2X5.443Y5.629I0.000J0.101
N120G2X5.544Y5.729I0.100J0.000
N130G2X5.644Y5.629I0.000J-0.100
N140G01Z-0.080F20.0
N150G2X5.544Y5.528I-0.101J0.000F500.0
N160G2X5.443Y5.629I0.000J0.101
N170G2X5.544Y5.729I0.100J0.000
N180G2X5.644Y5.629I0.000J-0.100
N190G01Z-0.120F20.0
N200G2X5.544Y5.528I-0.101J0.000F500.0
N210G2X5.443Y5.629I0.000J0.101
N220G2X5.544Y5.729I0.100J0.000
N230G2X5.644Y5.629I0.000J-0.100
N240G01Z-0.160F20.0
N250G2X5.544Y5.528I-0.101J0.000F500.0
N260G2X5.443Y5.629I0.000J0.101
N270G2X5.544Y5.729I0.100J0.000
N280G2X5.644Y5.629I0.000J-0.100
N290G01Z-0.200F20.0
N300G2X5.544Y5.528I-0.101J0.000F500.0
N310G2X5.443Y5.629I0.000J0.101
N320G2X5.544Y5.729I0.100J0.000
N330G2X5.644Y5.629I0.000J-0.100
N340G01Z-0.240F20.0
N350G2X5.544Y5.528I-0.101J0.000F500.0
N360G2X5.443Y5.629I0.000J0.101
N370G2X5.544Y5.729I0.100J0.000
N380G2X5.644Y5.629I0.000J-0.100
N390G01Z-0.280F20.0
N400G2X5.544Y5.528I-0.101J0.000F500.0
N410G2X5.443Y5.629I0.000J0.101
N420G2X5.544Y5.729I0.100J0.000
N430G2X5.644Y5.629I0.000J-0.100
N440G01Z-0.320F20.0
N450G2X5.544Y5.528I-0.101J0.000F500.0
N460G2X5.443Y5.629I0.000J0.101
N470G2X5.544Y5.729I0.100J0.000
N480G2X5.644Y5.629I0.000J-0.100
N490G01Z-0.360F20.0
N500G2X5.544Y5.528I-0.101J0.000F500.0
N510G2X5.443Y5.629I0.000J0.101
N520G2X5.544Y5.729I0.100J0.000
N530G2X5.644Y5.629I0.000J-0.100
N540G01Z-0.400F20.0
N550G2X5.544Y5.528I-0.101J0.000F500.0
N560G2X5.443Y5.629I0.000J0.101
N570G2X5.544Y5.729I0.100J0.000
N580G2X5.644Y5.629I0.000J-0.100
N590G01Z-0.440F20.0
N600G2X5.544Y5.528I-0.101J0.000F500.0
N610G2X5.443Y5.629I0.000J0.101
N620G2X5.544Y5.729I0.100J0.000
N630G2X5.644Y5.629I0.000J-0.100
N640G01Z-0.480F20.0
N650G2X5.544Y5.528I-0.101J0.000F500.0
N660G2X5.443Y5.629I0.000J0.101
N670G2X5.544Y5.729I0.100J0.000
N680G2X5.644Y5.629I0.000J-0.100
N690G01Z-0.520F20.0
N700G2X5.544Y5.528I-0.101J0.000F500.0
N710G2X5.443Y5.629I0.000J0.101
N720G2X5.544Y5.729I0.100J0.000
N730G2X5.644Y5.629I0.000J-0.100
N740G01Z-0.560F20.0
N750G2X5.544Y5.528I-0.101J0.000F500.0
N760G2X5.443Y5.629I0.000J0.101
N770G2X5.544Y5.729I0.100J0.000
N780G2X5.644Y5.629I0.000J-0.100
N790G01Z-0.600F20.0
N800G2X5.544Y5.528I-0.101J0.000F500.0
N810G2X5.443Y5.629I0.000J0.101
N820G2X5.544Y5.729I0.100J0.000
N830G2X5.644Y5.629I0.000J-0.100
N840G01Z-0.640F20.0
N850G2X5.544Y5.528I-0.101J0.000F500.0
N860G2X5.443Y5.629I0.000J0.101
N870G2X5.544Y5.729I0.100J0.000
N880G2X5.644Y5.629I0.000J-0.100
N890G01Z-0.680F20.0
N900G2X5.544Y5.528I-0.101J0.000F500.0
N910G2X5.443Y5.629I0.000J0.101
N920G2X5.544Y5.729I0.100J0.000
N930G2X5.644Y5.629I0.000J-0.100
N940G01Z-0.720F20.0
N950G2X5.544Y5.528I-0.101J0.000F500.0
N960G2X5.443Y5.629I0.000J0.101
N970G2X5.544Y5.729I0.100J0.000
N980G2X5.644Y5.629I0.000J-0.100
N990G01Z-0.760F20.0
N1000G2X5.544Y5.528I-0.101J0.000F500.0
N1010G2X5.443Y5.629I0.000J0.101
N1020G2X5.544Y5.729I0.100J0.000
N1030G2X5.644Y5.629I0.000J-0.100
N1040G01Z-0.800F20.0
N1050G2X5.544Y5.528I-0.101J0.000F500.0
N1060G2X5.443Y5.629I0.000J0.101
N1070G2X5.544Y5.729I0.100J0.000
N1080G2X5.644Y5.629I0.000J-0.100
N1090G01Z-0.840F20.0
N1100G2X5.544Y5.528I-0.101J0.000F500.0
N1110G2X5.443Y5.629I0.000J0.101
N1120G2X5.544Y5.729I0.100J0.000
N1130G2X5.644Y5.629I0.000J-0.100
N1140G01Z-0.880F20.0
N1150G2X5.544Y5.528I-0.101J0.000F500.0
N1160G2X5.443Y5.629I0.000J0.101
N1170G2X5.544Y5.729I0.100J0.000
N1180G2X5.644Y5.629I0.000J-0.100
N1190G01Z-0.920F20.0
N1200G2X5.544Y5.528I-0.101J0.000F500.0
N1210G2X5.443Y5.629I0.000J0.101
N1220G2X5.544Y5.729I0.100J0.000
N1230G2X5.644Y5.629I0.000J-0.100
N1240G01Z-0.960F20.0
N1250G2X5.544Y5.528I-0.101J0.000F500.0
N1260G2X5.443Y5.629I0.000J0.101
N1270G2X5.544Y5.729I0.100J0.000
N1280G2X5.644Y5.629I0.000J-0.100
N1290G01Z-1.000F20.0
N1300G2X5.544Y5.528I-0.101J0.000F500.0
N1310G2X5.443Y5.629I0.000J0.101
N1320G2X5.544Y5.729I0.100J0.000
N1330G2X5.644Y5.629I0.000J-0.100
N1340G01Z-1.040F20.0
N1350G2X5.544Y5.528I-0.101J0.000F500.0
N1360G2X5.443Y5.629I0.000J0.101
N1370G2X5.544Y5.729I0.100J0.000
N1380G2X5.644Y5.629I0.000J-0.100
N1390G01Z-1.080F20.0
N1400G2X5.544Y5.528I-0.101J0.000F500.0
N1410G2X5.443Y5.629I0.000J0.101
N1420G2X5.544Y5.729I0.100J0.000
N1430G2X5.644Y5.629I0.000J-0.100
N1440G01Z-1.120F20.0
N1450G2X5.544Y5.528I-0.101J0.000F500.0
N1460G2X5.443Y5.629I0.000J0.101
N1470G2X5.544Y5.729I0.100J0.000
N1480G2X5.644Y5.629I0.000J-0.100
N1490G01Z-1.160F20.0
N1500G2X5.544Y5.528I-0.101J0.000F500.0
N1510G2X5.443Y5.629I0.000J0.101
N1520G2X5.544Y5.729I0.100J0.000
N1530G2X5.644Y5.629I0.000J-0.100
N1540G01Z-1.200F20.0
N1550G2X5.544Y5.528I-0.101J0.000F500.0
N1560G2X5.443Y5.629I0.000J0.101
N1570G2X5.544Y5.729I0.100J0.000
N1580G2X5.644Y5.629I0.000J-0.100
N1590G01Z-1.240F20.0
N1600G2X5.544Y5.528I-0.101J0.000F500.0
N1610G2X5.443Y5.629I0.000J0.101
N1620G2X5.544Y5.729I0.100J0.000
N1630G2X5.644Y5.629I0.000J-0.100
N1640G01Z-1.280F20.0
N1650G2X5.544Y5.528I-0.101J0.000F500.0
N1660G2X5.443Y5.629I0.000J0.101
N1670G2X5.544Y5.729I0.100J0.000
N1680G2X5.644Y5.629I0.000J-0.100
N1690G01Z-1.320F20.0
N1700G2X5.544Y5.528I-0.101J0.000F500.0
N1710G2X5.443Y5.629I0.000J0.101
N1720G2X5.544Y5.729I0.100J0.000
N1730G2X5.644Y5.629I0.000J-0.100
N1740G01Z-1.360F20.0
N1750G2X5.544Y5.528I-0.101J0.000F500.0
N1760G2X5.443Y5.629I0.000J0.101
N1770G2X5.544Y5.729I0.100J0.000
N1780G2X5.644Y5.629I0.000J-0.100
N1790G01Z-1.400F20.0
N1800G2X5.544Y5.528I-0.101J0.000F500.0
N1810G2X5.443Y5.629I0.000J0.101
N1820G2X5.544Y5.729I0.100J0.000
N1830G2X5.644Y5.629I0.000J-0.100
N1840G01Z-1.440F20.0
N1850G2X5.544Y5.528I-0.101J0.000F500.0
N1860G2X5.443Y5.629I0.000J0.101
N1870G2X5.544Y5.729I0.100J0.000
N1880G2X5.644Y5.629I0.000J-0.100
N1890G01Z-1.480F20.0
N1900G2X5.544Y5.528I-0.101J0.000F500.0
N1910G2X5.443Y5.629I0.000J0.101
N1920G2X5.544Y5.729I0.100J0.000
N1930G2X5.644Y5.629I0.000J-0.100
N1940G01Z-1.520F20.0
N1950G2X5.544Y5.528I-0.101J0.000F500.0
N1960G2X5.443Y5.629I0.000J0.101
N1970G2X5.544Y5.729I0.100J0.000
N1980G2X5.644Y5.629I0.000J-0.100
N1990G01Z-1.560F20.0
N2000G2X5.544Y5.528I-0.101J0.000F500.0
N2010G2X5.443Y5.629I0.000J0.101
N2020G2X5.544Y5.729I0.100J0.000
N2030G2X5.644Y5.629I0.000J-0.100
N2040G01Z-1.600F20.0
N2050G2X5.544Y5.528I-0.101J0.000F500.0
N2060G2X5.443Y5.629I0.000J0.101
N2070G2X5.544Y5.729I0.100J0.000
N2080G2X5.644Y5.629I0.000J-0.100
N2090G00Z6.000
N2100G00X3.887Y9.872
N2110G01Z-0.040F20.0
N2120G2X3.786Y9.771I-0.100J0.000F500.0
N2130G2X3.686Y9.872I0.000J0.101
N2140G2X3.786Y9.972I0.101J0.000
N2150G2X3.887Y9.872I0.000J-0.101
N2160G01Z-0.080F20.0
N2170G2X3.786Y9.771I-0.100J0.000F500.0
N2180G2X3.686Y9.872I0.000J0.101
N2190G2X3.786Y9.972I0.101J0.000
N2200G2X3.887Y9.872I0.000J-0.101
N2210G01Z-0.120F20.0
N2220G2X3.786Y9.771I-0.100J0.000F500.0
N2230G2X3.686Y9.872I0.000J0.101
N2240G2X3.786Y9.972I0.101J0.000
N2250G2X3.887Y9.872I0.000J-0.101
N2260G01Z-0.160F20.0
N2270G2X3.786Y9.771I-0.100J0.000F500.0
N2280G2X3.686Y9.872I0.000J0.101
N2290G2X3.786Y9.972I0.101J0.000
N2300G2X3.887Y9.872I0.000J-0.101
N2310G01Z-0.200F20.0
N2320G2X3.786Y9.771I-0.100J0.000F500.0
N2330G2X3.686Y9.872I0.000J0.101
N2340G2X3.786Y9.972I0.101J0.000
N2350G2X3.887Y9.872I0.000J-0.101
N2360G01Z-0.240F20.0
N2370G2X3.786Y9.771I-0.100J0.000F500.0
N2380G2X3.686Y9.872I0.000J0.101
N2390G2X3.786Y9.972I0.101J0.000
N2400G2X3.887Y9.872I0.000J-0.101
N2410G01Z-0.280F20.0
N2420G2X3.786Y9.771I-0.100J0.000F500.0
N2430G2X3.686Y9.872I0.000J0.101
N2440G2X3.786Y9.972I0.101J0.000
N2450G2X3.887Y9.872I0.000J-0.101
N2460G01Z-0.320F20.0
N2470G2X3.786Y9.771I-0.100J0.000F500.0
N2480G2X3.686Y9.872I0.000J0.101
N2490G2X3.786Y9.972I0.101J0.000
N2500G2X3.887Y9.872I0.000J-0.101
N2510G01Z-0.360F20.0
N2520G2X3.786Y9.771I-0.100J0.000F500.0
N2530G2X3.686Y9.872I0.000J0.101
N2540G2X3.786Y9.972I0.101J0.000
N2550G2X3.887Y9.872I0.000J-0.101
N2560G01Z-0.400F20.0
N2570G2X3.786Y9.771I-0.100J0.000F500.0
N2580G2X3.686Y9.872I0.000J0.101
N2590G2X3.786Y9.972I0.101J0.000
N2600G2X3.887Y9.872I0.000J-0.101
N2610G01Z-0.440F20.0
N2620G2X3.786Y9.771I-0.100J0.000F500.0
N2630G2X3.686Y9.872I0.000J0.101
N2640G2X3.786Y9.972I0.101J0.000
N2650G2X3.887Y9.872I0.000J-0.101
N2660G01Z-0.480F20.0
N2670G2X3.786Y9.771I-0.100J0.000F500.0
N2680G2X3.686Y9.872I0.000J0.101
N2690G2X3.786Y9.972I0.101J0.000
N2700G2X3.887Y9.872I0.000J-0.101
N2710G01Z-0.520F20.0
N2720G2X3.786Y9.771I-0.100J0.000F500.0
N2730G2X3.686Y9.872I0.000J0.101
N2740G2X3.786Y9.972I0.101J0.000
N2750G2X3.887Y9.872I0.000J-0.101
N2760G01Z-0.560F20.0
N2770G2X3.786Y9.771I-0.100J0.000F500.0
N2780G2X3.686Y9.872I0.000J0.101
N2790G2X3.786Y9.972I0.101J0.000
N2800G2X3.887Y9.872I0.000J-0.101
N2810G01Z-0.600F20.0
N2820G2X3.786Y9.771I-0.100J0.000F500.0
N2830G2X3.686Y9.872I0.000J0.101
N2840G2X3.786Y9.972I0.101J0.000
N2850G2X3.887Y9.872I0.000J-0.101
N2860G01Z-0.640F20.0
N2870G2X3.786Y9.771I-0.100J0.000F500.0
N2880G2X3.686Y9.872I0.000J0.101
N2890G2X3.786Y9.972I0.101J0.000
N2900G2X3.887Y9.872I0.000J-0.101
N2910G01Z-0.680F20.0
N2920G2X3.786Y9.771I-0.100J0.000F500.0
N2930G2X3.686Y9.872I0.000J0.101
N2940G2X3.786Y9.972I0.101J0.000
N2950G2X3.887Y9.872I0.000J-0.101
N2960G01Z-0.720F20.0
N2970G2X3.786Y9.771I-0.100J0.000F500.0
N2980G2X3.686Y9.872I0.000J0.101
N2990G2X3.786Y9.972I0.101J0.000
N3000G2X3.887Y9.872I0.000J-0.101
N3010G01Z-0.760F20.0
N3020G2X3.786Y9.771I-0.100J0.000F500.0
N3030G2X3.686Y9.872I0.000J0.101
N3040G2X3.786Y9.972I0.101J0.000
N3050G2X3.887Y9.872I0.000J-0.101
N3060G01Z-0.800F20.0
N3070G2X3.786Y9.771I-0.100J0.000F500.0
N3080G2X3.686Y9.872I0.000J0.101
N3090G2X3.786Y9.972I0.101J0.000
N3100G2X3.887Y9.872I0.000J-0.101
N3110G01Z-0.840F20.0
N3120G2X3.786Y9.771I-0.100J0.000F500.0
N3130G2X3.686Y9.872I0.000J0.101
N3140G2X3.786Y9.972I0.101J0.000
N3150G2X3.887Y9.872I0.000J-0.101
N3160G01Z-0.880F20.0
N3170G2X3.786Y9.771I-0.100J0.000F500.0
N3180G2X3.686Y9.872I0.000J0.101
N3190G2X3.786Y9.972I0.101J0.000
N3200G2X3.887Y9.872I0.000J-0.101
N3210G01Z-0.920F20.0
N3220G2X3.786Y9.771I-0.100J0.000F500.0
N3230G2X3.686Y9.872I0.000J0.101
N3240G2X3.786Y9.972I0.101J0.000
N3250G2X3.887Y9.872I0.000J-0.101
N3260G01Z-0.960F20.0
N3270G2X3.786Y9.771I-0.100J0.000F500.0
N3280G2X3.686Y9.872I0.000J0.101
N3290G2X3.786Y9.972I0.101J0.000
N3300G2X3.887Y9.872I0.000J-0.101
N3310G01Z-1.000F20.0
N3320G2X3.786Y9.771I-0.100J0.000F500.0
N3330G2X3.686Y9.872I0.000J0.101
N3340G2X3.786Y9.972I0.101J0.000
N3350G2X3.887Y9.872I0.000J-0.101
N3360G01Z-1.040F20.0
N3370G2X3.786Y9.771I-0.100J0.000F500.0
N3380G2X3.686Y9.872I0.000J0.101
N3390G2X3.786Y9.972I0.101J0.000
N3400G2X3.887Y9.872I0.000J-0.101
N3410G01Z-1.080F20.0
N3420G2X3.786Y9.771I-0.100J0.000F500.0
N3430G2X3.686Y9.872I0.000J0.101
N3440G2X3.786Y9.972I0.101J0.000
N3450G2X3.887Y9.872I0.000J-0.101
N3460G01Z-1.120F20.0
N3470G2X3.786Y9.771I-0.100J0.000F500.0
N3480G2X3.686Y9.872I0.000J0.101
N3490G2X3.786Y9.972I0.101J0.000
N3500G2X3.887Y9.872I0.000J-0.101
N3510G01Z-1.160F20.0
N3520G2X3.786Y9.771I-0.100J0.000F500.0
N3530G2X3.686Y9.872I0.000J0.101
N3540G2X3.786Y9.972I0.101J0.000
N3550G2X3.887Y9.872I0.000J-0.101
N3560G01Z-1.200F20.0
N3570G2X3.786Y9.771I-0.100J0.000F500.0
N3580G2X3.686Y9.872I0.000J0.101
N3590G2X3.786Y9.972I0.101J0.000
N3600G2X3.887Y9.872I0.000J-0.101
N3610G01Z-1.240F20.0
N3620G2X3.786Y9.771I-0.100J0.000F500.0
N3630G2X3.686Y9.872I0.000J0.101
N3640G2X3.786Y9.972I0.101J0.000
N3650G2X3.887Y9.872I0.000J-0.101
N3660G01Z-1.280F20.0
N3670G2X3.786Y9.771I-0.100J0.000F500.0
N3680G2X3.686Y9.872I0.000J0.101
N3690G2X3.786Y9.972I0.101J0.000
N3700G2X3.887Y9.872I0.000J-0.101
N3710G01Z-1.320F20.0
N3720G2X3.786Y9.771I-0.100J0.000F500.0
N3730G2X3.686Y9.872I0.000J0.101
N3740G2X3.786Y9.972I0.101J0.000
N3750G2X3.887Y9.872I0.000J-0.101
N3760G01Z-1.360F20.0
N3770G2X3.786Y9.771I-0.100J0.000F500.0
N3780G2X3.686Y9.872I0.000J0.101
N3790G2X3.786Y9.972I0.101J0.000
N3800G2X3.887Y9.872I0.000J-0.101
N3810G01Z-1.400F20.0
N3820G2X3.786Y9.771I-0.100J0.000F500.0
N3830G2X3.686Y9.872I0.000J0.101
N3840G2X3.786Y9.972I0.101J0.000
N3850G2X3.887Y9.872I0.000J-0.101
N3860G01Z-1.440F20.0
N3870G2X3.786Y9.771I-0.100J0.000F500.0
N3880G2X3.686Y9.872I0.000J0.101
N3890G2X3.786Y9.972I0.101J0.000
N3900G2X3.887Y9.872I0.000J-0.101
N3910G01Z-1.480F20.0
N3920G2X3.786Y9.771I-0.100J0.000F500.0
N3930G2X3.686Y9.872I0.000J0.101
N3940G2X3.786Y9.972I0.101J0.000
N3950G2X3.887Y9.872I0.000J-0.101
N3960G01Z-1.520F20.0
N3970G2X3.786Y9.771I-0.100J0.000F500.0
N3980G2X3.686Y9.872I0.000J0.101
N3990G2X3.786Y9.972I0.101J0.000
N4000G2X3.887Y9.872I0.000J-0.101
N4010G01Z-1.560F20.0
N4020G2X3.786Y9.771I-0.100J0.000F500.0
N4030G2X3.686Y9.872I0.000J0.101
N4040G2X3.786Y9.972I0.101J0.000
N4050G2X3.887Y9.872I0.000J-0.101
N4060G01Z-1.600F20.0
N4070G2X3.786Y9.771I-0.100J0.000F500.0
N4080G2X3.686Y9.872I0.000J0.101
N4090G2X3.786Y9.972I0.101J0.000
N4100G2X3.887Y9.872I0.000J-0.101
N4110G00Z6.000
N4120G00X5.644Y14.114
N4130G01Z-0.040F20.0
N4140G2X5.544Y14.014I-0.101J0.000F500.0
N4150G2X5.443Y14.114I0.000J0.101
N4160G2X5.544Y14.215I0.100J0.000
N4170G2X5.644Y14.114I0.000J-0.101
N4180G01Z-0.080F20.0
N4190G2X5.544Y14.014I-0.101J0.000F500.0
N4200G2X5.443Y14.114I0.000J0.101
N4210G2X5.544Y14.215I0.100J0.000
N4220G2X5.644Y14.114I0.000J-0.101
N4230G01Z-0.120F20.0
N4240G2X5.544Y14.014I-0.101J0.000F500.0
N4250G2X5.443Y14.114I0.000J0.101
N4260G2X5.544Y14.215I0.100J0.000
N4270G2X5.644Y14.114I0.000J-0.101
N4280G01Z-0.160F20.0
N4290G2X5.544Y14.014I-0.101J0.000F500.0
N4300G2X5.443Y14.114I0.000J0.101
N4310G2X5.544Y14.215I0.100J0.000
N4320G2X5.644Y14.114I0.000J-0.101
N4330G01Z-0.200F20.0
N4340G2X5.544Y14.014I-0.101J0.000F500.0
N4350G2X5.443Y14.114I0.000J0.101
N4360G2X5.544Y14.215I0.100J0.000
N4370G2X5.644Y14.114I0.000J-0.101
N4380G01Z-0.240F20.0
N4390G2X5.544Y14.014I-0.101J0.000F500.0
N4400G2X5.443Y14.114I0.000J0.101
N4410G2X5.544Y14.215I0.100J0.000
N4420G2X5.644Y14.114I0.000J-0.101
N4430G01Z-0.280F20.0
N4440G2X5.544Y14.014I-0.101J0.000F500.0
N4450G2X5.443Y14.114I0.000J0.101
N4460G2X5.544Y14.215I0.100J0.000
N4470G2X5.644Y14.114I0.000J-0.101
N4480G01Z-0.320F20.0
N4490G2X5.544Y14.014I-0.101J0.000F500.0
N4500G2X5.443Y14.114I0.000J0.101
N4510G2X5.544Y14.215I0.100J0.000
N4520G2X5.644Y14.114I0.000J-0.101
N4530G01Z-0.360F20.0
N4540G2X5.544Y14.014I-0.101J0.000F500.0
N4550G2X5.443Y14.114I0.000J0.101
N4560G2X5.544Y14.215I0.100J0.000
N4570G2X5.644Y14.114I0.000J-0.101
N4580G01Z-0.400F20.0
N4590G2X5.544Y14.014I-0.101J0.000F500.0
N4600G2X5.443Y14.114I0.000J0.101
N4610G2X5.544Y14.215I0.100J0.000
N4620G2X5.644Y14.114I0.000J-0.101
N4630G01Z-0.440F20.0
N4640G2X5.544Y14.014I-0.101J0.000F500.0
N4650G2X5.443Y14.114I0.000J0.101
N4660G2X5.544Y14.215I0.100J0.000
N4670G2X5.644Y14.114I0.000J-0.101
N4680G01Z-0.480F20.0
N4690G2X5.544Y14.014I-0.101J0.000F500.0
N4700G2X5.443Y14.114I0.000J0.101
N4710G2X5.544Y14.215I0.100J0.000
N4720G2X5.644Y14.114I0.000J-0.101
N4730G01Z-0.520F20.0
N4740G2X5.544Y14.014I-0.101J0.000F500.0
N4750G2X5.443Y14.114I0.000J0.101
N4760G2X5.544Y14.215I0.100J0.000
N4770G2X5.644Y14.114I0.000J-0.101
N4780G01Z-0.560F20.0
N4790G2X5.544Y14.014I-0.101J0.000F500.0
N4800G2X5.443Y14.114I0.000J0.101
N4810G2X5.544Y14.215I0.100J0.000
N4820G2X5.644Y14.114I0.000J-0.101
N4830G01Z-0.600F20.0
N4840G2X5.544Y14.014I-0.101J0.000F500.0
N4850G2X5.443Y14.114I0.000J0.101
N4860G2X5.544Y14.215I0.100J0.000
N4870G2X5.644Y14.114I0.000J-0.101
N4880G01Z-0.640F20.0
N4890G2X5.544Y14.014I-0.101J0.000F500.0
N4900G2X5.443Y14.114I0.000J0.101
N4910G2X5.544Y14.215I0.100J0.000
N4920G2X5.644Y14.114I0.000J-0.101
N4930G01Z-0.680F20.0
N4940G2X5.544Y14.014I-0.101J0.000F500.0
N4950G2X5.443Y14.114I0.000J0.101
N4960G2X5.544Y14.215I0.100J0.000
N4970G2X5.644Y14.114I0.000J-0.101
N4980G01Z-0.720F20.0
N4990G2X5.544Y14.014I-0.101J0.000F500.0
N5000G2X5.443Y14.114I0.000J0.101
N5010G2X5.544Y14.215I0.100J0.000
N5020G2X5.644Y14.114I0.000J-0.101
N5030G01Z-0.760F20.0
N5040G2X5.544Y14.014I-0.101J0.000F500.0
N5050G2X5.443Y14.114I0.000J0.101
N5060G2X5.544Y14.215I0.100J0.000
N5070G2X5.644Y14.114I0.000J-0.101
N5080G01Z-0.800F20.0
N5090G2X5.544Y14.014I-0.101J0.000F500.0
N5100G2X5.443Y14.114I0.000J0.101
N5110G2X5.544Y14.215I0.100J0.000
N5120G2X5.644Y14.114I0.000J-0.101
N5130G01Z-0.840F20.0
N5140G2X5.544Y14.014I-0.101J0.000F500.0
N5150G2X5.443Y14.114I0.000J0.101
N5160G2X5.544Y14.215I0.100J0.000
N5170G2X5.644Y14.114I0.000J-0.101
N5180G01Z-0.880F20.0
N5190G2X5.544Y14.014I-0.101J0.000F500.0
N5200G2X5.443Y14.114I0.000J0.101
N5210G2X5.544Y14.215I0.100J0.000
N5220G2X5.644Y14.114I0.000J-0.101
N5230G01Z-0.920F20.0
N5240G2X5.544Y14.014I-0.101J0.000F500.0
N5250G2X5.443Y14.114I0.000J0.101
N5260G2X5.544Y14.215I0.100J0.000
N5270G2X5.644Y14.114I0.000J-0.101
N5280G01Z-0.960F20.0
N5290G2X5.544Y14.014I-0.101J0.000F500.0
N5300G2X5.443Y14.114I0.000J0.101
N5310G2X5.544Y14.215I0.100J0.000
N5320G2X5.644Y14.114I0.000J-0.101
N5330G01Z-1.000F20.0
N5340G2X5.544Y14.014I-0.101J0.000F500.0
N5350G2X5.443Y14.114I0.000J0.101
N5360G2X5.544Y14.215I0.100J0.000
N5370G2X5.644Y14.114I0.000J-0.101
N5380G01Z-1.040F20.0
N5390G2X5.544Y14.014I-0.101J0.000F500.0
N5400G2X5.443Y14.114I0.000J0.101
N5410G2X5.544Y14.215I0.100J0.000
N5420G2X5.644Y14.114I0.000J-0.101
N5430G01Z-1.080F20.0
N5440G2X5.544Y14.014I-0.101J0.000F500.0
N5450G2X5.443Y14.114I0.000J0.101
N5460G2X5.544Y14.215I0.100J0.000
N5470G2X5.644Y14.114I0.000J-0.101
N5480G01Z-1.120F20.0
N5490G2X5.544Y14.014I-0.101J0.000F500.0
N5500G2X5.443Y14.114I0.000J0.101
N5510G2X5.544Y14.215I0.100J0.000
N5520G2X5.644Y14.114I0.000J-0.101
N5530G01Z-1.160F20.0
N5540G2X5.544Y14.014I-0.101J0.000F500.0
N5550G2X5.443Y14.114I0.000J0.101
N5560G2X5.544Y14.215I0.100J0.000
N5570G2X5.644Y14.114I0.000J-0.101
N5580G01Z-1.200F20.0
N5590G2X5.544Y14.014I-0.101J0.000F500.0
N5600G2X5.443Y14.114I0.000J0.101
N5610G2X5.544Y14.215I0.100J0.000
N5620G2X5.644Y14.114I0.000J-0.101
N5630G01Z-1.240F20.0
N5640G2X5.544Y14.014I-0.101J0.000F500.0
N5650G2X5.443Y14.114I0.000J0.101
N5660G2X5.544Y14.215I0.100J0.000
N5670G2X5.644Y14.114I0.000J-0.101
N5680G01Z-1.280F20.0
N5690G2X5.544Y14.014I-0.101J0.000F500.0
N5700G2X5.443Y14.114I0.000J0.101
N5710G2X5.544Y14.215I0.100J0.000
N5720G2X5.644Y14.114I0.000J-0.101
N5730G01Z-1.320F20.0
N5740G2X5.544Y14.014I-0.101J0.000F500.0
N5750G2X5.443Y14.114I0.000J0.101
N5760G2X5.544Y14.215I0.100J0.000
N5770G2X5.644Y14.114I0.000J-0.101
N5780G01Z-1.360F20.0
N5790G2X5.544Y14.014I-0.101J0.000F500.0
N5800G2X5.443Y14.114I0.000J0.101
N5810G2X5.544Y14.215I0.100J0.000
N5820G2X5.644Y14.114I0.000J-0.101
N5830G01Z-1.400F20.0
N5840G2X5.544Y14.014I-0.101J0.000F500.0
N5850G2X5.443Y14.114I0.000J0.101
N5860G2X5.544Y14.215I0.100J0.000
N5870G2X5.644Y14.114I0.000J-0.101
N5880G01Z-1.440F20.0
N5890G2X5.544Y14.014I-0.101J0.000F500.0
N5900G2X5.443Y14.114I0.000J0.101
N5910G2X5.544Y14.215I0.100J0.000
N5920G2X5.644Y14.114I0.000J-0.101
N5930G01Z-1.480F20.0
N5940G2X5.544Y14.014I-0.101J0.000F500.0
N5950G2X5.443Y14.114I0.000J0.101
N5960G2X5.544Y14.215I0.100J0.000
N5970G2X5.644Y14.114I0.000J-0.101
N5980G01Z-1.520F20.0
N5990G2X5.544Y14.014I-0.101J0.000F500.0
N6000G2X5.443Y14.114I0.000J0.101
N6010G2X5.544Y14.215I0.100J0.000
N6020G2X5.644Y14.114I0.000J-0.101
N6030G01Z-1.560F20.0
N6040G2X5.544Y14.014I-0.101J0.000F500.0
N6050G2X5.443Y14.114I0.000J0.101
N6060G2X5.544Y14.215I0.100J0.000
N6070G2X5.644Y14.114I0.000J-0.101
N6080G01Z-1.600F20.0
N6090G2X5.544Y14.014I-0.101J0.000F500.0
N6100G2X5.443Y14.114I0.000J0.101
N6110G2X5.544Y14.215I0.100J0.000
N6120G2X5.644Y14.114I0.000J-0.101
N6130G00Z6.000
N6140G00X9.887Y15.872
N6150G01Z-0.040F20.0
N6160G2X9.786Y15.771I-0.101J0.000F500.0
N6170G2X9.686Y15.872I0.000J0.101
N6180G2X9.786Y15.972I0.100J0.000
N6190G2X9.887Y15.872I0.000J-0.101
N6200G01Z-0.080F20.0
N6210G2X9.786Y15.771I-0.101J0.000F500.0
N6220G2X9.686Y15.872I0.000J0.101
N6230G2X9.786Y15.972I0.100J0.000
N6240G2X9.887Y15.872I0.000J-0.101
N6250G01Z-0.120F20.0
N6260G2X9.786Y15.771I-0.101J0.000F500.0
N6270G2X9.686Y15.872I0.000J0.101
N6280G2X9.786Y15.972I0.100J0.000
N6290G2X9.887Y15.872I0.000J-0.101
N6300G01Z-0.160F20.0
N6310G2X9.786Y15.771I-0.101J0.000F500.0
N6320G2X9.686Y15.872I0.000J0.101
N6330G2X9.786Y15.972I0.100J0.000
N6340G2X9.887Y15.872I0.000J-0.101
N6350G01Z-0.200F20.0
N6360G2X9.786Y15.771I-0.101J0.000F500.0
N6370G2X9.686Y15.872I0.000J0.101
N6380G2X9.786Y15.972I0.100J0.000
N6390G2X9.887Y15.872I0.000J-0.101
N6400G01Z-0.240F20.0
N6410G2X9.786Y15.771I-0.101J0.000F500.0
N6420G2X9.686Y15.872I0.000J0.101
N6430G2X9.786Y15.972I0.100J0.000
N6440G2X9.887Y15.872I0.000J-0.101
N6450G01Z-0.280F20.0
N6460G2X9.786Y15.771I-0.101J0.000F500.0
N6470G2X9.686Y15.872I0.000J0.101
N6480G2X9.786Y15.972I0.100J0.000
N6490G2X9.887Y15.872I0.000J-0.101
N6500G01Z-0.320F20.0
N6510G2X9.786Y15.771I-0.101J0.000F500.0
N6520G2X9.686Y15.872I0.000J0.101
N6530G2X9.786Y15.972I0.100J0.000
N6540G2X9.887Y15.872I0.000J-0.101
N6550G01Z-0.360F20.0
N6560G2X9.786Y15.771I-0.101J0.000F500.0
N6570G2X9.686Y15.872I0.000J0.101
N6580G2X9.786Y15.972I0.100J0.000
N6590G2X9.887Y15.872I0.000J-0.101
N6600G01Z-0.400F20.0
N6610G2X9.786Y15.771I-0.101J0.000F500.0
N6620G2X9.686Y15.872I0.000J0.101
N6630G2X9.786Y15.972I0.100J0.000
N6640G2X9.887Y15.872I0.000J-0.101
N6650G01Z-0.440F20.0
N6660G2X9.786Y15.771I-0.101J0.000F500.0
N6670G2X9.686Y15.872I0.000J0.101
N6680G2X9.786Y15.972I0.100J0.000
N6690G2X9.887Y15.872I0.000J-0.101
N6700G01Z-0.480F20.0
N6710G2X9.786Y15.771I-0.101J0.000F500.0
N6720G2X9.686Y15.872I0.000J0.101
N6730G2X9.786Y15.972I0.100J0.000
N6740G2X9.887Y15.872I0.000J-0.101
N6750G01Z-0.520F20.0
N6760G2X9.786Y15.771I-0.101J0.000F500.0
N6770G2X9.686Y15.872I0.000J0.101
N6780G2X9.786Y15.972I0.100J0.000
N6790G2X9.887Y15.872I0.000J-0.101
N6800G01Z-0.560F20.0
N6810G2X9.786Y15.771I-0.101J0.000F500.0
N6820G2X9.686Y15.872I0.000J0.101
N6830G2X9.786Y15.972I0.100J0.000
N6840G2X9.887Y15.872I0.000J-0.101
N6850G01Z-0.600F20.0
N6860G2X9.786Y15.771I-0.101J0.000F500.0
N6870G2X9.686Y15.872I0.000J0.101
N6880G2X9.786Y15.972I0.100J0.000
N6890G2X9.887Y15.872I0.000J-0.101
N6900G01Z-0.640F20.0
N6910G2X9.786Y15.771I-0.101J0.000F500.0
N6920G2X9.686Y15.872I0.000J0.101
N6930G2X9.786Y15.972I0.100J0.000
N6940G2X9.887Y15.872I0.000J-0.101
N6950G01Z-0.680F20.0
N6960G2X9.786Y15.771I-0.101J0.000F500.0
N6970G2X9.686Y15.872I0.000J0.101
N6980G2X9.786Y15.972I0.100J0.000
N6990G2X9.887Y15.872I0.000J-0.101
N7000G01Z-0.720F20.0
N7010G2X9.786Y15.771I-0.101J0.000F500.0
N7020G2X9.686Y15.872I0.000J0.101
N7030G2X9.786Y15.972I0.100J0.000
N7040G2X9.887Y15.872I0.000J-0.101
N7050G01Z-0.760F20.0
N7060G2X9.786Y15.771I-0.101J0.000F500.0
N7070G2X9.686Y15.872I0.000J0.101
N7080G2X9.786Y15.972I0.100J0.000
N7090G2X9.887Y15.872I0.000J-0.101
N7100G01Z-0.800F20.0
N7110G2X9.786Y15.771I-0.101J0.000F500.0
N7120G2X9.686Y15.872I0.000J0.101
N7130G2X9.786Y15.972I0.100J0.000
N7140G2X9.887Y15.872I0.000J-0.101
N7150G01Z-0.840F20.0
N7160G2X9.786Y15.771I-0.101J0.000F500.0
N7170G2X9.686Y15.872I0.000J0.101
N7180G2X9.786Y15.972I0.100J0.000
N7190G2X9.887Y15.872I0.000J-0.101
N7200G01Z-0.880F20.0
N7210G2X9.786Y15.771I-0.101J0.000F500.0
N7220G2X9.686Y15.872I0.000J0.101
N7230G2X9.786Y15.972I0.100J0.000
N7240G2X9.887Y15.872I0.000J-0.101
N7250G01Z-0.920F20.0
N7260G2X9.786Y15.771I-0.101J0.000F500.0
N7270G2X9.686Y15.872I0.000J0.101
N7280G2X9.786Y15.972I0.100J0.000
N7290G2X9.887Y15.872I0.000J-0.101
N7300G01Z-0.960F20.0
N7310G2X9.786Y15.771I-0.101J0.000F500.0
N7320G2X9.686Y15.872I0.000J0.101
N7330G2X9.786Y15.972I0.100J0.000
N7340G2X9.887Y15.872I0.000J-0.101
N7350G01Z-1.000F20.0
N7360G2X9.786Y15.771I-0.101J0.000F500.0
N7370G2X9.686Y15.872I0.000J0.101
N7380G2X9.786Y15.972I0.100J0.000
N7390G2X9.887Y15.872I0.000J-0.101
N7400G01Z-1.040F20.0
N7410G2X9.786Y15.771I-0.101J0.000F500.0
N7420G2X9.686Y15.872I0.000J0.101
N7430G2X9.786Y15.972I0.100J0.000
N7440G2X9.887Y15.872I0.000J-0.101
N7450G01Z-1.080F20.0
N7460G2X9.786Y15.771I-0.101J0.000F500.0
N7470G2X9.686Y15.872I0.000J0.101
N7480G2X9.786Y15.972I0.100J0.000
N7490G2X9.887Y15.872I0.000J-0.101
N7500G01Z-1.120F20.0
N7510G2X9.786Y15.771I-0.101J0.000F500.0
N7520G2X9.686Y15.872I0.000J0.101
N7530G2X9.786Y15.972I0.100J0.000
N7540G2X9.887Y15.872I0.000J-0.101
N7550G01Z-1.160F20.0
N7560G2X9.786Y15.771I-0.101J0.000F500.0
N7570G2X9.686Y15.872I0.000J0.101
N7580G2X9.786Y15.972I0.100J0.000
N7590G2X9.887Y15.872I0.000J-0.101
N7600G01Z-1.200F20.0
N7610G2X9.786Y15.771I-0.101J0.000F500.0
N7620G2X9.686Y15.872I0.000J0.101
N7630G2X9.786Y15.972I0.100J0.000
N7640G2X9.887Y15.872I0.000J-0.101
N7650G01Z-1.240F20.0
N7660G2X9.786Y15.771I-0.101J0.000F500.0
N7670G2X9.686Y15.872I0.000J0.101
N7680G2X9.786Y15.972I0.100J0.000
N7690G2X9.887Y15.872I0.000J-0.101
N7700G01Z-1.280F20.0
N7710G2X9.786Y15.771I-0.101J0.000F500.0
N7720G2X9.686Y15.872I0.000J0.101
N7730G2X9.786Y15.972I0.100J0.000
N7740G2X9.887Y15.872I0.000J-0.101
N7750G01Z-1.320F20.0
N7760G2X9.786Y15.771I-0.101J0.000F500.0
N7770G2X9.686Y15.872I0.000J0.101
N7780G2X9.786Y15.972I0.100J0.000
N7790G2X9.887Y15.872I0.000J-0.101
N7800G01Z-1.360F20.0
N7810G2X9.786Y15.771I-0.101J0.000F500.0
N7820G2X9.686Y15.872I0.000J0.101
N7830G2X9.786Y15.972I0.100J0.000
N7840G2X9.887Y15.872I0.000J-0.101
N7850G01Z-1.400F20.0
N7860G2X9.786Y15.771I-0.101J0.000F500.0
N7870G2X9.686Y15.872I0.000J0.101
N7880G2X9.786Y15.972I0.100J0.000
N7890G2X9.887Y15.872I0.000J-0.101
N7900G01Z-1.440F20.0
N7910G2X9.786Y15.771I-0.101J0.000F500.0
N7920G2X9.686Y15.872I0.000J0.101
N7930G2X9.786Y15.972I0.100J0.000
N7940G2X9.887Y15.872I0.000J-0.101
N7950G01Z-1.480F20.0
N7960G2X9.786Y15.771I-0.101J0.000F500.0
N7970G2X9.686Y15.872I0.000J0.101
N7980G2X9.786Y15.972I0.100J0.000
N7990G2X9.887Y15.872I0.000J-0.101
N8000G01Z-1.520F20.0
N8010G2X9.786Y15.771I-0.101J0.000F500.0
N8020G2X9.686Y15.872I0.000J0.101
N8030G2X9.786Y15.972I0.100J0.000
N8040G2X9.887Y15.872I0.000J-0.101
N8050G01Z-1.560F20.0
N8060G2X9.786Y15.771I-0.101J0.000F500.0
N8070G2X9.686Y15.872I0.000J0.101
N8080G2X9.786Y15.972I0.100J0.000
N8090G2X9.887Y15.872I0.000J-0.101
N8100G01Z-1.600F20.0
N8110G2X9.786Y15.771I-0.101J0.000F500.0
N8120G2X9.686Y15.872I0.000J0.101
N8130G2X9.786Y15.972I0.100J0.000
N8140G2X9.887Y15.872I0.000J-0.101
N8150G00Z6.000
N8160G00X14.129Y14.114
N8170G01Z-0.040F20.0
N8180G2X14.029Y14.014I-0.101J0.000F500.0
N8190G2X13.928Y14.114I0.000J0.101
N8200G2X14.029Y14.215I0.101J0.000
N8210G2X14.129Y14.114I0.000J-0.101
N8220G01Z-0.080F20.0
N8230G2X14.029Y14.014I-0.101J0.000F500.0
N8240G2X13.928Y14.114I0.000J0.101
N8250G2X14.029Y14.215I0.101J0.000
N8260G2X14.129Y14.114I0.000J-0.101
N8270G01Z-0.120F20.0
N8280G2X14.029Y14.014I-0.101J0.000F500.0
N8290G2X13.928Y14.114I0.000J0.101
N8300G2X14.029Y14.215I0.101J0.000
N8310G2X14.129Y14.114I0.000J-0.101
N8320G01Z-0.160F20.0
N8330G2X14.029Y14.014I-0.101J0.000F500.0
N8340G2X13.928Y14.114I0.000J0.101
N8350G2X14.029Y14.215I0.101J0.000
N8360G2X14.129Y14.114I0.000J-0.101
N8370G01Z-0.200F20.0
N8380G2X14.029Y14.014I-0.101J0.000F500.0
N8390G2X13.928Y14.114I0.000J0.101
N8400G2X14.029Y14.215I0.101J0.000
N8410G2X14.129Y14.114I0.000J-0.101
N8420G01Z-0.240F20.0
N8430G2X14.029Y14.014I-0.101J0.000F500.0
N8440G2X13.928Y14.114I0.000J0.101
N8450G2X14.029Y14.215I0.101J0.000
N8460G2X14.129Y14.114I0.000J-0.101
N8470G01Z-0.280F20.0
N8480G2X14.029Y14.014I-0.101J0.000F500.0
N8490G2X13.928Y14.114I0.000J0.101
N8500G2X14.029Y14.215I0.101J0.000
N8510G2X14.129Y14.114I0.000J-0.101
N8520G01Z-0.320F20.0
N8530G2X14.029Y14.014I-0.101J0.000F500.0
N8540G2X13.928Y14.114I0.000J0.101
N8550G2X14.029Y14.215I0.101J0.000
N8560G2X14.129Y14.114I0.000J-0.101
N8570G01Z-0.360F20.0
N8580G2X14.029Y14.014I-0.101J0.000F500.0
N8590G2X13.928Y14.114I0.000J0.101
N8600G2X14.029Y14.215I0.101J0.000
N8610G2X14.129Y14.114I0.000J-0.101
N8620G01Z-0.400F20.0
N8630G2X14.029Y14.014I-0.101J0.000F500.0
N8640G2X13.928Y14.114I0.000J0.101
N8650G2X14.029Y14.215I0.101J0.000
N8660G2X14.129Y14.114I0.000J-0.101
N8670G01Z-0.440F20.0
N8680G2X14.029Y14.014I-0.101J0.000F500.0
N8690G2X13.928Y14.114I0.000J0.101
N8700G2X14.029Y14.215I0.101J0.000
N8710G2X14.129Y14.114I0.000J-0.101
N8720G01Z-0.480F20.0
N8730G2X14.029Y14.014I-0.101J0.000F500.0
N8740G2X13.928Y14.114I0.000J0.101
N8750G2X14.029Y14.215I0.101J0.000
N8760G2X14.129Y14.114I0.000J-0.101
N8770G01Z-0.520F20.0
N8780G2X14.029Y14.014I-0.101J0.000F500.0
N8790G2X13.928Y14.114I0.000J0.101
N8800G2X14.029Y14.215I0.101J0.000
N8810G2X14.129Y14.114I0.000J-0.101
N8820G01Z-0.560F20.0
N8830G2X14.029Y14.014I-0.101J0.000F500.0
N8840G2X13.928Y14.114I0.000J0.101
N8850G2X14.029Y14.215I0.101J0.000
N8860G2X14.129Y14.114I0.000J-0.101
N8870G01Z-0.600F20.0
N8880G2X14.029Y14.014I-0.101J0.000F500.0
N8890G2X13.928Y14.114I0.000J0.101
N8900G2X14.029Y14.215I0.101J0.000
N8910G2X14.129Y14.114I0.000J-0.101
N8920G01Z-0.640F20.0
N8930G2X14.029Y14.014I-0.101J0.000F500.0
N8940G2X13.928Y14.114I0.000J0.101
N8950G2X14.029Y14.215I0.101J0.000
N8960G2X14.129Y14.114I0.000J-0.101
N8970G01Z-0.680F20.0
N8980G2X14.029Y14.014I-0.101J0.000F500.0
N8990G2X13.928Y14.114I0.000J0.101
N9000G2X14.029Y14.215I0.101J0.000
N9010G2X14.129Y14.114I0.000J-0.101
N9020G01Z-0.720F20.0
N9030G2X14.029Y14.014I-0.101J0.000F500.0
N9040G2X13.928Y14.114I0.000J0.101
N9050G2X14.029Y14.215I0.101J0.000
N9060G2X14.129Y14.114I0.000J-0.101
N9070G01Z-0.760F20.0
N9080G2X14.029Y14.014I-0.101J0.000F500.0
N9090G2X13.928Y14.114I0.000J0.101
N9100G2X14.029Y14.215I0.101J0.000
N9110G2X14.129Y14.114I0.000J-0.101
N9120G01Z-0.800F20.0
N9130G2X14.029Y14.014I-0.101J0.000F500.0
N9140G2X13.928Y14.114I0.000J0.101
N9150G2X14.029Y14.215I0.101J0.000
N9160G2X14.129Y14.114I0.000J-0.101
N9170G01Z-0.840F20.0
N9180G2X14.029Y14.014I-0.101J0.000F500.0
N9190G2X13.928Y14.114I0.000J0.101
N9200G2X14.029Y14.215I0.101J0.000
N9210G2X14.129Y14.114I0.000J-0.101
N9220G01Z-0.880F20.0
N9230G2X14.029Y14.014I-0.101J0.000F500.0
N9240G2X13.928Y14.114I0.000J0.101
N9250G2X14.029Y14.215I0.101J0.000
N9260G2X14.129Y14.114I0.000J-0.101
N9270G01Z-0.920F20.0
N9280G2X14.029Y14.014I-0.101J0.000F500.0
N9290G2X13.928Y14.114I0.000J0.101
N9300G2X14.029Y14.215I0.101J0.000
N9310G2X14.129Y14.114I0.000J-0.101
N9320G01Z-0.960F20.0
N9330G2X14.029Y14.014I-0.101J0.000F500.0
N9340G2X13.928Y14.114I0.000J0.101
N9350G2X14.029Y14.215I0.101J0.000
N9360G2X14.129Y14.114I0.000J-0.101
N9370G01Z-1.000F20.0
N9380G2X14.029Y14.014I-0.101J0.000F500.0
N9390G2X13.928Y14.114I0.000J0.101
N9400G2X14.029Y14.215I0.101J0.000
N9410G2X14.129Y14.114I0.000J-0.101
N9420G01Z-1.040F20.0
N9430G2X14.029Y14.014I-0.101J0.000F500.0
N9440G2X13.928Y14.114I0.000J0.101
N9450G2X14.029Y14.215I0.101J0.000
N9460G2X14.129Y14.114I0.000J-0.101
N9470G01Z-1.080F20.0
N9480G2X14.029Y14.014I-0.101J0.000F500.0
N9490G2X13.928Y14.114I0.000J0.101
N9500G2X14.029Y14.215I0.101J0.000
N9510G2X14.129Y14.114I0.000J-0.101
N9520G01Z-1.120F20.0
N9530G2X14.029Y14.014I-0.101J0.000F500.0
N9540G2X13.928Y14.114I0.000J0.101
N9550G2X14.029Y14.215I0.101J0.000
N9560G2X14.129Y14.114I0.000J-0.101
N9570G01Z-1.160F20.0
N9580G2X14.029Y14.014I-0.101J0.000F500.0
N9590G2X13.928Y14.114I0.000J0.101
N9600G2X14.029Y14.215I0.101J0.000
N9610G2X14.129Y14.114I0.000J-0.101
N9620G01Z-1.200F20.0
N9630G2X14.029Y14.014I-0.101J0.000F500.0
N9640G2X13.928Y14.114I0.000J0.101
N9650G2X14.029Y14.215I0.101J0.000
N9660G2X14.129Y14.114I0.000J-0.101
N9670G01Z-1.240F20.0
N9680G2X14.029Y14.014I-0.101J0.000F500.0
N9690G2X13.928Y14.114I0.000J0.101
N9700G2X14.029Y14.215I0.101J0.000
N9710G2X14.129Y14.114I0.000J-0.101
N9720G01Z-1.280F20.0
N9730G2X14.029Y14.014I-0.101J0.000F500.0
N9740G2X13.928Y14.114I0.000J0.101
N9750G2X14.029Y14.215I0.101J0.000
N9760G2X14.129Y14.114I0.000J-0.101
N9770G01Z-1.320F20.0
N9780G2X14.029Y14.014I-0.101J0.000F500.0
N9790G2X13.928Y14.114I0.000J0.101
N9800G2X14.029Y14.215I0.101J0.000
N9810G2X14.129Y14.114I0.000J-0.101
N9820G01Z-1.360F20.0
N9830G2X14.029Y14.014I-0.101J0.000F500.0
N9840G2X13.928Y14.114I0.000J0.101
N9850G2X14.029Y14.215I0.101J0.000
N9860G2X14.129Y14.114I0.000J-0.101
N9870G01Z-1.400F20.0
N9880G2X14.029Y14.014I-0.101J0.000F500.0
N9890G2X13.928Y14.114I0.000J0.101
N9900G2X14.029Y14.215I0.101J0.000
N9910G2X14.129Y14.114I0.000J-0.101
N9920G01Z-1.440F20.0
N9930G2X14.029Y14.014I-0.101J0.000F500.0
N9940G2X13.928Y14.114I0.000J0.101
N9950G2X14.029Y14.215I0.101J0.000
N9960G2X14.129Y14.114I0.000J-0.101
N9970G01Z-1.480F20.0
N9980G2X14.029Y14.014I-0.101J0.000F500.0
N9990G2X13.928Y14.114I0.000J0.101
N10000G2X14.029Y14.215I0.101J0.000
N10010G2X14.129Y14.114I0.000J-0.101
N10020G01Z-1.520F20.0
N10030G2X14.029Y14.014I-0.101J0.000F500.0
N10040G2X13.928Y14.114I0.000J0.101
N10050G2X14.029Y14.215I0.101J0.000
N10060G2X14.129Y14.114I0.000J-0.101
N10070G01Z-1.560F20.0
N10080G2X14.029Y14.014I-0.101J0.000F500.0
N10090G2X13.928Y14.114I0.000J0.101
N10100G2X14.029Y14.215I0.101J0.000
N10110G2X14.129Y14.114I0.000J-0.101
N10120G01Z-1.600F20.0
N10130G2X14.029Y14.014I-0.101J0.000F500.0
N10140G2X13.928Y14.114I0.000J0.101
N10150G2X14.029Y14.215I0.101J0.000
N10160G2X14.129Y14.114I0.000J-0.101
N10170G00Z6.000
N10180G00X12.787Y9.872
N10190G01Z-0.040F20.0
N10200G2X9.786Y6.871I-3.001J0.000F500.0
N10210G2X6.786Y9.872I0.000J3.001
N10220G2X9.786Y12.872I3.000J0.000
N10230G2X12.787Y9.872I0.000J-3.000
N10240G01Z-0.080F20.0
N10250G2X9.786Y6.871I-3.001J0.000F500.0
N10260G2X6.786Y9.872I0.000J3.001
N10270G2X9.786Y12.872I3.000J0.000
N10280G2X12.787Y9.872I0.000J-3.000
N10290G01Z-0.120F20.0
N10300G2X9.786Y6.871I-3.001J0.000F500.0
N10310G2X6.786Y9.872I0.000J3.001
N10320G2X9.786Y12.872I3.000J0.000
N10330G2X12.787Y9.872I0.000J-3.000
N10340G01Z-0.160F20.0
N10350G2X9.786Y6.871I-3.001J0.000F500.0
N10360G2X6.786Y9.872I0.000J3.001
N10370G2X9.786Y12.872I3.000J0.000
N10380G2X12.787Y9.872I0.000J-3.000
N10390G01Z-0.200F20.0
N10400G2X9.786Y6.871I-3.001J0.000F500.0
N10410G2X6.786Y9.872I0.000J3.001
N10420G2X9.786Y12.872I3.000J0.000
N10430G2X12.787Y9.872I0.000J-3.000
N10440G01Z-0.240F20.0
N10450G2X9.786Y6.871I-3.001J0.000F500.0
N10460G2X6.786Y9.872I0.000J3.001
N10470G2X9.786Y12.872I3.000J0.000
N10480G2X12.787Y9.872I0.000J-3.000
N10490G01Z-0.280F20.0
N10500G2X9.786Y6.871I-3.001J0.000F500.0
N10510G2X6.786Y9.872I0.000J3.001
N10520G2X9.786Y12.872I3.000J0.000
N10530G2X12.787Y9.872I0.000J-3.000
N10540G01Z-0.320F20.0
N10550G2X9.786Y6.871I-3.001J0.000F500.0
N10560G2X6.786Y9.872I0.000J3.001
N10570G2X9.786Y12.872I3.000J0.000
N10580G2X12.787Y9.872I0.000J-3.000
N10590G01Z-0.360F20.0
N10600G2X9.786Y6.871I-3.001J0.000F500.0
N10610G2X6.786Y9.872I0.000J3.001
N10620G2X9.786Y12.872I3.000J0.000
N10630G2X12.787Y9.872I0.000J-3.000
N10640G01Z-0.400F20.0
N10650G2X9.786Y6.871I-3.001J0.000F500.0
N10660G2X6.786Y9.872I0.000J3.001
N10670G2X9.786Y12.872I3.000J0.000
N10680G2X12.787Y9.872I0.000J-3.000
N10690G01Z-0.440F20.0
N10700G2X9.786Y6.871I-3.001J0.000F500.0
N10710G2X6.786Y9.872I0.000J3.001
N10720G2X9.786Y12.872I3.000J0.000
N10730G2X12.787Y9.872I0.000J-3.000
N10740G01Z-0.480F20.0
N10750G2X9.786Y6.871I-3.001J0.000F500.0
N10760G2X6.786Y9.872I0.000J3.001
N10770G2X9.786Y12.872I3.000J0.000
N10780G2X12.787Y9.872I0.000J-3.000
N10790G01Z-0.520F20.0
N10800G2X9.786Y6.871I-3.001J0.000F500.0
N10810G2X6.786Y9.872I0.000J3.001
N10820G2X9.786Y12.872I3.000J0.000
N10830G2X12.787Y9.872I0.000J-3.000
N10840G01Z-0.560F20.0
N10850G2X9.786Y6.871I-3.001J0.000F500.0
N10860G2X6.786Y9.872I0.000J3.001
N10870G2X9.786Y12.872I3.000J0.000
N10880G2X12.787Y9.872I0.000J-3.000
N10890G01Z-0.600F20.0
N10900G2X9.786Y6.871I-3.001J0.000F500.0
N10910G2X6.786Y9.872I0.000J3.001
N10920G2X9.786Y12.872I3.000J0.000
N10930G2X12.787Y9.872I0.000J-3.000
N10940G01Z-0.640F20.0
N10950G2X9.786Y6.871I-3.001J0.000F500.0
N10960G2X6.786Y9.872I0.000J3.001
N10970G2X9.786Y12.872I3.000J0.000
N10980G2X12.787Y9.872I0.000J-3.000
N10990G01Z-0.680F20.0
N11000G2X9.786Y6.871I-3.001J0.000F500.0
N11010G2X6.786Y9.872I0.000J3.001
N11020G2X9.786Y12.872I3.000J0.000
N11030G2X12.787Y9.872I0.000J-3.000
N11040G01Z-0.720F20.0
N11050G2X9.786Y6.871I-3.001J0.000F500.0
N11060G2X6.786Y9.872I0.000J3.001
N11070G2X9.786Y12.872I3.000J0.000
N11080G2X12.787Y9.872I0.000J-3.000
N11090G01Z-0.760F20.0
N11100G2X9.786Y6.871I-3.001J0.000F500.0
N11110G2X6.786Y9.872I0.000J3.001
N11120G2X9.786Y12.872I3.000J0.000
N11130G2X12.787Y9.872I0.000J-3.000
N11140G01Z-0.800F20.0
N11150G2X9.786Y6.871I-3.001J0.000F500.0
N11160G2X6.786Y9.872I0.000J3.001
N11170G2X9.786Y12.872I3.000J0.000
N11180G2X12.787Y9.872I0.000J-3.000
N11190G01Z-0.840F20.0
N11200G2X9.786Y6.871I-3.001J0.000F500.0
N11210G2X6.786Y9.872I0.000J3.001
N11220G2X9.786Y12.872I3.000J0.000
N11230G2X12.787Y9.872I0.000J-3.000
N11240G01Z-0.880F20.0
N11250G2X9.786Y6.871I-3.001J0.000F500.0
N11260G2X6.786Y9.872I0.000J3.001
N11270G2X9.786Y12.872I3.000J0.000
N11280G2X12.787Y9.872I0.000J-3.000
N11290G01Z-0.920F20.0
N11300G2X9.786Y6.871I-3.001J0.000F500.0
N11310G2X6.786Y9.872I0.000J3.001
N11320G2X9.786Y12.872I3.000J0.000
N11330G2X12.787Y9.872I0.000J-3.000
N11340G01Z-0.960F20.0
N11350G2X9.786Y6.871I-3.001J0.000F500.0
N11360G2X6.786Y9.872I0.000J3.001
N11370G2X9.786Y12.872I3.000J0.000
N11380G2X12.787Y9.872I0.000J-3.000
N11390G01Z-1.000F20.0
N11400G2X9.786Y6.871I-3.001J0.000F500.0
N11410G2X6.786Y9.872I0.000J3.001
N11420G2X9.786Y12.872I3.000J0.000
N11430G2X12.787Y9.872I0.000J-3.000
N11440G01Z-1.040F20.0
N11450G2X9.786Y6.871I-3.001J0.000F500.0
N11460G2X6.786Y9.872I0.000J3.001
N11470G2X9.786Y12.872I3.000J0.000
N11480G2X12.787Y9.872I0.000J-3.000
N11490G01Z-1.080F20.0
N11500G2X9.786Y6.871I-3.001J0.000F500.0
N11510G2X6.786Y9.872I0.000J3.001
N11520G2X9.786Y12.872I3.000J0.000
N11530G2X12.787Y9.872I0.000J-3.000
N11540G01Z-1.120F20.0
N11550G2X9.786Y6.871I-3.001J0.000F500.0
N11560G2X6.786Y9.872I0.000J3.001
N11570G2X9.786Y12.872I3.000J0.000
N11580G2X12.787Y9.872I0.000J-3.000
N11590G01Z-1.160F20.0
N11600G2X9.786Y6.871I-3.001J0.000F500.0
N11610G2X6.786Y9.872I0.000J3.001
N11620G2X9.786Y12.872I3.000J0.000
N11630G2X12.787Y9.872I0.000J-3.000
N11640G01Z-1.200F20.0
N11650G2X9.786Y6.871I-3.001J0.000F500.0
N11660G2X6.786Y9.872I0.000J3.001
N11670G2X9.786Y12.872I3.000J0.000
N11680G2X12.787Y9.872I0.000J-3.000
N11690G01Z-1.240F20.0
N11700G2X9.786Y6.871I-3.001J0.000F500.0
N11710G2X6.786Y9.872I0.000J3.001
N11720G2X9.786Y12.872I3.000J0.000
N11730G2X12.787Y9.872I0.000J-3.000
N11740G01Z-1.280F20.0
N11750G2X9.786Y6.871I-3.001J0.000F500.0
N11760G2X6.786Y9.872I0.000J3.001
N11770G2X9.786Y12.872I3.000J0.000
N11780G2X12.787Y9.872I0.000J-3.000
N11790G01Z-1.320F20.0
N11800G2X9.786Y6.871I-3.001J0.000F500.0
N11810G2X6.786Y9.872I0.000J3.001
N11820G2X9.786Y12.872I3.000J0.000
N11830G2X12.787Y9.872I0.000J-3.000
N11840G01Z-1.360F20.0
N11850G2X9.786Y6.871I-3.001J0.000F500.0
N11860G2X6.786Y9.872I0.000J3.001
N11870G2X9.786Y12.872I3.000J0.000
N11880G2X12.787Y9.872I0.000J-3.000
N11890G01Z-1.400F20.0
N11900G2X9.786Y6.871I-3.001J0.000F500.0
N11910G2X6.786Y9.872I0.000J3.001
N11920G2X9.786Y12.872I3.000J0.000
N11930G2X12.787Y9.872I0.000J-3.000
N11940G01Z-1.440F20.0
N11950G2X9.786Y6.871I-3.001J0.000F500.0
N11960G2X6.786Y9.872I0.000J3.001
N11970G2X9.786Y12.872I3.000J0.000
N11980G2X12.787Y9.872I0.000J-3.000
N11990G01Z-1.480F20.0
N12000G2X9.786Y6.871I-3.001J0.000F500.0
N12010G2X6.786Y9.872I0.000J3.001
N12020G2X9.786Y12.872I3.000J0.000
N12030G2X12.787Y9.872I0.000J-3.000
N12040G01Z-1.520F20.0
N12050G2X9.786Y6.871I-3.001J0.000F500.0
N12060G2X6.786Y9.872I0.000J3.001
N12070G2X9.786Y12.872I3.000J0.000
N12080G2X12.787Y9.872I0.000J-3.000
N12090G01Z-1.560F20.0
N12100G2X9.786Y6.871I-3.001J0.000F500.0
N12110G2X6.786Y9.872I0.000J3.001
N12120G2X9.786Y12.872I3.000J0.000
N12130G2X12.787Y9.872I0.000J-3.000
N12140G01Z-1.600F20.0
N12150G2X9.786Y6.871I-3.001J0.000F500.0
N12160G2X6.786Y9.872I0.000J3.001
N12170G2X9.786Y12.872I3.000J0.000
N12180G2X12.787Y9.872I0.000J-3.000
N12190G00Z6.000
N12200G00X15.887
N12210G01Z-0.040F20.0
N12220G2X15.786Y9.771I-0.101J0.000F500.0
N12230G2X15.686Y9.872I0.000J0.101
N12240G2X15.786Y9.972I0.100J0.000
N12250G2X15.887Y9.872I0.000J-0.101
N12260G01Z-0.080F20.0
N12270G2X15.786Y9.771I-0.101J0.000F500.0
N12280G2X15.686Y9.872I0.000J0.101
N12290G2X15.786Y9.972I0.100J0.000
N12300G2X15.887Y9.872I0.000J-0.101
N12310G01Z-0.120F20.0
N12320G2X15.786Y9.771I-0.101J0.000F500.0
N12330G2X15.686Y9.872I0.000J0.101
N12340G2X15.786Y9.972I0.100J0.000
N12350G2X15.887Y9.872I0.000J-0.101
N12360G01Z-0.160F20.0
N12370G2X15.786Y9.771I-0.101J0.000F500.0
N12380G2X15.686Y9.872I0.000J0.101
N12390G2X15.786Y9.972I0.100J0.000
N12400G2X15.887Y9.872I0.000J-0.101
N12410G01Z-0.200F20.0
N12420G2X15.786Y9.771I-0.101J0.000F500.0
N12430G2X15.686Y9.872I0.000J0.101
N12440G2X15.786Y9.972I0.100J0.000
N12450G2X15.887Y9.872I0.000J-0.101
N12460G01Z-0.240F20.0
N12470G2X15.786Y9.771I-0.101J0.000F500.0
N12480G2X15.686Y9.872I0.000J0.101
N12490G2X15.786Y9.972I0.100J0.000
N12500G2X15.887Y9.872I0.000J-0.101
N12510G01Z-0.280F20.0
N12520G2X15.786Y9.771I-0.101J0.000F500.0
N12530G2X15.686Y9.872I0.000J0.101
N12540G2X15.786Y9.972I0.100J0.000
N12550G2X15.887Y9.872I0.000J-0.101
N12560G01Z-0.320F20.0
N12570G2X15.786Y9.771I-0.101J0.000F500.0
N12580G2X15.686Y9.872I0.000J0.101
N12590G2X15.786Y9.972I0.100J0.000
N12600G2X15.887Y9.872I0.000J-0.101
N12610G01Z-0.360F20.0
N12620G2X15.786Y9.771I-0.101J0.000F500.0
N12630G2X15.686Y9.872I0.000J0.101
N12640G2X15.786Y9.972I0.100J0.000
N12650G2X15.887Y9.872I0.000J-0.101
N12660G01Z-0.400F20.0
N12670G2X15.786Y9.771I-0.101J0.000F500.0
N12680G2X15.686Y9.872I0.000J0.101
N12690G2X15.786Y9.972I0.100J0.000
N12700G2X15.887Y9.872I0.000J-0.101
N12710G01Z-0.440F20.0
N12720G2X15.786Y9.771I-0.101J0.000F500.0
N12730G2X15.686Y9.872I0.000J0.101
N12740G2X15.786Y9.972I0.100J0.000
N12750G2X15.887Y9.872I0.000J-0.101
N12760G01Z-0.480F20.0
N12770G2X15.786Y9.771I-0.101J0.000F500.0
N12780G2X15.686Y9.872I0.000J0.101
N12790G2X15.786Y9.972I0.100J0.000
N12800G2X15.887Y9.872I0.000J-0.101
N12810G01Z-0.520F20.0
N12820G2X15.786Y9.771I-0.101J0.000F500.0
N12830G2X15.686Y9.872I0.000J0.101
N12840G2X15.786Y9.972I0.100J0.000
N12850G2X15.887Y9.872I0.000J-0.101
N12860G01Z-0.560F20.0
N12870G2X15.786Y9.771I-0.101J0.000F500.0
N12880G2X15.686Y9.872I0.000J0.101
N12890G2X15.786Y9.972I0.100J0.000
N12900G2X15.887Y9.872I0.000J-0.101
N12910G01Z-0.600F20.0
N12920G2X15.786Y9.771I-0.101J0.000F500.0
N12930G2X15.686Y9.872I0.000J0.101
N12940G2X15.786Y9.972I0.100J0.000
N12950G2X15.887Y9.872I0.000J-0.101
N12960G01Z-0.640F20.0
N12970G2X15.786Y9.771I-0.101J0.000F500.0
N12980G2X15.686Y9.872I0.000J0.101
N12990G2X15.786Y9.972I0.100J0.000
N13000G2X15.887Y9.872I0.000J-0.101
N13010G01Z-0.680F20.0
N13020G2X15.786Y9.771I-0.101J0.000F500.0
N13030G2X15.686Y9.872I0.000J0.101
N13040G2X15.786Y9.972I0.100J0.000
N13050G2X15.887Y9.872I0.000J-0.101
N13060G01Z-0.720F20.0
N13070G2X15.786Y9.771I-0.101J0.000F500.0
N13080G2X15.686Y9.872I0.000J0.101
N13090G2X15.786Y9.972I0.100J0.000
N13100G2X15.887Y9.872I0.000J-0.101
N13110G01Z-0.760F20.0
N13120G2X15.786Y9.771I-0.101J0.000F500.0
N13130G2X15.686Y9.872I0.000J0.101
N13140G2X15.786Y9.972I0.100J0.000
N13150G2X15.887Y9.872I0.000J-0.101
N13160G01Z-0.800F20.0
N13170G2X15.786Y9.771I-0.101J0.000F500.0
N13180G2X15.686Y9.872I0.000J0.101
N13190G2X15.786Y9.972I0.100J0.000
N13200G2X15.887Y9.872I0.000J-0.101
N13210G01Z-0.840F20.0
N13220G2X15.786Y9.771I-0.101J0.000F500.0
N13230G2X15.686Y9.872I0.000J0.101
N13240G2X15.786Y9.972I0.100J0.000
N13250G2X15.887Y9.872I0.000J-0.101
N13260G01Z-0.880F20.0
N13270G2X15.786Y9.771I-0.101J0.000F500.0
N13280G2X15.686Y9.872I0.000J0.101
N13290G2X15.786Y9.972I0.100J0.000
N13300G2X15.887Y9.872I0.000J-0.101
N13310G01Z-0.920F20.0
N13320G2X15.786Y9.771I-0.101J0.000F500.0
N13330G2X15.686Y9.872I0.000J0.101
N13340G2X15.786Y9.972I0.100J0.000
N13350G2X15.887Y9.872I0.000J-0.101
N13360G01Z-0.960F20.0
N13370G2X15.786Y9.771I-0.101J0.000F500.0
N13380G2X15.686Y9.872I0.000J0.101
N13390G2X15.786Y9.972I0.100J0.000
N13400G2X15.887Y9.872I0.000J-0.101
N13410G01Z-1.000F20.0
N13420G2X15.786Y9.771I-0.101J0.000F500.0
N13430G2X15.686Y9.872I0.000J0.101
N13440G2X15.786Y9.972I0.100J0.000
N13450G2X15.887Y9.872I0.000J-0.101
N13460G01Z-1.040F20.0
N13470G2X15.786Y9.771I-0.101J0.000F500.0
N13480G2X15.686Y9.872I0.000J0.101
N13490G2X15.786Y9.972I0.100J0.000
N13500G2X15.887Y9.872I0.000J-0.101
N13510G01Z-1.080F20.0
N13520G2X15.786Y9.771I-0.101J0.000F500.0
N13530G2X15.686Y9.872I0.000J0.101
N13540G2X15.786Y9.972I0.100J0.000
N13550G2X15.887Y9.872I0.000J-0.101
N13560G01Z-1.120F20.0
N13570G2X15.786Y9.771I-0.101J0.000F500.0
N13580G2X15.686Y9.872I0.000J0.101
N13590G2X15.786Y9.972I0.100J0.000
N13600G2X15.887Y9.872I0.000J-0.101
N13610G01Z-1.160F20.0
N13620G2X15.786Y9.771I-0.101J0.000F500.0
N13630G2X15.686Y9.872I0.000J0.101
N13640G2X15.786Y9.972I0.100J0.000
N13650G2X15.887Y9.872I0.000J-0.101
N13660G01Z-1.200F20.0
N13670G2X15.786Y9.771I-0.101J0.000F500.0
N13680G2X15.686Y9.872I0.000J0.101
N13690G2X15.786Y9.972I0.100J0.000
N13700G2X15.887Y9.872I0.000J-0.101
N13710G01Z-1.240F20.0
N13720G2X15.786Y9.771I-0.101J0.000F500.0
N13730G2X15.686Y9.872I0.000J0.101
N13740G2X15.786Y9.972I0.100J0.000
N13750G2X15.887Y9.872I0.000J-0.101
N13760G01Z-1.280F20.0
N13770G2X15.786Y9.771I-0.101J0.000F500.0
N13780G2X15.686Y9.872I0.000J0.101
N13790G2X15.786Y9.972I0.100J0.000
N13800G2X15.887Y9.872I0.000J-0.101
N13810G01Z-1.320F20.0
N13820G2X15.786Y9.771I-0.101J0.000F500.0
N13830G2X15.686Y9.872I0.000J0.101
N13840G2X15.786Y9.972I0.100J0.000
N13850G2X15.887Y9.872I0.000J-0.101
N13860G01Z-1.360F20.0
N13870G2X15.786Y9.771I-0.101J0.000F500.0
N13880G2X15.686Y9.872I0.000J0.101
N13890G2X15.786Y9.972I0.100J0.000
N13900G2X15.887Y9.872I0.000J-0.101
N13910G01Z-1.400F20.0
N13920G2X15.786Y9.771I-0.101J0.000F500.0
N13930G2X15.686Y9.872I0.000J0.101
N13940G2X15.786Y9.972I0.100J0.000
N13950G2X15.887Y9.872I0.000J-0.101
N13960G01Z-1.440F20.0
N13970G2X15.786Y9.771I-0.101J0.000F500.0
N13980G2X15.686Y9.872I0.000J0.101
N13990G2X15.786Y9.972I0.100J0.000
N14000G2X15.887Y9.872I0.000J-0.101
N14010G01Z-1.480F20.0
N14020G2X15.786Y9.771I-0.101J0.000F500.0
N14030G2X15.686Y9.872I0.000J0.101
N14040G2X15.786Y9.972I0.100J0.000
N14050G2X15.887Y9.872I0.000J-0.101
N14060G01Z-1.520F20.0
N14070G2X15.786Y9.771I-0.101J0.000F500.0
N14080G2X15.686Y9.872I0.000J0.101
N14090G2X15.786Y9.972I0.100J0.000
N14100G2X15.887Y9.872I0.000J-0.101
N14110G01Z-1.560F20.0
N14120G2X15.786Y9.771I-0.101J0.000F500.0
N14130G2X15.686Y9.872I0.000J0.101
N14140G2X15.786Y9.972I0.100J0.000
N14150G2X15.887Y9.872I0.000J-0.101
N14160G01Z-1.600F20.0
N14170G2X15.786Y9.771I-0.101J0.000F500.0
N14180G2X15.686Y9.872I0.000J0.101
N14190G2X15.786Y9.972I0.100J0.000
N14200G2X15.887Y9.872I0.000J-0.101
N14210G00Z6.000
N14220G00X14.129Y5.629
N14230G01Z-0.040F20.0
N14240G2X14.029Y5.528I-0.101J0.000F500.0
N14250G2X13.928Y5.629I0.000J0.101
N14260G2X14.029Y5.729I0.101J0.000
N14270G2X14.129Y5.629I0.000J-0.100
N14280G01Z-0.080F20.0
N14290G2X14.029Y5.528I-0.101J0.000F500.0
N14300G2X13.928Y5.629I0.000J0.101
N14310G2X14.029Y5.729I0.101J0.000
N14320G2X14.129Y5.629I0.000J-0.100
N14330G01Z-0.120F20.0
N14340G2X14.029Y5.528I-0.101J0.000F500.0
N14350G2X13.928Y5.629I0.000J0.101
N14360G2X14.029Y5.729I0.101J0.000
N14370G2X14.129Y5.629I0.000J-0.100
N14380G01Z-0.160F20.0
N14390G2X14.029Y5.528I-0.101J0.000F500.0
N14400G2X13.928Y5.629I0.000J0.101
N14410G2X14.029Y5.729I0.101J0.000
N14420G2X14.129Y5.629I0.000J-0.100
N14430G01Z-0.200F20.0
N14440G2X14.029Y5.528I-0.101J0.000F500.0
N14450G2X13.928Y5.629I0.000J0.101
N14460G2X14.029Y5.729I0.101J0.000
N14470G2X14.129Y5.629I0.000J-0.100
N14480G01Z-0.240F20.0
N14490G2X14.029Y5.528I-0.101J0.000F500.0
N14500G2X13.928Y5.629I0.000J0.101
N14510G2X14.029Y5.729I0.101J0.000
N14520G2X14.129Y5.629I0.000J-0.100
N14530G01Z-0.280F20.0
N14540G2X14.029Y5.528I-0.101J0.000F500.0
N14550G2X13.928Y5.629I0.000J0.101
N14560G2X14.029Y5.729I0.101J0.000
N14570G2X14.129Y5.629I0.000J-0.100
N14580G01Z-0.320F20.0
N14590G2X14.029Y5.528I-0.101J0.000F500.0
N14600G2X13.928Y5.629I0.000J0.101
N14610G2X14.029Y5.729I0.101J0.000
N14620G2X14.129Y5.629I0.000J-0.100
N14630G01Z-0.360F20.0
N14640G2X14.029Y5.528I-0.101J0.000F500.0
N14650G2X13.928Y5.629I0.000J0.101
N14660G2X14.029Y5.729I0.101J0.000
N14670G2X14.129Y5.629I0.000J-0.100
N14680G01Z-0.400F20.0
N14690G2X14.029Y5.528I-0.101J0.000F500.0
N14700G2X13.928Y5.629I0.000J0.101
N14710G2X14.029Y5.729I0.101J0.000
N14720G2X14.129Y5.629I0.000J-0.100
N14730G01Z-0.440F20.0
N14740G2X14.029Y5.528I-0.101J0.000F500.0
N14750G2X13.928Y5.629I0.000J0.101
N14760G2X14.029Y5.729I0.101J0.000
N14770G2X14.129Y5.629I0.000J-0.100
N14780G01Z-0.480F20.0
N14790G2X14.029Y5.528I-0.101J0.000F500.0
N14800G2X13.928Y5.629I0.000J0.101
N14810G2X14.029Y5.729I0.101J0.000
N14820G2X14.129Y5.629I0.000J-0.100
N14830G01Z-0.520F20.0
N14840G2X14.029Y5.528I-0.101J0.000F500.0
N14850G2X13.928Y5.629I0.000J0.101
N14860G2X14.029Y5.729I0.101J0.000
N14870G2X14.129Y5.629I0.000J-0.100
N14880G01Z-0.560F20.0
N14890G2X14.029Y5.528I-0.101J0.000F500.0
N14900G2X13.928Y5.629I0.000J0.101
N14910G2X14.029Y5.729I0.101J0.000
N14920G2X14.129Y5.629I0.000J-0.100
N14930G01Z-0.600F20.0
N14940G2X14.029Y5.528I-0.101J0.000F500.0
N14950G2X13.928Y5.629I0.000J0.101
N14960G2X14.029Y5.729I0.101J0.000
N14970G2X14.129Y5.629I0.000J-0.100
N14980G01Z-0.640F20.0
N14990G2X14.029Y5.528I-0.101J0.000F500.0
N15000G2X13.928Y5.629I0.000J0.101
N15010G2X14.029Y5.729I0.101J0.000
N15020G2X14.129Y5.629I0.000J-0.100
N15030G01Z-0.680F20.0
N15040G2X14.029Y5.528I-0.101J0.000F500.0
N15050G2X13.928Y5.629I0.000J0.101
N15060G2X14.029Y5.729I0.101J0.000
N15070G2X14.129Y5.629I0.000J-0.100
N15080G01Z-0.720F20.0
N15090G2X14.029Y5.528I-0.101J0.000F500.0
N15100G2X13.928Y5.629I0.000J0.101
N15110G2X14.029Y5.729I0.101J0.000
N15120G2X14.129Y5.629I0.000J-0.100
N15130G01Z-0.760F20.0
N15140G2X14.029Y5.528I-0.101J0.000F500.0
N15150G2X13.928Y5.629I0.000J0.101
N15160G2X14.029Y5.729I0.101J0.000
N15170G2X14.129Y5.629I0.000J-0.100
N15180G01Z-0.800F20.0
N15190G2X14.029Y5.528I-0.101J0.000F500.0
N15200G2X13.928Y5.629I0.000J0.101
N15210G2X14.029Y5.729I0.101J0.000
N15220G2X14.129Y5.629I0.000J-0.100
N15230G01Z-0.840F20.0
N15240G2X14.029Y5.528I-0.101J0.000F500.0
N15250G2X13.928Y5.629I0.000J0.101
N15260G2X14.029Y5.729I0.101J0.000
N15270G2X14.129Y5.629I0.000J-0.100
N15280G01Z-0.880F20.0
N15290G2X14.029Y5.528I-0.101J0.000F500.0
N15300G2X13.928Y5.629I0.000J0.101
N15310G2X14.029Y5.729I0.101J0.000
N15320G2X14.129Y5.629I0.000J-0.100
N15330G01Z-0.920F20.0
N15340G2X14.029Y5.528I-0.101J0.000F500.0
N15350G2X13.928Y5.629I0.000J0.101
N15360G2X14.029Y5.729I0.101J0.000
N15370G2X14.129Y5.629I0.000J-0.100
N15380G01Z-0.960F20.0
N15390G2X14.029Y5.528I-0.101J0.000F500.0
N15400G2X13.928Y5.629I0.000J0.101
N15410G2X14.029Y5.729I0.101J0.000
N15420G2X14.129Y5.629I0.000J-0.100
N15430G01Z-1.000F20.0
N15440G2X14.029Y5.528I-0.101J0.000F500.0
N15450G2X13.928Y5.629I0.000J0.101
N15460G2X14.029Y5.729I0.101J0.000
N15470G2X14.129Y5.629I0.000J-0.100
N15480G01Z-1.040F20.0
N15490G2X14.029Y5.528I-0.101J0.000F500.0
N15500G2X13.928Y5.629I0.000J0.101
N15510G2X14.029Y5.729I0.101J0.000
N15520G2X14.129Y5.629I0.000J-0.100
N15530G01Z-1.080F20.0
N15540G2X14.029Y5.528I-0.101J0.000F500.0
N15550G2X13.928Y5.629I0.000J0.101
N15560G2X14.029Y5.729I0.101J0.000
N15570G2X14.129Y5.629I0.000J-0.100
N15580G01Z-1.120F20.0
N15590G2X14.029Y5.528I-0.101J0.000F500.0
N15600G2X13.928Y5.629I0.000J0.101
N15610G2X14.029Y5.729I0.101J0.000
N15620G2X14.129Y5.629I0.000J-0.100
N15630G01Z-1.160F20.0
N15640G2X14.029Y5.528I-0.101J0.000F500.0
N15650G2X13.928Y5.629I0.000J0.101
N15660G2X14.029Y5.729I0.101J0.000
N15670G2X14.129Y5.629I0.000J-0.100
N15680G01Z-1.200F20.0
N15690G2X14.029Y5.528I-0.101J0.000F500.0
N15700G2X13.928Y5.629I0.000J0.101
N15710G2X14.029Y5.729I0.101J0.000
N15720G2X14.129Y5.629I0.000J-0.100
N15730G01Z-1.240F20.0
N15740G2X14.029Y5.528I-0.101J0.000F500.0
N15750G2X13.928Y5.629I0.000J0.101
N15760G2X14.029Y5.729I0.101J0.000
N15770G2X14.129Y5.629I0.000J-0.100
N15780G01Z-1.280F20.0
N15790G2X14.029Y5.528I-0.101J0.000F500.0
N15800G2X13.928Y5.629I0.000J0.101
N15810G2X14.029Y5.729I0.101J0.000
N15820G2X14.129Y5.629I0.000J-0.100
N15830G01Z-1.320F20.0
N15840G2X14.029Y5.528I-0.101J0.000F500.0
N15850G2X13.928Y5.629I0.000J0.101
N15860G2X14.029Y5.729I0.101J0.000
N15870G2X14.129Y5.629I0.000J-0.100
N15880G01Z-1.360F20.0
N15890G2X14.029Y5.528I-0.101J0.000F500.0
N15900G2X13.928Y5.629I0.000J0.101
N15910G2X14.029Y5.729I0.101J0.000
N15920G2X14.129Y5.629I0.000J-0.100
N15930G01Z-1.400F20.0
N15940G2X14.029Y5.528I-0.101J0.000F500.0
N15950G2X13.928Y5.629I0.000J0.101
N15960G2X14.029Y5.729I0.101J0.000
N15970G2X14.129Y5.629I0.000J-0.100
N15980G01Z-1.440F20.0
N15990G2X14.029Y5.528I-0.101J0.000F500.0
N16000G2X13.928Y5.629I0.000J0.101
N16010G2X14.029Y5.729I0.101J0.000
N16020G2X14.129Y5.629I0.000J-0.100
N16030G01Z-1.480F20.0
N16040G2X14.029Y5.528I-0.101J0.000F500.0
N16050G2X13.928Y5.629I0.000J0.101
N16060G2X14.029Y5.729I0.101J0.000
N16070G2X14.129Y5.629I0.000J-0.100
N16080G01Z-1.520F20.0
N16090G2X14.029Y5.528I-0.101J0.000F500.0
N16100G2X13.928Y5.629I0.000J0.101
N16110G2X14.029Y5.729I0.101J0.000
N16120G2X14.129Y5.629I0.000J-0.100
N16130G01Z-1.560F20.0
N16140G2X14.029Y5.528I-0.101J0.000F500.0
N16150G2X13.928Y5.629I0.000J0.101
N16160G2X14.029Y5.729I0.101J0.000
N16170G2X14.129Y5.629I0.000J-0.100
N16180G01Z-1.600F20.0
N16190G2X14.029Y5.528I-0.101J0.000F500.0
N16200G2X13.928Y5.629I0.000J0.101
N16210G2X14.029Y5.729I0.101J0.000
N16220G2X14.129Y5.629I0.000J-0.100
N16230G00Z6.000
N16240G00X9.887Y3.872
N16250G01Z-0.040F20.0
N16260G2X9.786Y3.771I-0.101J0.000F500.0
N16270G2X9.686Y3.872I0.000J0.101
N16280G2X9.786Y3.972I0.100J0.000
N16290G2X9.887Y3.872I0.000J-0.101
N16300G01Z-0.080F20.0
N16310G2X9.786Y3.771I-0.101J0.000F500.0
N16320G2X9.686Y3.872I0.000J0.101
N16330G2X9.786Y3.972I0.100J0.000
N16340G2X9.887Y3.872I0.000J-0.101
N16350G01Z-0.120F20.0
N16360G2X9.786Y3.771I-0.101J0.000F500.0
N16370G2X9.686Y3.872I0.000J0.101
N16380G2X9.786Y3.972I0.100J0.000
N16390G2X9.887Y3.872I0.000J-0.101
N16400G01Z-0.160F20.0
N16410G2X9.786Y3.771I-0.101J0.000F500.0
N16420G2X9.686Y3.872I0.000J0.101
N16430G2X9.786Y3.972I0.100J0.000
N16440G2X9.887Y3.872I0.000J-0.101
N16450G01Z-0.200F20.0
N16460G2X9.786Y3.771I-0.101J0.000F500.0
N16470G2X9.686Y3.872I0.000J0.101
N16480G2X9.786Y3.972I0.100J0.000
N16490G2X9.887Y3.872I0.000J-0.101
N16500G01Z-0.240F20.0
N16510G2X9.786Y3.771I-0.101J0.000F500.0
N16520G2X9.686Y3.872I0.000J0.101
N16530G2X9.786Y3.972I0.100J0.000
N16540G2X9.887Y3.872I0.000J-0.101
N16550G01Z-0.280F20.0
N16560G2X9.786Y3.771I-0.101J0.000F500.0
N16570G2X9.686Y3.872I0.000J0.101
N16580G2X9.786Y3.972I0.100J0.000
N16590G2X9.887Y3.872I0.000J-0.101
N16600G01Z-0.320F20.0
N16610G2X9.786Y3.771I-0.101J0.000F500.0
N16620G2X9.686Y3.872I0.000J0.101
N16630G2X9.786Y3.972I0.100J0.000
N16640G2X9.887Y3.872I0.000J-0.101
N16650G01Z-0.360F20.0
N16660G2X9.786Y3.771I-0.101J0.000F500.0
N16670G2X9.686Y3.872I0.000J0.101
N16680G2X9.786Y3.972I0.100J0.000
N16690G2X9.887Y3.872I0.000J-0.101
N16700G01Z-0.400F20.0
N16710G2X9.786Y3.771I-0.101J0.000F500.0
N16720G2X9.686Y3.872I0.000J0.101
N16730G2X9.786Y3.972I0.100J0.000
N16740G2X9.887Y3.872I0.000J-0.101
N16750G01Z-0.440F20.0
N16760G2X9.786Y3.771I-0.101J0.000F500.0
N16770G2X9.686Y3.872I0.000J0.101
N16780G2X9.786Y3.972I0.100J0.000
N16790G2X9.887Y3.872I0.000J-0.101
N16800G01Z-0.480F20.0
N16810G2X9.786Y3.771I-0.101J0.000F500.0
N16820G2X9.686Y3.872I0.000J0.101
N16830G2X9.786Y3.972I0.100J0.000
N16840G2X9.887Y3.872I0.000J-0.101
N16850G01Z-0.520F20.0
N16860G2X9.786Y3.771I-0.101J0.000F500.0
N16870G2X9.686Y3.872I0.000J0.101
N16880G2X9.786Y3.972I0.100J0.000
N16890G2X9.887Y3.872I0.000J-0.101
N16900G01Z-0.560F20.0
N16910G2X9.786Y3.771I-0.101J0.000F500.0
N16920G2X9.686Y3.872I0.000J0.101
N16930G2X9.786Y3.972I0.100J0.000
N16940G2X9.887Y3.872I0.000J-0.101
N16950G01Z-0.600F20.0
N16960G2X9.786Y3.771I-0.101J0.000F500.0
N16970G2X9.686Y3.872I0.000J0.101
N16980G2X9.786Y3.972I0.100J0.000
N16990G2X9.887Y3.872I0.000J-0.101
N17000G01Z-0.640F20.0
N17010G2X9.786Y3.771I-0.101J0.000F500.0
N17020G2X9.686Y3.872I0.000J0.101
N17030G2X9.786Y3.972I0.100J0.000
N17040G2X9.887Y3.872I0.000J-0.101
N17050G01Z-0.680F20.0
N17060G2X9.786Y3.771I-0.101J0.000F500.0
N17070G2X9.686Y3.872I0.000J0.101
N17080G2X9.786Y3.972I0.100J0.000
N17090G2X9.887Y3.872I0.000J-0.101
N17100G01Z-0.720F20.0
N17110G2X9.786Y3.771I-0.101J0.000F500.0
N17120G2X9.686Y3.872I0.000J0.101
N17130G2X9.786Y3.972I0.100J0.000
N17140G2X9.887Y3.872I0.000J-0.101
N17150G01Z-0.760F20.0
N17160G2X9.786Y3.771I-0.101J0.000F500.0
N17170G2X9.686Y3.872I0.000J0.101
N17180G2X9.786Y3.972I0.100J0.000
N17190G2X9.887Y3.872I0.000J-0.101
N17200G01Z-0.800F20.0
N17210G2X9.786Y3.771I-0.101J0.000F500.0
N17220G2X9.686Y3.872I0.000J0.101
N17230G2X9.786Y3.972I0.100J0.000
N17240G2X9.887Y3.872I0.000J-0.101
N17250G01Z-0.840F20.0
N17260G2X9.786Y3.771I-0.101J0.000F500.0
N17270G2X9.686Y3.872I0.000J0.101
N17280G2X9.786Y3.972I0.100J0.000
N17290G2X9.887Y3.872I0.000J-0.101
N17300G01Z-0.880F20.0
N17310G2X9.786Y3.771I-0.101J0.000F500.0
N17320G2X9.686Y3.872I0.000J0.101
N17330G2X9.786Y3.972I0.100J0.000
N17340G2X9.887Y3.872I0.000J-0.101
N17350G01Z-0.920F20.0
N17360G2X9.786Y3.771I-0.101J0.000F500.0
N17370G2X9.686Y3.872I0.000J0.101
N17380G2X9.786Y3.972I0.100J0.000
N17390G2X9.887Y3.872I0.000J-0.101
N17400G01Z-0.960F20.0
N17410G2X9.786Y3.771I-0.101J0.000F500.0
N17420G2X9.686Y3.872I0.000J0.101
N17430G2X9.786Y3.972I0.100J0.000
N17440G2X9.887Y3.872I0.000J-0.101
N17450G01Z-1.000F20.0
N17460G2X9.786Y3.771I-0.101J0.000F500.0
N17470G2X9.686Y3.872I0.000J0.101
N17480G2X9.786Y3.972I0.100J0.000
N17490G2X9.887Y3.872I0.000J-0.101
N17500G01Z-1.040F20.0
N17510G2X9.786Y3.771I-0.101J0.000F500.0
N17520G2X9.686Y3.872I0.000J0.101
N17530G2X9.786Y3.972I0.100J0.000
N17540G2X9.887Y3.872I0.000J-0.101
N17550G01Z-1.080F20.0
N17560G2X9.786Y3.771I-0.101J0.000F500.0
N17570G2X9.686Y3.872I0.000J0.101
N17580G2X9.786Y3.972I0.100J0.000
N17590G2X9.887Y3.872I0.000J-0.101
N17600G01Z-1.120F20.0
N17610G2X9.786Y3.771I-0.101J0.000F500.0
N17620G2X9.686Y3.872I0.000J0.101
N17630G2X9.786Y3.972I0.100J0.000
N17640G2X9.887Y3.872I0.000J-0.101
N17650G01Z-1.160F20.0
N17660G2X9.786Y3.771I-0.101J0.000F500.0
N17670G2X9.686Y3.872I0.000J0.101
N17680G2X9.786Y3.972I0.100J0.000
N17690G2X9.887Y3.872I0.000J-0.101
N17700G01Z-1.200F20.0
N17710G2X9.786Y3.771I-0.101J0.000F500.0
N17720G2X9.686Y3.872I0.000J0.101
N17730G2X9.786Y3.972I0.100J0.000
N17740G2X9.887Y3.872I0.000J-0.101
N17750G01Z-1.240F20.0
N17760G2X9.786Y3.771I-0.101J0.000F500.0
N17770G2X9.686Y3.872I0.000J0.101
N17780G2X9.786Y3.972I0.100J0.000
N17790G2X9.887Y3.872I0.000J-0.101
N17800G01Z-1.280F20.0
N17810G2X9.786Y3.771I-0.101J0.000F500.0
N17820G2X9.686Y3.872I0.000J0.101
N17830G2X9.786Y3.972I0.100J0.000
N17840G2X9.887Y3.872I0.000J-0.101
N17850G01Z-1.320F20.0
N17860G2X9.786Y3.771I-0.101J0.000F500.0
N17870G2X9.686Y3.872I0.000J0.101
N17880G2X9.786Y3.972I0.100J0.000
N17890G2X9.887Y3.872I0.000J-0.101
N17900G01Z-1.360F20.0
N17910G2X9.786Y3.771I-0.101J0.000F500.0
N17920G2X9.686Y3.872I0.000J0.101
N17930G2X9.786Y3.972I0.100J0.000
N17940G2X9.887Y3.872I0.000J-0.101
N17950G01Z-1.400F20.0
N17960G2X9.786Y3.771I-0.101J0.000F500.0
N17970G2X9.686Y3.872I0.000J0.101
N17980G2X9.786Y3.972I0.100J0.000
N17990G2X9.887Y3.872I0.000J-0.101
N18000G01Z-1.440F20.0
N18010G2X9.786Y3.771I-0.101J0.000F500.0
N18020G2X9.686Y3.872I0.000J0.101
N18030G2X9.786Y3.972I0.100J0.000
N18040G2X9.887Y3.872I0.000J-0.101
N18050G01Z-1.480F20.0
N18060G2X9.786Y3.771I-0.101J0.000F500.0
N18070G2X9.686Y3.872I0.000J0.101
N18080G2X9.786Y3.972I0.100J0.000
N18090G2X9.887Y3.872I0.000J-0.101
N18100G01Z-1.520F20.0
N18110G2X9.786Y3.771I-0.101J0.000F500.0
N18120G2X9.686Y3.872I0.000J0.101
N18130G2X9.786Y3.972I0.100J0.000
N18140G2X9.887Y3.872I0.000J-0.101
N18150G01Z-1.560F20.0
N18160G2X9.786Y3.771I-0.101J0.000F500.0
N18170G2X9.686Y3.872I0.000J0.101
N18180G2X9.786Y3.972I0.100J0.000
N18190G2X9.887Y3.872I0.000J-0.101
N18200G01Z-1.600F20.0
N18210G2X9.786Y3.771I-0.101J0.000F500.0
N18220G2X9.686Y3.872I0.000J0.101
N18230G2X9.786Y3.972I0.100J0.000
N18240G2X9.887Y3.872I0.000J-0.101
N18250G00Z6.000
N18260G00X21.718Y3.945
N18270G01Z-0.040F20.0
N18280G2X21.617Y3.845I-0.101J0.000F500.0
N18290G2X21.517Y3.945I0.000J0.101
N18300G2X21.617Y4.046I0.101J0.000
N18310G2X21.718Y3.945I0.000J-0.100
N18320G01Z-0.080F20.0
N18330G2X21.617Y3.845I-0.101J0.000F500.0
N18340G2X21.517Y3.945I0.000J0.101
N18350G2X21.617Y4.046I0.101J0.000
N18360G2X21.718Y3.945I0.000J-0.100
N18370G01Z-0.120F20.0
N18380G2X21.617Y3.845I-0.101J0.000F500.0
N18390G2X21.517Y3.945I0.000J0.101
N18400G2X21.617Y4.046I0.101J0.000
N18410G2X21.718Y3.945I0.000J-0.100
N18420G01Z-0.160F20.0
N18430G2X21.617Y3.845I-0.101J0.000F500.0
N18440G2X21.517Y3.945I0.000J0.101
N18450G2X21.617Y4.046I0.101J0.000
N18460G2X21.718Y3.945I0.000J-0.100
N18470G01Z-0.200F20.0
N18480G2X21.617Y3.845I-0.101J0.000F500.0
N18490G2X21.517Y3.945I0.000J0.101
N18500G2X21.617Y4.046I0.101J0.000
N18510G2X21.718Y3.945I0.000J-0.100
N18520G01Z-0.240F20.0
N18530G2X21.617Y3.845I-0.101J0.000F500.0
N18540G2X21.517Y3.945I0.000J0.101
N18550G2X21.617Y4.046I0.101J0.000
N18560G2X21.718Y3.945I0.000J-0.100
N18570G01Z-0.280F20.0
N18580G2X21.617Y3.845I-0.101J0.000F500.0
N18590G2X21.517Y3.945I0.000J0.101
N18600G2X21.617Y4.046I0.101J0.000
N18610G2X21.718Y3.945I0.000J-0.100
N18620G01Z-0.320F20.0
N18630G2X21.617Y3.845I-0.101J0.000F500.0
N18640G2X21.517Y3.945I0.000J0.101
N18650G2X21.617Y4.046I0.101J0.000
N18660G2X21.718Y3.945I0.000J-0.100
N18670G01Z-0.360F20.0
N18680G2X21.617Y3.845I-0.101J0.000F500.0
N18690G2X21.517Y3.945I0.000J0.101
N18700G2X21.617Y4.046I0.101J0.000
N18710G2X21.718Y3.945I0.000J-0.100
N18720G01Z-0.400F20.0
N18730G2X21.617Y3.845I-0.101J0.000F500.0
N18740G2X21.517Y3.945I0.000J0.101
N18750G2X21.617Y4.046I0.101J0.000
N18760G2X21.718Y3.945I0.000J-0.100
N18770G01Z-0.440F20.0
N18780G2X21.617Y3.845I-0.101J0.000F500.0
N18790G2X21.517Y3.945I0.000J0.101
N18800G2X21.617Y4.046I0.101J0.000
N18810G2X21.718Y3.945I0.000J-0.100
N18820G01Z-0.480F20.0
N18830G2X21.617Y3.845I-0.101J0.000F500.0
N18840G2X21.517Y3.945I0.000J0.101
N18850G2X21.617Y4.046I0.101J0.000
N18860G2X21.718Y3.945I0.000J-0.100
N18870G01Z-0.520F20.0
N18880G2X21.617Y3.845I-0.101J0.000F500.0
N18890G2X21.517Y3.945I0.000J0.101
N18900G2X21.617Y4.046I0.101J0.000
N18910G2X21.718Y3.945I0.000J-0.100
N18920G01Z-0.560F20.0
N18930G2X21.617Y3.845I-0.101J0.000F500.0
N18940G2X21.517Y3.945I0.000J0.101
N18950G2X21.617Y4.046I0.101J0.000
N18960G2X21.718Y3.945I0.000J-0.100
N18970G01Z-0.600F20.0
N18980G2X21.617Y3.845I-0.101J0.000F500.0
N18990G2X21.517Y3.945I0.000J0.101
N19000G2X21.617Y4.046I0.101J0.000
N19010G2X21.718Y3.945I0.000J-0.100
N19020G01Z-0.640F20.0
N19030G2X21.617Y3.845I-0.101J0.000F500.0
N19040G2X21.517Y3.945I0.000J0.101
N19050G2X21.617Y4.046I0.101J0.000
N19060G2X21.718Y3.945I0.000J-0.100
N19070G01Z-0.680F20.0
N19080G2X21.617Y3.845I-0.101J0.000F500.0
N19090G2X21.517Y3.945I0.000J0.101
N19100G2X21.617Y4.046I0.101J0.000
N19110G2X21.718Y3.945I0.000J-0.100
N19120G01Z-0.720F20.0
N19130G2X21.617Y3.845I-0.101J0.000F500.0
N19140G2X21.517Y3.945I0.000J0.101
N19150G2X21.617Y4.046I0.101J0.000
N19160G2X21.718Y3.945I0.000J-0.100
N19170G01Z-0.760F20.0
N19180G2X21.617Y3.845I-0.101J0.000F500.0
N19190G2X21.517Y3.945I0.000J0.101
N19200G2X21.617Y4.046I0.101J0.000
N19210G2X21.718Y3.945I0.000J-0.100
N19220G01Z-0.800F20.0
N19230G2X21.617Y3.845I-0.101J0.000F500.0
N19240G2X21.517Y3.945I0.000J0.101
N19250G2X21.617Y4.046I0.101J0.000
N19260G2X21.718Y3.945I0.000J-0.100
N19270G01Z-0.840F20.0
N19280G2X21.617Y3.845I-0.101J0.000F500.0
N19290G2X21.517Y3.945I0.000J0.101
N19300G2X21.617Y4.046I0.101J0.000
N19310G2X21.718Y3.945I0.000J-0.100
N19320G01Z-0.880F20.0
N19330G2X21.617Y3.845I-0.101J0.000F500.0
N19340G2X21.517Y3.945I0.000J0.101
N19350G2X21.617Y4.046I0.101J0.000
N19360G2X21.718Y3.945I0.000J-0.100
N19370G01Z-0.920F20.0
N19380G2X21.617Y3.845I-0.101J0.000F500.0
N19390G2X21.517Y3.945I0.000J0.101
N19400G2X21.617Y4.046I0.101J0.000
N19410G2X21.718Y3.945I0.000J-0.100
N19420G01Z-0.960F20.0
N19430G2X21.617Y3.845I-0.101J0.000F500.0
N19440G2X21.517Y3.945I0.000J0.101
N19450G2X21.617Y4.046I0.101J0.000
N19460G2X21.718Y3.945I0.000J-0.100
N19470G01Z-1.000F20.0
N19480G2X21.617Y3.845I-0.101J0.000F500.0
N19490G2X21.517Y3.945I0.000J0.101
N19500G2X21.617Y4.046I0.101J0.000
N19510G2X21.718Y3.945I0.000J-0.100
N19520G01Z-1.040F20.0
N19530G2X21.617Y3.845I-0.101J0.000F500.0
N19540G2X21.517Y3.945I0.000J0.101
N19550G2X21.617Y4.046I0.101J0.000
N19560G2X21.718Y3.945I0.000J-0.100
N19570G01Z-1.080F20.0
N19580G2X21.617Y3.845I-0.101J0.000F500.0
N19590G2X21.517Y3.945I0.000J0.101
N19600G2X21.617Y4.046I0.101J0.000
N19610G2X21.718Y3.945I0.000J-0.100
N19620G01Z-1.120F20.0
N19630G2X21.617Y3.845I-0.101J0.000F500.0
N19640G2X21.517Y3.945I0.000J0.101
N19650G2X21.617Y4.046I0.101J0.000
N19660G2X21.718Y3.945I0.000J-0.100
N19670G01Z-1.160F20.0
N19680G2X21.617Y3.845I-0.101J0.000F500.0
N19690G2X21.517Y3.945I0.000J0.101
N19700G2X21.617Y4.046I0.101J0.000
N19710G2X21.718Y3.945I0.000J-0.100
N19720G01Z-1.200F20.0
N19730G2X21.617Y3.845I-0.101J0.000F500.0
N19740G2X21.517Y3.945I0.000J0.101
N19750G2X21.617Y4.046I0.101J0.000
N19760G2X21.718Y3.945I0.000J-0.100
N19770G01Z-1.240F20.0
N19780G2X21.617Y3.845I-0.101J0.000F500.0
N19790G2X21.517Y3.945I0.000J0.101
N19800G2X21.617Y4.046I0.101J0.000
N19810G2X21.718Y3.945I0.000J-0.100
N19820G01Z-1.280F20.0
N19830G2X21.617Y3.845I-0.101J0.000F500.0
N19840G2X21.517Y3.945I0.000J0.101
N19850G2X21.617Y4.046I0.101J0.000
N19860G2X21.718Y3.945I0.000J-0.100
N19870G01Z-1.320F20.0
N19880G2X21.617Y3.845I-0.101J0.000F500.0
N19890G2X21.517Y3.945I0.000J0.101
N19900G2X21.617Y4.046I0.101J0.000
N19910G2X21.718Y3.945I0.000J-0.100
N19920G01Z-1.360F20.0
N19930G2X21.617Y3.845I-0.101J0.000F500.0
N19940G2X21.517Y3.945I0.000J0.101
N19950G2X21.617Y4.046I0.101J0.000
N19960G2X21.718Y3.945I0.000J-0.100
N19970G01Z-1.400F20.0
N19980G2X21.617Y3.845I-0.101J0.000F500.0
N19990G2X21.517Y3.945I0.000J0.101
N20000G2X21.617Y4.046I0.101J0.000
N20010G2X21.718Y3.945I0.000J-0.100
N20020G01Z-1.440F20.0
N20030G2X21.617Y3.845I-0.101J0.000F500.0
N20040G2X21.517Y3.945I0.000J0.101
N20050G2X21.617Y4.046I0.101J0.000
N20060G2X21.718Y3.945I0.000J-0.100
N20070G01Z-1.480F20.0
N20080G2X21.617Y3.845I-0.101J0.000F500.0
N20090G2X21.517Y3.945I0.000J0.101
N20100G2X21.617Y4.046I0.101J0.000
N20110G2X21.718Y3.945I0.000J-0.100
N20120G01Z-1.520F20.0
N20130G2X21.617Y3.845I-0.101J0.000F500.0
N20140G2X21.517Y3.945I0.000J0.101
N20150G2X21.617Y4.046I0.101J0.000
N20160G2X21.718Y3.945I0.000J-0.100
N20170G01Z-1.560F20.0
N20180G2X21.617Y3.845I-0.101J0.000F500.0
N20190G2X21.517Y3.945I0.000J0.101
N20200G2X21.617Y4.046I0.101J0.000
N20210G2X21.718Y3.945I0.000J-0.100
N20220G01Z-1.600F20.0
N20230G2X21.617Y3.845I-0.101J0.000F500.0
N20240G2X21.517Y3.945I0.000J0.101
N20250G2X21.617Y4.046I0.101J0.000
N20260G2X21.718Y3.945I0.000J-0.100
N20270G00Z6.000
N20280G00X26.561Y5.445
N20290G01Z-0.040F20.0
N20300G2X25.716Y6.981I0.000J1.001F500.0
N20310G3X24.275Y12.218I-3.098J1.964
N20320G2X23.728Y13.176I0.452J0.893
N20330G01X25.538Y40.629
N20340G2X26.093Y41.460I0.998J-0.066
N20350G3X26.472Y47.211I-1.475J2.985
N20360G2X26.030Y48.108I0.557J0.831
N20370G01X26.338Y52.767
N20380G2X27.679Y53.641I0.998J-0.066
N20390G3X34.837Y53.406I3.939J10.804
N20400G2X36.118Y52.445I0.280J-0.960
N20410G01Y47.568
N20420G2X35.743Y46.787I-1.000J0.000
N20430G3Y42.104I1.875J-2.341
N20440G2X36.118Y41.323I-0.625J-0.781
N20450G01Y12.068
N20460G2X35.743Y11.287I-1.000J0.000
N20470G3X35.524Y6.796I1.875J-2.342
N20480G2X35.326Y5.880I-0.963J-0.271
N20490G01X35.276Y5.820
N20500G2X34.495Y5.445I-0.781J0.625
N20510G01X26.561
N20520G01Z-0.080F20.0
N20530G2X25.716Y6.981I0.000J1.001F500.0
N20540G3X24.275Y12.218I-3.098J1.964
N20550G2X23.728Y13.176I0.452J0.893
N20560G01X25.538Y40.629
N20570G2X26.093Y41.460I0.998J-0.066
N20580G3X26.472Y47.211I-1.475J2.985
N20590G2X26.030Y48.108I0.557J0.831
N20600G01X26.338Y52.767
N20610G2X27.679Y53.641I0.998J-0.066
N20620G3X34.837Y53.406I3.939J10.804
N20630G2X36.118Y52.445I0.280J-0.960
N20640G01Y47.568
N20650G2X35.743Y46.787I-1.000J0.000
N20660G3Y42.104I1.875J-2.341
N20670G2X36.118Y41.323I-0.625J-0.781
N20680G01Y12.068
N20690G2X35.743Y11.287I-1.000J0.000
N20700G3X35.524Y6.796I1.875J-2.342
N20710G2X35.326Y5.880I-0.963J-0.271
N20720G01X35.276Y5.820
N20730G2X34.495Y5.445I-0.781J0.625
N20740G01X26.561
N20750G01Z-0.120F20.0
N20760G2X25.716Y6.981I0.000J1.001F500.0
N20770G3X24.275Y12.218I-3.098J1.964
N20780G2X23.728Y13.176I0.452J0.893
N20790G01X25.538Y40.629
N20800G2X26.093Y41.460I0.998J-0.066
N20810G3X26.472Y47.211I-1.475J2.985
N20820G2X26.030Y48.108I0.557J0.831
N20830G01X26.338Y52.767
N20840G2X27.679Y53.641I0.998J-0.066
N20850G3X34.837Y53.406I3.939J10.804
N20860G2X36.118Y52.445I0.280J-0.960
N20870G01Y47.568
N20880G2X35.743Y46.787I-1.000J0.000
N20890G3Y42.104I1.875J-2.341
N20900G2X36.118Y41.323I-0.625J-0.781
N20910G01Y12.068
N20920G2X35.743Y11.287I-1.000J0.000
N20930G3X35.524Y6.796I1.875J-2.342
N20940G2X35.326Y5.880I-0.963J-0.271
N20950G01X35.276Y5.820
N20960G2X34.495Y5.445I-0.781J0.625
N20970G01X26.561
N20980G01Z-0.160F20.0
N20990G2X25.716Y6.981I0.000J1.001F500.0
N21000G3X24.275Y12.218I-3.098J1.964
N21010G2X23.728Y13.176I0.452J0.893
N21020G01X25.538Y40.629
N21030G2X26.093Y41.460I0.998J-0.066
N21040G3X26.472Y47.211I-1.475J2.985
N21050G2X26.030Y48.108I0.557J0.831
N21060G01X26.338Y52.767
N21070G2X27.679Y53.641I0.998J-0.066
N21080G3X34.837Y53.406I3.939J10.804
N21090G2X36.118Y52.445I0.280J-0.960
N21100G01Y47.568
N21110G2X35.743Y46.787I-1.000J0.000
N21120G3Y42.104I1.875J-2.341
N21130G2X36.118Y41.323I-0.625J-0.781
N21140G01Y12.068
N21150G2X35.743Y11.287I-1.000J0.000
N21160G3X35.524Y6.796I1.875J-2.342
N21170G2X35.326Y5.880I-0.963J-0.271
N21180G01X35.276Y5.820
N21190G2X34.495Y5.445I-0.781J0.625
N21200G01X26.561
N21210G01Z-0.200F20.0
N21220G2X25.716Y6.981I0.000J1.001F500.0
N21230G3X24.275Y12.218I-3.098J1.964
N21240G2X23.728Y13.176I0.452J0.893
N21250G01X25.538Y40.629
N21260G2X26.093Y41.460I0.998J-0.066
N21270G3X26.472Y47.211I-1.475J2.985
N21280G2X26.030Y48.108I0.557J0.831
N21290G01X26.338Y52.767
N21300G2X27.679Y53.641I0.998J-0.066
N21310G3X34.837Y53.406I3.939J10.804
N21320G2X36.118Y52.445I0.280J-0.960
N21330G01Y47.568
N21340G2X35.743Y46.787I-1.000J0.000
N21350G3Y42.104I1.875J-2.341
N21360G2X36.118Y41.323I-0.625J-0.781
N21370G01Y12.068
N21380G2X35.743Y11.287I-1.000J0.000
N21390G3X35.524Y6.796I1.875J-2.342
N21400G2X35.326Y5.880I-0.963J-0.271
N21410G01X35.276Y5.820
N21420G2X34.495Y5.445I-0.781J0.625
N21430G01X26.561
N21440G01Z-0.240F20.0
N21450G2X25.716Y6.981I0.000J1.001F500.0
N21460G3X24.275Y12.218I-3.098J1.964
N21470G2X23.728Y13.176I0.452J0.893
N21480G01X25.538Y40.629
N21490G2X26.093Y41.460I0.998J-0.066
N21500G3X26.472Y47.211I-1.475J2.985
N21510G2X26.030Y48.108I0.557J0.831
N21520G01X26.338Y52.767
N21530G2X27.679Y53.641I0.998J-0.066
N21540G3X34.837Y53.406I3.939J10.804
N21550G2X36.118Y52.445I0.280J-0.960
N21560G01Y47.568
N21570G2X35.743Y46.787I-1.000J0.000
N21580G3Y42.104I1.875J-2.341
N21590G2X36.118Y41.323I-0.625J-0.781
N21600G01Y12.068
N21610G2X35.743Y11.287I-1.000J0.000
N21620G3X35.524Y6.796I1.875J-2.342
N21630G2X35.326Y5.880I-0.963J-0.271
N21640G01X35.276Y5.820
N21650G2X34.495Y5.445I-0.781J0.625
N21660G01X26.561
N21670G01Z-0.280F20.0
N21680G2X25.716Y6.981I0.000J1.001F500.0
N21690G3X24.275Y12.218I-3.098J1.964
N21700G2X23.728Y13.176I0.452J0.893
N21710G01X25.538Y40.629
N21720G2X26.093Y41.460I0.998J-0.066
N21730G3X26.472Y47.211I-1.475J2.985
N21740G2X26.030Y48.108I0.557J0.831
N21750G01X26.338Y52.767
N21760G2X27.679Y53.641I0.998J-0.066
N21770G3X34.837Y53.406I3.939J10.804
N21780G2X36.118Y52.445I0.280J-0.960
N21790G01Y47.568
N21800G2X35.743Y46.787I-1.000J0.000
N21810G3Y42.104I1.875J-2.341
N21820G2X36.118Y41.323I-0.625J-0.781
N21830G01Y12.068
N21840G2X35.743Y11.287I-1.000J0.000
N21850G3X35.524Y6.796I1.875J-2.342
N21860G2X35.326Y5.880I-0.963J-0.271
N21870G01X35.276Y5.820
N21880G2X34.495Y5.445I-0.781J0.625
N21890G01X26.561
N21900G01Z-0.320F20.0
N21910G2X25.716Y6.981I0.000J1.001F500.0
N21920G3X24.275Y12.218I-3.098J1.964
N21930G2X23.728Y13.176I0.452J0.893
N21940G01X25.538Y40.629
N21950G2X26.093Y41.460I0.998J-0.066
N21960G3X26.472Y47.211I-1.475J2.985
N21970G2X26.030Y48.108I0.557J0.831
N21980G01X26.338Y52.767
N21990G2X27.679Y53.641I0.998J-0.066
N22000G3X34.837Y53.406I3.939J10.804
N22010G2X36.118Y52.445I0.280J-0.960
N22020G01Y47.568
N22030G2X35.743Y46.787I-1.000J0.000
N22040G3Y42.104I1.875J-2.341
N22050G2X36.118Y41.323I-0.625J-0.781
N22060G01Y12.068
N22070G2X35.743Y11.287I-1.000J0.000
N22080G3X35.524Y6.796I1.875J-2.342
N22090G2X35.326Y5.880I-0.963J-0.271
N22100G01X35.276Y5.820
N22110G2X34.495Y5.445I-0.781J0.625
N22120G01X26.561
N22130G01Z-0.360F20.0
N22140G2X25.716Y6.981I0.000J1.001F500.0
N22150G3X24.275Y12.218I-3.098J1.964
N22160G2X23.728Y13.176I0.452J0.893
N22170G01X25.538Y40.629
N22180G2X26.093Y41.460I0.998J-0.066
N22190G3X26.472Y47.211I-1.475J2.985
N22200G2X26.030Y48.108I0.557J0.831
N22210G01X26.338Y52.767
N22220G2X27.679Y53.641I0.998J-0.066
N22230G3X34.837Y53.406I3.939J10.804
N22240G2X36.118Y52.445I0.280J-0.960
N22250G01Y47.568
N22260G2X35.743Y46.787I-1.000J0.000
N22270G3Y42.104I1.875J-2.341
N22280G2X36.118Y41.323I-0.625J-0.781
N22290G01Y12.068
N22300G2X35.743Y11.287I-1.000J0.000
N22310G3X35.524Y6.796I1.875J-2.342
N22320G2X35.326Y5.880I-0.963J-0.271
N22330G01X35.276Y5.820
N22340G2X34.495Y5.445I-0.781J0.625
N22350G01X26.561
N22360G01Z-0.400F20.0
N22370G2X25.716Y6.981I0.000J1.001F500.0
N22380G3X24.275Y12.218I-3.098J1.964
N22390G2X23.728Y13.176I0.452J0.893
N22400G01X25.538Y40.629
N22410G2X26.093Y41.460I0.998J-0.066
N22420G3X26.472Y47.211I-1.475J2.985
N22430G2X26.030Y48.108I0.557J0.831
N22440G01X26.338Y52.767
N22450G2X27.679Y53.641I0.998J-0.066
N22460G3X34.837Y53.406I3.939J10.804
N22470G2X36.118Y52.445I0.280J-0.960
N22480G01Y47.568
N22490G2X35.743Y46.787I-1.000J0.000
N22500G3Y42.104I1.875J-2.341
N22510G2X36.118Y41.323I-0.625J-0.781
N22520G01Y12.068
N22530G2X35.743Y11.287I-1.000J0.000
N22540G3X35.524Y6.796I1.875J-2.342
N22550G2X35.326Y5.880I-0.963J-0.271
N22560G01X35.276Y5.820
N22570G2X34.495Y5.445I-0.781J0.625
N22580G01X26.561
N22590G01Z-0.440F20.0
N22600G2X25.716Y6.981I0.000J1.001F500.0
N22610G3X24.275Y12.218I-3.098J1.964
N22620G2X23.728Y13.176I0.452J0.893
N22630G01X25.538Y40.629
N22640G2X26.093Y41.460I0.998J-0.066
N22650G3X26.472Y47.211I-1.475J2.985
N22660G2X26.030Y48.108I0.557J0.831
N22670G01X26.338Y52.767
N22680G2X27.679Y53.641I0.998J-0.066
N22690G3X34.837Y53.406I3.939J10.804
N22700G2X36.118Y52.445I0.280J-0.960
N22710G01Y47.568
N22720G2X35.743Y46.787I-1.000J0.000
N22730G3Y42.104I1.875J-2.341
N22740G2X36.118Y41.323I-0.625J-0.781
N22750G01Y12.068
N22760G2X35.743Y11.287I-1.000J0.000
N22770G3X35.524Y6.796I1.875J-2.342
N22780G2X35.326Y5.880I-0.963J-0.271
N22790G01X35.276Y5.820
N22800G2X34.495Y5.445I-0.781J0.625
N22810G01X26.561
N22820G01Z-0.480F20.0
N22830G2X25.716Y6.981I0.000J1.001F500.0
N22840G3X24.275Y12.218I-3.098J1.964
N22850G2X23.728Y13.176I0.452J0.893
N22860G01X25.538Y40.629
N22870G2X26.093Y41.460I0.998J-0.066
N22880G3X26.472Y47.211I-1.475J2.985
N22890G2X26.030Y48.108I0.557J0.831
N22900G01X26.338Y52.767
N22910G2X27.679Y53.641I0.998J-0.066
N22920G3X34.837Y53.406I3.939J10.804
N22930G2X36.118Y52.445I0.280J-0.960
N22940G01Y47.568
N22950G2X35.743Y46.787I-1.000J0.000
N22960G3Y42.104I1.875J-2.341
N22970G2X36.118Y41.323I-0.625J-0.781
N22980G01Y12.068
N22990G2X35.743Y11.287I-1.000J0.000
N23000G3X35.524Y6.796I1.875J-2.342
N23010G2X35.326Y5.880I-0.963J-0.271
N23020G01X35.276Y5.820
N23030G2X34.495Y5.445I-0.781J0.625
N23040G01X26.561
N23050G01Z-0.520F20.0
N23060G2X25.716Y6.981I0.000J1.001F500.0
N23070G3X24.275Y12.218I-3.098J1.964
N23080G2X23.728Y13.176I0.452J0.893
N23090G01X25.538Y40.629
N23100G2X26.093Y41.460I0.998J-0.066
N23110G3X26.472Y47.211I-1.475J2.985
N23120G2X26.030Y48.108I0.557J0.831
N23130G01X26.338Y52.767
N23140G2X27.679Y53.641I0.998J-0.066
N23150G3X34.837Y53.406I3.939J10.804
N23160G2X36.118Y52.445I0.280J-0.960
N23170G01Y47.568
N23180G2X35.743Y46.787I-1.000J0.000
N23190G3Y42.104I1.875J-2.341
N23200G2X36.118Y41.323I-0.625J-0.781
N23210G01Y12.068
N23220G2X35.743Y11.287I-1.000J0.000
N23230G3X35.524Y6.796I1.875J-2.342
N23240G2X35.326Y5.880I-0.963J-0.271
N23250G01X35.276Y5.820
N23260G2X34.495Y5.445I-0.781J0.625
N23270G01X26.561
N23280G01Z-0.560F20.0
N23290G2X25.716Y6.981I0.000J1.001F500.0
N23300G3X24.275Y12.218I-3.098J1.964
N23310G2X23.728Y13.176I0.452J0.893
N23320G01X25.538Y40.629
N23330G2X26.093Y41.460I0.998J-0.066
N23340G3X26.472Y47.211I-1.475J2.985
N23350G2X26.030Y48.108I0.557J0.831
N23360G01X26.338Y52.767
N23370G2X27.679Y53.641I0.998J-0.066
N23380G3X34.837Y53.406I3.939J10.804
N23390G2X36.118Y52.445I0.280J-0.960
N23400G01Y47.568
N23410G2X35.743Y46.787I-1.000J0.000
N23420G3Y42.104I1.875J-2.341
N23430G2X36.118Y41.323I-0.625J-0.781
N23440G01Y12.068
N23450G2X35.743Y11.287I-1.000J0.000
N23460G3X35.524Y6.796I1.875J-2.342
N23470G2X35.326Y5.880I-0.963J-0.271
N23480G01X35.276Y5.820
N23490G2X34.495Y5.445I-0.781J0.625
N23500G01X26.561
N23510G01Z-0.600F20.0
N23520G2X25.716Y6.981I0.000J1.001F500.0
N23530G3X24.275Y12.218I-3.098J1.964
N23540G2X23.728Y13.176I0.452J0.893
N23550G01X25.538Y40.629
N23560G2X26.093Y41.460I0.998J-0.066
N23570G3X26.472Y47.211I-1.475J2.985
N23580G2X26.030Y48.108I0.557J0.831
N23590G01X26.338Y52.767
N23600G2X27.679Y53.641I0.998J-0.066
N23610G3X34.837Y53.406I3.939J10.804
N23620G2X36.118Y52.445I0.280J-0.960
N23630G01Y47.568
N23640G2X35.743Y46.787I-1.000J0.000
N23650G3Y42.104I1.875J-2.341
N23660G2X36.118Y41.323I-0.625J-0.781
N23670G01Y12.068
N23680G2X35.743Y11.287I-1.000J0.000
N23690G3X35.524Y6.796I1.875J-2.342
N23700G2X35.326Y5.880I-0.963J-0.271
N23710G01X35.276Y5.820
N23720G2X34.495Y5.445I-0.781J0.625
N23730G01X26.561
N23740G01Z-0.640F20.0
N23750G2X25.716Y6.981I0.000J1.001F500.0
N23760G3X24.275Y12.218I-3.098J1.964
N23770G2X23.728Y13.176I0.452J0.893
N23780G01X25.538Y40.629
N23790G2X26.093Y41.460I0.998J-0.066
N23800G3X26.472Y47.211I-1.475J2.985
N23810G2X26.030Y48.108I0.557J0.831
N23820G01X26.338Y52.767
N23830G2X27.679Y53.641I0.998J-0.066
N23840G3X34.837Y53.406I3.939J10.804
N23850G2X36.118Y52.445I0.280J-0.960
N23860G01Y47.568
N23870G2X35.743Y46.787I-1.000J0.000
N23880G3Y42.104I1.875J-2.341
N23890G2X36.118Y41.323I-0.625J-0.781
N23900G01Y12.068
N23910G2X35.743Y11.287I-1.000J0.000
N23920G3X35.524Y6.796I1.875J-2.342
N23930G2X35.326Y5.880I-0.963J-0.271
N23940G01X35.276Y5.820
N23950G2X34.495Y5.445I-0.781J0.625
N23960G01X26.561
N23970G01Z-0.680F20.0
N23980G2X25.716Y6.981I0.000J1.001F500.0
N23990G3X24.275Y12.218I-3.098J1.964
N24000G2X23.728Y13.176I0.452J0.893
N24010G01X25.538Y40.629
N24020G2X26.093Y41.460I0.998J-0.066
N24030G3X26.472Y47.211I-1.475J2.985
N24040G2X26.030Y48.108I0.557J0.831
N24050G01X26.338Y52.767
N24060G2X27.679Y53.641I0.998J-0.066
N24070G3X34.837Y53.406I3.939J10.804
N24080G2X36.118Y52.445I0.280J-0.960
N24090G01Y47.568
N24100G2X35.743Y46.787I-1.000J0.000
N24110G3Y42.104I1.875J-2.341
N24120G2X36.118Y41.323I-0.625J-0.781
N24130G01Y12.068
N24140G2X35.743Y11.287I-1.000J0.000
N24150G3X35.524Y6.796I1.875J-2.342
N24160G2X35.326Y5.880I-0.963J-0.271
N24170G01X35.276Y5.820
N24180G2X34.495Y5.445I-0.781J0.625
N24190G01X26.561
N24200G01Z-0.720F20.0
N24210G2X25.716Y6.981I0.000J1.001F500.0
N24220G3X24.275Y12.218I-3.098J1.964
N24230G2X23.728Y13.176I0.452J0.893
N24240G01X25.538Y40.629
N24250G2X26.093Y41.460I0.998J-0.066
N24260G3X26.472Y47.211I-1.475J2.985
N24270G2X26.030Y48.108I0.557J0.831
N24280G01X26.338Y52.767
N24290G2X27.679Y53.641I0.998J-0.066
N24300G3X34.837Y53.406I3.939J10.804
N24310G2X36.118Y52.445I0.280J-0.960
N24320G01Y47.568
N24330G2X35.743Y46.787I-1.000J0.000
N24340G3Y42.104I1.875J-2.341
N24350G2X36.118Y41.323I-0.625J-0.781
N24360G01Y12.068
N24370G2X35.743Y11.287I-1.000J0.000
N24380G3X35.524Y6.796I1.875J-2.342
N24390G2X35.326Y5.880I-0.963J-0.271
N24400G01X35.276Y5.820
N24410G2X34.495Y5.445I-0.781J0.625
N24420G01X26.561
N24430G01Z-0.760F20.0
N24440G2X25.716Y6.981I0.000J1.001F500.0
N24450G3X24.275Y12.218I-3.098J1.964
N24460G2X23.728Y13.176I0.452J0.893
N24470G01X25.538Y40.629
N24480G2X26.093Y41.460I0.998J-0.066
N24490G3X26.472Y47.211I-1.475J2.985
N24500G2X26.030Y48.108I0.557J0.831
N24510G01X26.338Y52.767
N24520G2X27.679Y53.641I0.998J-0.066
N24530G3X34.837Y53.406I3.939J10.804
N24540G2X36.118Y52.445I0.280J-0.960
N24550G01Y47.568
N24560G2X35.743Y46.787I-1.000J0.000
N24570G3Y42.104I1.875J-2.341
N24580G2X36.118Y41.323I-0.625J-0.781
N24590G01Y12.068
N24600G2X35.743Y11.287I-1.000J0.000
N24610G3X35.524Y6.796I1.875J-2.342
N24620G2X35.326Y5.880I-0.963J-0.271
N24630G01X35.276Y5.820
N24640G2X34.495Y5.445I-0.781J0.625
N24650G01X26.561
N24660G01Z-0.800F20.0
N24670G2X25.716Y6.981I0.000J1.001F500.0
N24680G3X24.275Y12.218I-3.098J1.964
N24690G2X23.728Y13.176I0.452J0.893
N24700G01X25.538Y40.629
N24710G2X26.093Y41.460I0.998J-0.066
N24720G3X26.472Y47.211I-1.475J2.985
N24730G2X26.030Y48.108I0.557J0.831
N24740G01X26.338Y52.767
N24750G2X27.679Y53.641I0.998J-0.066
N24760G3X34.837Y53.406I3.939J10.804
N24770G2X36.118Y52.445I0.280J-0.960
N24780G01Y47.568
N24790G2X35.743Y46.787I-1.000J0.000
N24800G3Y42.104I1.875J-2.341
N24810G2X36.118Y41.323I-0.625J-0.781
N24820G01Y12.068
N24830G2X35.743Y11.287I-1.000J0.000
N24840G3X35.524Y6.796I1.875J-2.342
N24850G2X35.326Y5.880I-0.963J-0.271
N24860G01X35.276Y5.820
N24870G2X34.495Y5.445I-0.781J0.625
N24880G01X26.561
N24890G01Z-0.840F20.0
N24900G2X25.716Y6.981I0.000J1.001F500.0
N24910G3X24.275Y12.218I-3.098J1.964
N24920G2X23.728Y13.176I0.452J0.893
N24930G01X25.538Y40.629
N24940G2X26.093Y41.460I0.998J-0.066
N24950G3X26.472Y47.211I-1.475J2.985
N24960G2X26.030Y48.108I0.557J0.831
N24970G01X26.338Y52.767
N24980G2X27.679Y53.641I0.998J-0.066
N24990G3X34.837Y53.406I3.939J10.804
N25000G2X36.118Y52.445I0.280J-0.960
N25010G01Y47.568
N25020G2X35.743Y46.787I-1.000J0.000
N25030G3Y42.104I1.875J-2.341
N25040G2X36.118Y41.323I-0.625J-0.781
N25050G01Y12.068
N25060G2X35.743Y11.287I-1.000J0.000
N25070G3X35.524Y6.796I1.875J-2.342
N25080G2X35.326Y5.880I-0.963J-0.271
N25090G01X35.276Y5.820
N25100G2X34.495Y5.445I-0.781J0.625
N25110G01X26.561
N25120G01Z-0.880F20.0
N25130G2X25.716Y6.981I0.000J1.001F500.0
N25140G3X24.275Y12.218I-3.098J1.964
N25150G2X23.728Y13.176I0.452J0.893
N25160G01X25.538Y40.629
N25170G2X26.093Y41.460I0.998J-0.066
N25180G3X26.472Y47.211I-1.475J2.985
N25190G2X26.030Y48.108I0.557J0.831
N25200G01X26.338Y52.767
N25210G2X27.679Y53.641I0.998J-0.066
N25220G3X34.837Y53.406I3.939J10.804
N25230G2X36.118Y52.445I0.280J-0.960
N25240G01Y47.568
N25250G2X35.743Y46.787I-1.000J0.000
N25260G3Y42.104I1.875J-2.341
N25270G2X36.118Y41.323I-0.625J-0.781
N25280G01Y12.068
N25290G2X35.743Y11.287I-1.000J0.000
N25300G3X35.524Y6.796I1.875J-2.342
N25310G2X35.326Y5.880I-0.963J-0.271
N25320G01X35.276Y5.820
N25330G2X34.495Y5.445I-0.781J0.625
N25340G01X26.561
N25350G01Z-0.920F20.0
N25360G2X25.716Y6.981I0.000J1.001F500.0
N25370G3X24.275Y12.218I-3.098J1.964
N25380G2X23.728Y13.176I0.452J0.893
N25390G01X25.538Y40.629
N25400G2X26.093Y41.460I0.998J-0.066
N25410G3X26.472Y47.211I-1.475J2.985
N25420G2X26.030Y48.108I0.557J0.831
N25430G01X26.338Y52.767
N25440G2X27.679Y53.641I0.998J-0.066
N25450G3X34.837Y53.406I3.939J10.804
N25460G2X36.118Y52.445I0.280J-0.960
N25470G01Y47.568
N25480G2X35.743Y46.787I-1.000J0.000
N25490G3Y42.104I1.875J-2.341
N25500G2X36.118Y41.323I-0.625J-0.781
N25510G01Y12.068
N25520G2X35.743Y11.287I-1.000J0.000
N25530G3X35.524Y6.796I1.875J-2.342
N25540G2X35.326Y5.880I-0.963J-0.271
N25550G01X35.276Y5.820
N25560G2X34.495Y5.445I-0.781J0.625
N25570G01X26.561
N25580G01Z-0.960F20.0
N25590G2X25.716Y6.981I0.000J1.001F500.0
N25600G3X24.275Y12.218I-3.098J1.964
N25610G2X23.728Y13.176I0.452J0.893
N25620G01X25.538Y40.629
N25630G2X26.093Y41.460I0.998J-0.066
N25640G3X26.472Y47.211I-1.475J2.985
N25650G2X26.030Y48.108I0.557J0.831
N25660G01X26.338Y52.767
N25670G2X27.679Y53.641I0.998J-0.066
N25680G3X34.837Y53.406I3.939J10.804
N25690G2X36.118Y52.445I0.280J-0.960
N25700G01Y47.568
N25710G2X35.743Y46.787I-1.000J0.000
N25720G3Y42.104I1.875J-2.341
N25730G2X36.118Y41.323I-0.625J-0.781
N25740G01Y12.068
N25750G2X35.743Y11.287I-1.000J0.000
N25760G3X35.524Y6.796I1.875J-2.342
N25770G2X35.326Y5.880I-0.963J-0.271
N25780G01X35.276Y5.820
N25790G2X34.495Y5.445I-0.781J0.625
N25800G01X26.561
N25810G01Z-1.000F20.0
N25820G2X25.716Y6.981I0.000J1.001F500.0
N25830G3X24.275Y12.218I-3.098J1.964
N25840G2X23.728Y13.176I0.452J0.893
N25850G01X25.538Y40.629
N25860G2X26.093Y41.460I0.998J-0.066
N25870G3X26.472Y47.211I-1.475J2.985
N25880G2X26.030Y48.108I0.557J0.831
N25890G01X26.338Y52.767
N25900G2X27.679Y53.641I0.998J-0.066
N25910G3X34.837Y53.406I3.939J10.804
N25920G2X36.118Y52.445I0.280J-0.960
N25930G01Y47.568
N25940G2X35.743Y46.787I-1.000J0.000
N25950G3Y42.104I1.875J-2.341
N25960G2X36.118Y41.323I-0.625J-0.781
N25970G01Y12.068
N25980G2X35.743Y11.287I-1.000J0.000
N25990G3X35.524Y6.796I1.875J-2.342
N26000G2X35.326Y5.880I-0.963J-0.271
N26010G01X35.276Y5.820
N26020G2X34.495Y5.445I-0.781J0.625
N26030G01X26.561
N26040G01Z-1.040F20.0
N26050G2X25.716Y6.981I0.000J1.001F500.0
N26060G3X24.275Y12.218I-3.098J1.964
N26070G2X23.728Y13.176I0.452J0.893
N26080G01X25.538Y40.629
N26090G2X26.093Y41.460I0.998J-0.066
N26100G3X26.472Y47.211I-1.475J2.985
N26110G2X26.030Y48.108I0.557J0.831
N26120G01X26.338Y52.767
N26130G2X27.679Y53.641I0.998J-0.066
N26140G3X34.837Y53.406I3.939J10.804
N26150G2X36.118Y52.445I0.280J-0.960
N26160G01Y47.568
N26170G2X35.743Y46.787I-1.000J0.000
N26180G3Y42.104I1.875J-2.341
N26190G2X36.118Y41.323I-0.625J-0.781
N26200G01Y12.068
N26210G2X35.743Y11.287I-1.000J0.000
N26220G3X35.524Y6.796I1.875J-2.342
N26230G2X35.326Y5.880I-0.963J-0.271
N26240G01X35.276Y5.820
N26250G2X34.495Y5.445I-0.781J0.625
N26260G01X26.561
N26270G01Z-1.080F20.0
N26280G2X25.716Y6.981I0.000J1.001F500.0
N26290G3X24.275Y12.218I-3.098J1.964
N26300G2X23.728Y13.176I0.452J0.893
N26310G01X25.538Y40.629
N26320G2X26.093Y41.460I0.998J-0.066
N26330G3X26.472Y47.211I-1.475J2.985
N26340G2X26.030Y48.108I0.557J0.831
N26350G01X26.338Y52.767
N26360G2X27.679Y53.641I0.998J-0.066
N26370G3X34.837Y53.406I3.939J10.804
N26380G2X36.118Y52.445I0.280J-0.960
N26390G01Y47.568
N26400G2X35.743Y46.787I-1.000J0.000
N26410G3Y42.104I1.875J-2.341
N26420G2X36.118Y41.323I-0.625J-0.781
N26430G01Y12.068
N26440G2X35.743Y11.287I-1.000J0.000
N26450G3X35.524Y6.796I1.875J-2.342
N26460G2X35.326Y5.880I-0.963J-0.271
N26470G01X35.276Y5.820
N26480G2X34.495Y5.445I-0.781J0.625
N26490G01X26.561
N26500G01Z-1.120F20.0
N26510G2X25.716Y6.981I0.000J1.001F500.0
N26520G3X24.275Y12.218I-3.098J1.964
N26530G2X23.728Y13.176I0.452J0.893
N26540G01X25.538Y40.629
N26550G2X26.093Y41.460I0.998J-0.066
N26560G3X26.472Y47.211I-1.475J2.985
N26570G2X26.030Y48.108I0.557J0.831
N26580G01X26.338Y52.767
N26590G2X27.679Y53.641I0.998J-0.066
N26600G3X34.837Y53.406I3.939J10.804
N26610G2X36.118Y52.445I0.280J-0.960
N26620G01Y47.568
N26630G2X35.743Y46.787I-1.000J0.000
N26640G3Y42.104I1.875J-2.341
N26650G2X36.118Y41.323I-0.625J-0.781
N26660G01Y12.068
N26670G2X35.743Y11.287I-1.000J0.000
N26680G3X35.524Y6.796I1.875J-2.342
N26690G2X35.326Y5.880I-0.963J-0.271
N26700G01X35.276Y5.820
N26710G2X34.495Y5.445I-0.781J0.625
N26720G01X26.561
N26730G01Z-1.160F20.0
N26740G2X25.716Y6.981I0.000J1.001F500.0
N26750G3X24.275Y12.218I-3.098J1.964
N26760G2X23.728Y13.176I0.452J0.893
N26770G01X25.538Y40.629
N26780G2X26.093Y41.460I0.998J-0.066
N26790G3X26.472Y47.211I-1.475J2.985
N26800G2X26.030Y48.108I0.557J0.831
N26810G01X26.338Y52.767
N26820G2X27.679Y53.641I0.998J-0.066
N26830G3X34.837Y53.406I3.939J10.804
N26840G2X36.118Y52.445I0.280J-0.960
N26850G01Y47.568
N26860G2X35.743Y46.787I-1.000J0.000
N26870G3Y42.104I1.875J-2.341
N26880G2X36.118Y41.323I-0.625J-0.781
N26890G01Y12.068
N26900G2X35.743Y11.287I-1.000J0.000
N26910G3X35.524Y6.796I1.875J-2.342
N26920G2X35.326Y5.880I-0.963J-0.271
N26930G01X35.276Y5.820
N26940G2X34.495Y5.445I-0.781J0.625
N26950G01X26.561
N26960G01Z-1.200F20.0
N26970G2X25.716Y6.981I0.000J1.001F500.0
N26980G3X24.275Y12.218I-3.098J1.964
N26990G2X23.728Y13.176I0.452J0.893
N27000G01X25.538Y40.629
N27010G2X26.093Y41.460I0.998J-0.066
N27020G3X26.472Y47.211I-1.475J2.985
N27030G2X26.030Y48.108I0.557J0.831
N27040G01X26.338Y52.767
N27050G2X27.679Y53.641I0.998J-0.066
N27060G3X34.837Y53.406I3.939J10.804
N27070G2X36.118Y52.445I0.280J-0.960
N27080G01Y47.568
N27090G2X35.743Y46.787I-1.000J0.000
N27100G3Y42.104I1.875J-2.341
N27110G2X36.118Y41.323I-0.625J-0.781
N27120G01Y12.068
N27130G2X35.743Y11.287I-1.000J0.000
N27140G3X35.524Y6.796I1.875J-2.342
N27150G2X35.326Y5.880I-0.963J-0.271
N27160G01X35.276Y5.820
N27170G2X34.495Y5.445I-0.781J0.625
N27180G01X26.561
N27190G01Z-1.240F20.0
N27200G2X25.716Y6.981I0.000J1.001F500.0
N27210G3X24.275Y12.218I-3.098J1.964
N27220G2X23.728Y13.176I0.452J0.893
N27230G01X25.538Y40.629
N27240G2X26.093Y41.460I0.998J-0.066
N27250G3X26.472Y47.211I-1.475J2.985
N27260G2X26.030Y48.108I0.557J0.831
N27270G01X26.338Y52.767
N27280G2X27.679Y53.641I0.998J-0.066
N27290G3X34.837Y53.406I3.939J10.804
N27300G2X36.118Y52.445I0.280J-0.960
N27310G01Y47.568
N27320G2X35.743Y46.787I-1.000J0.000
N27330G3Y42.104I1.875J-2.341
N27340G2X36.118Y41.323I-0.625J-0.781
N27350G01Y12.068
N27360G2X35.743Y11.287I-1.000J0.000
N27370G3X35.524Y6.796I1.875J-2.342
N27380G2X35.326Y5.880I-0.963J-0.271
N27390G01X35.276Y5.820
N27400G2X34.495Y5.445I-0.781J0.625
N27410G01X26.561
N27420G01Z-1.280F20.0
N27430G2X25.716Y6.981I0.000J1.001F500.0
N27440G3X24.275Y12.218I-3.098J1.964
N27450G2X23.728Y13.176I0.452J0.893
N27460G01X25.538Y40.629
N27470G2X26.093Y41.460I0.998J-0.066
N27480G3X26.472Y47.211I-1.475J2.985
N27490G2X26.030Y48.108I0.557J0.831
N27500G01X26.338Y52.767
N27510G2X27.679Y53.641I0.998J-0.066
N27520G3X34.837Y53.406I3.939J10.804
N27530G2X36.118Y52.445I0.280J-0.960
N27540G01Y47.568
N27550G2X35.743Y46.787I-1.000J0.000
N27560G3Y42.104I1.875J-2.341
N27570G2X36.118Y41.323I-0.625J-0.781
N27580G01Y12.068
N27590G2X35.743Y11.287I-1.000J0.000
N27600G3X35.524Y6.796I1.875J-2.342
N27610G2X35.326Y5.880I-0.963J-0.271
N27620G01X35.276Y5.820
N27630G2X34.495Y5.445I-0.781J0.625
N27640G01X26.561
N27650G01Z-1.320F20.0
N27660G2X25.716Y6.981I0.000J1.001F500.0
N27670G3X24.275Y12.218I-3.098J1.964
N27680G2X23.728Y13.176I0.452J0.893
N27690G01X25.538Y40.629
N27700G2X26.093Y41.460I0.998J-0.066
N27710G3X26.472Y47.211I-1.475J2.985
N27720G2X26.030Y48.108I0.557J0.831
N27730G01X26.338Y52.767
N27740G2X27.679Y53.641I0.998J-0.066
N27750G3X34.837Y53.406I3.939J10.804
N27760G2X36.118Y52.445I0.280J-0.960
N27770G01Y47.568
N27780G2X35.743Y46.787I-1.000J0.000
N27790G3Y42.104I1.875J-2.341
N27800G2X36.118Y41.323I-0.625J-0.781
N27810G01Y12.068
N27820G2X35.743Y11.287I-1.000J0.000
N27830G3X35.524Y6.796I1.875J-2.342
N27840G2X35.326Y5.880I-0.963J-0.271
N27850G01X35.276Y5.820
N27860G2X34.495Y5.445I-0.781J0.625
N27870G01X26.561
N27880G01Z-1.360F20.0
N27890G2X25.716Y6.981I0.000J1.001F500.0
N27900G3X24.275Y12.218I-3.098J1.964
N27910G2X23.728Y13.176I0.452J0.893
N27920G01X25.538Y40.629
N27930G2X26.093Y41.460I0.998J-0.066
N27940G3X26.472Y47.211I-1.475J2.985
N27950G2X26.030Y48.108I0.557J0.831
N27960G01X26.338Y52.767
N27970G2X27.679Y53.641I0.998J-0.066
N27980G3X34.837Y53.406I3.939J10.804
N27990G2X36.118Y52.445I0.280J-0.960
N28000G01Y47.568
N28010G2X35.743Y46.787I-1.000J0.000
N28020G3Y42.104I1.875J-2.341
N28030G2X36.118Y41.323I-0.625J-0.781
N28040G01Y12.068
N28050G2X35.743Y11.287I-1.000J0.000
N28060G3X35.524Y6.796I1.875J-2.342
N28070G2X35.326Y5.880I-0.963J-0.271
N28080G01X35.276Y5.820
N28090G2X34.495Y5.445I-0.781J0.625
N28100G01X26.561
N28110G01Z-1.400F20.0
N28120G2X25.716Y6.981I0.000J1.001F500.0
N28130G3X24.275Y12.218I-3.098J1.964
N28140G2X23.728Y13.176I0.452J0.893
N28150G01X25.538Y40.629
N28160G2X26.093Y41.460I0.998J-0.066
N28170G3X26.472Y47.211I-1.475J2.985
N28180G2X26.030Y48.108I0.557J0.831
N28190G01X26.338Y52.767
N28200G2X27.679Y53.641I0.998J-0.066
N28210G3X34.837Y53.406I3.939J10.804
N28220G2X36.118Y52.445I0.280J-0.960
N28230G01Y47.568
N28240G2X35.743Y46.787I-1.000J0.000
N28250G3Y42.104I1.875J-2.341
N28260G2X36.118Y41.323I-0.625J-0.781
N28270G01Y12.068
N28280G2X35.743Y11.287I-1.000J0.000
N28290G3X35.524Y6.796I1.875J-2.342
N28300G2X35.326Y5.880I-0.963J-0.271
N28310G01X35.276Y5.820
N28320G2X34.495Y5.445I-0.781J0.625
N28330G01X26.561
N28340G01Z-1.440F20.0
N28350G2X25.716Y6.981I0.000J1.001F500.0
N28360G3X24.275Y12.218I-3.098J1.964
N28370G2X23.728Y13.176I0.452J0.893
N28380G01X25.538Y40.629
N28390G2X26.093Y41.460I0.998J-0.066
N28400G3X26.472Y47.211I-1.475J2.985
N28410G2X26.030Y48.108I0.557J0.831
N28420G01X26.338Y52.767
N28430G2X27.679Y53.641I0.998J-0.066
N28440G3X34.837Y53.406I3.939J10.804
N28450G2X36.118Y52.445I0.280J-0.960
N28460G01Y47.568
N28470G2X35.743Y46.787I-1.000J0.000
N28480G3Y42.104I1.875J-2.341
N28490G2X36.118Y41.323I-0.625J-0.781
N28500G01Y12.068
N28510G2X35.743Y11.287I-1.000J0.000
N28520G3X35.524Y6.796I1.875J-2.342
N28530G2X35.326Y5.880I-0.963J-0.271
N28540G01X35.276Y5.820
N28550G2X34.495Y5.445I-0.781J0.625
N28560G01X26.561
N28570G01Z-1.480F20.0
N28580G2X25.716Y6.981I0.000J1.001F500.0
N28590G3X24.275Y12.218I-3.098J1.964
N28600G2X23.728Y13.176I0.452J0.893
N28610G01X25.538Y40.629
N28620G2X26.093Y41.460I0.998J-0.066
N28630G3X26.472Y47.211I-1.475J2.985
N28640G2X26.030Y48.108I0.557J0.831
N28650G01X26.338Y52.767
N28660G2X27.679Y53.641I0.998J-0.066
N28670G3X34.837Y53.406I3.939J10.804
N28680G2X36.118Y52.445I0.280J-0.960
N28690G01Y47.568
N28700G2X35.743Y46.787I-1.000J0.000
N28710G3Y42.104I1.875J-2.341
N28720G2X36.118Y41.323I-0.625J-0.781
N28730G01Y12.068
N28740G2X35.743Y11.287I-1.000J0.000
N28750G3X35.524Y6.796I1.875J-2.342
N28760G2X35.326Y5.880I-0.963J-0.271
N28770G01X35.276Y5.820
N28780G2X34.495Y5.445I-0.781J0.625
N28790G01X26.561
N28800G01Z-1.520F20.0
N28810G2X25.716Y6.981I0.000J1.001F500.0
N28820G3X24.275Y12.218I-3.098J1.964
N28830G2X23.728Y13.176I0.452J0.893
N28840G01X25.538Y40.629
N28850G2X26.093Y41.460I0.998J-0.066
N28860G3X26.472Y47.211I-1.475J2.985
N28870G2X26.030Y48.108I0.557J0.831
N28880G01X26.338Y52.767
N28890G2X27.679Y53.641I0.998J-0.066
N28900G3X34.837Y53.406I3.939J10.804
N28910G2X36.118Y52.445I0.280J-0.960
N28920G01Y47.568
N28930G2X35.743Y46.787I-1.000J0.000
N28940G3Y42.104I1.875J-2.341
N28950G2X36.118Y41.323I-0.625J-0.781
N28960G01Y12.068
N28970G2X35.743Y11.287I-1.000J0.000
N28980G3X35.524Y6.796I1.875J-2.342
N28990G2X35.326Y5.880I-0.963J-0.271
N29000G01X35.276Y5.820
N29010G2X34.495Y5.445I-0.781J0.625
N29020G01X26.561
N29030G01Z-1.560F20.0
N29040G2X25.716Y6.981I0.000J1.001F500.0
N29050G3X24.275Y12.218I-3.098J1.964
N29060G2X23.728Y13.176I0.452J0.893
N29070G01X25.538Y40.629
N29080G2X26.093Y41.460I0.998J-0.066
N29090G3X26.472Y47.211I-1.475J2.985
N29100G2X26.030Y48.108I0.557J0.831
N29110G01X26.338Y52.767
N29120G2X27.679Y53.641I0.998J-0.066
N29130G3X34.837Y53.406I3.939J10.804
N29140G2X36.118Y52.445I0.280J-0.960
N29150G01Y47.568
N29160G2X35.743Y46.787I-1.000J0.000
N29170G3Y42.104I1.875J-2.341
N29180G2X36.118Y41.323I-0.625J-0.781
N29190G01Y12.068
N29200G2X35.743Y11.287I-1.000J0.000
N29210G3X35.524Y6.796I1.875J-2.342
N29220G2X35.326Y5.880I-0.963J-0.271
N29230G01X35.276Y5.820
N29240G2X34.495Y5.445I-0.781J0.625
N29250G01X26.561
N29260G01Z-1.600F20.0
N29270G2X25.716Y6.981I0.000J1.001F500.0
N29280G3X24.275Y12.218I-3.098J1.964
N29290G2X23.728Y13.176I0.452J0.893
N29300G01X25.538Y40.629
N29310G2X26.093Y41.460I0.998J-0.066
N29320G3X26.472Y47.211I-1.475J2.985
N29330G2X26.030Y48.108I0.557J0.831
N29340G01X26.338Y52.767
N29350G2X27.679Y53.641I0.998J-0.066
N29360G3X34.837Y53.406I3.939J10.804
N29370G2X36.118Y52.445I0.280J-0.960
N29380G01Y47.568
N29390G2X35.743Y46.787I-1.000J0.000
N29400G3Y42.104I1.875J-2.341
N29410G2X36.118Y41.323I-0.625J-0.781
N29420G01Y12.068
N29430G2X35.743Y11.287I-1.000J0.000
N29440G3X35.524Y6.796I1.875J-2.342
N29450G2X35.326Y5.880I-0.963J-0.271
N29460G01X35.276Y5.820
N29470G2X34.495Y5.445I-0.781J0.625
N29480G01X26.561
N29490G00Z6.000
N29500G00X22.718Y8.945
N29510G01Z-0.040F20.0
N29520G2X22.617Y8.845I-0.101J0.000F500.0
N29530G2X22.517Y8.945I0.000J0.101
N29540G2X22.617Y9.046I0.101J0.000
N29550G2X22.718Y8.945I0.000J-0.101
N29560G01Z-0.080F20.0
N29570G2X22.617Y8.845I-0.101J0.000F500.0
N29580G2X22.517Y8.945I0.000J0.101
N29590G2X22.617Y9.046I0.101J0.000
N29600G2X22.718Y8.945I0.000J-0.101
N29610G01Z-0.120F20.0
N29620G2X22.617Y8.845I-0.101J0.000F500.0
N29630G2X22.517Y8.945I0.000J0.101
N29640G2X22.617Y9.046I0.101J0.000
N29650G2X22.718Y8.945I0.000J-0.101
N29660G01Z-0.160F20.0
N29670G2X22.617Y8.845I-0.101J0.000F500.0
N29680G2X22.517Y8.945I0.000J0.101
N29690G2X22.617Y9.046I0.101J0.000
N29700G2X22.718Y8.945I0.000J-0.101
N29710G01Z-0.200F20.0
N29720G2X22.617Y8.845I-0.101J0.000F500.0
N29730G2X22.517Y8.945I0.000J0.101
N29740G2X22.617Y9.046I0.101J0.000
N29750G2X22.718Y8.945I0.000J-0.101
N29760G01Z-0.240F20.0
N29770G2X22.617Y8.845I-0.101J0.000F500.0
N29780G2X22.517Y8.945I0.000J0.101
N29790G2X22.617Y9.046I0.101J0.000
N29800G2X22.718Y8.945I0.000J-0.101
N29810G01Z-0.280F20.0
N29820G2X22.617Y8.845I-0.101J0.000F500.0
N29830G2X22.517Y8.945I0.000J0.101
N29840G2X22.617Y9.046I0.101J0.000
N29850G2X22.718Y8.945I0.000J-0.101
N29860G01Z-0.320F20.0
N29870G2X22.617Y8.845I-0.101J0.000F500.0
N29880G2X22.517Y8.945I0.000J0.101
N29890G2X22.617Y9.046I0.101J0.000
N29900G2X22.718Y8.945I0.000J-0.101
N29910G01Z-0.360F20.0
N29920G2X22.617Y8.845I-0.101J0.000F500.0
N29930G2X22.517Y8.945I0.000J0.101
N29940G2X22.617Y9.046I0.101J0.000
N29950G2X22.718Y8.945I0.000J-0.101
N29960G01Z-0.400F20.0
N29970G2X22.617Y8.845I-0.101J0.000F500.0
N29980G2X22.517Y8.945I0.000J0.101
N29990G2X22.617Y9.046I0.101J0.000
N30000G2X22.718Y8.945I0.000J-0.101
N30010G01Z-0.440F20.0
N30020G2X22.617Y8.845I-0.101J0.000F500.0
N30030G2X22.517Y8.945I0.000J0.101
N30040G2X22.617Y9.046I0.101J0.000
N30050G2X22.718Y8.945I0.000J-0.101
N30060G01Z-0.480F20.0
N30070G2X22.617Y8.845I-0.101J0.000F500.0
N30080G2X22.517Y8.945I0.000J0.101
N30090G2X22.617Y9.046I0.101J0.000
N30100G2X22.718Y8.945I0.000J-0.101
N30110G01Z-0.520F20.0
N30120G2X22.617Y8.845I-0.101J0.000F500.0
N30130G2X22.517Y8.945I0.000J0.101
N30140G2X22.617Y9.046I0.101J0.000
N30150G2X22.718Y8.945I0.000J-0.101
N30160G01Z-0.560F20.0
N30170G2X22.617Y8.845I-0.101J0.000F500.0
N30180G2X22.517Y8.945I0.000J0.101
N30190G2X22.617Y9.046I0.101J0.000
N30200G2X22.718Y8.945I0.000J-0.101
N30210G01Z-0.600F20.0
N30220G2X22.617Y8.845I-0.101J0.000F500.0
N30230G2X22.517Y8.945I0.000J0.101
N30240G2X22.617Y9.046I0.101J0.000
N30250G2X22.718Y8.945I0.000J-0.101
N30260G01Z-0.640F20.0
N30270G2X22.617Y8.845I-0.101J0.000F500.0
N30280G2X22.517Y8.945I0.000J0.101
N30290G2X22.617Y9.046I0.101J0.000
N30300G2X22.718Y8.945I0.000J-0.101
N30310G01Z-0.680F20.0
N30320G2X22.617Y8.845I-0.101J0.000F500.0
N30330G2X22.517Y8.945I0.000J0.101
N30340G2X22.617Y9.046I0.101J0.000
N30350G2X22.718Y8.945I0.000J-0.101
N30360G01Z-0.720F20.0
N30370G2X22.617Y8.845I-0.101J0.000F500.0
