( Profile 3 )
( USBCNC Postprocessor )
N20G00G21G17G90G40G49
N30G80
N40G00G43Z20.000H1
N50S16000M03
N60G94
N70X0.000Y0.000F500.0
N80G00X69.133Y19.805Z6.000
N90G01Z-0.094F20.0
N100G01X69.032Y19.704F500.0
N110X68.932Y19.805
N120X69.032Y19.905
N130X69.133Y19.805
N140G01Z-0.188F20.0
N150G01X69.032Y19.704F500.0
N160X68.932Y19.805
N170X69.032Y19.905
N180X69.133Y19.805
N190G01Z-0.282F20.0
N200G01X69.032Y19.704F500.0
N210X68.932Y19.805
N220X69.032Y19.905
N230X69.133Y19.805
N240G01Z-0.376F20.0
N250G01X69.032Y19.704F500.0
N260X68.932Y19.805
N270X69.032Y19.905
N280X69.133Y19.805
N290G01Z-0.471F20.0
N300G01X69.032Y19.704F500.0
N310X68.932Y19.805
N320X69.032Y19.905
N330X69.133Y19.805
N340G01Z-0.565F20.0
N350G01X69.032Y19.704F500.0
N360X68.932Y19.805
N370X69.032Y19.905
N380X69.133Y19.805
N390G01Z-0.659F20.0
N400G01X69.032Y19.704F500.0
N410X68.932Y19.805
N420X69.032Y19.905
N430X69.133Y19.805
N440G01Z-0.753F20.0
N450G01X69.032Y19.704F500.0
N460X68.932Y19.805
N470X69.032Y19.905
N480X69.133Y19.805
N490G01Z-0.847F20.0
N500G01X69.032Y19.704F500.0
N510X68.932Y19.805
N520X69.032Y19.905
N530X69.133Y19.805
N540G01Z-0.941F20.0
N550G01X69.032Y19.704F500.0
N560X68.932Y19.805
N570X69.032Y19.905
N580X69.133Y19.805
N590G01Z-1.035F20.0
N600G01X69.032Y19.704F500.0
N610X68.932Y19.805
N620X69.032Y19.905
N630X69.133Y19.805
N640G01Z-1.129F20.0
N650G01X69.032Y19.704F500.0
N660X68.932Y19.805
N670X69.032Y19.905
N680X69.133Y19.805
N690G01Z-1.224F20.0
N700G01X69.032Y19.704F500.0
N710X68.932Y19.805
N720X69.032Y19.905
N730X69.133Y19.805
N740G01Z-1.318F20.0
N750G01X69.032Y19.704F500.0
N760X68.932Y19.805
N770X69.032Y19.905
N780X69.133Y19.805
N790G01Z-1.412F20.0
N800G01X69.032Y19.704F500.0
N810X68.932Y19.805
N820X69.032Y19.905
N830X69.133Y19.805
N840G01Z-1.506F20.0
N850G01X69.032Y19.704F500.0
N860X68.932Y19.805
N870X69.032Y19.905
N880X69.133Y19.805
N890G01Z-1.600F20.0
N900G01X69.032Y19.704F500.0
N910X68.932Y19.805
N920X69.032Y19.905
N930X69.133Y19.805
N940G00Z6.000
N950G00Y40.805
N960G01Z-0.094F20.0
N970G01X69.032Y40.704F500.0
N980X68.932Y40.805
N990X69.032Y40.905
N1000X69.133Y40.805
N1010G01Z-0.188F20.0
N1020G01X69.032Y40.704F500.0
N1030X68.932Y40.805
N1040X69.032Y40.905
N1050X69.133Y40.805
N1060G01Z-0.282F20.0
N1070G01X69.032Y40.704F500.0
N1080X68.932Y40.805
N1090X69.032Y40.905
N1100X69.133Y40.805
N1110G01Z-0.376F20.0
N1120G01X69.032Y40.704F500.0
N1130X68.932Y40.805
N1140X69.032Y40.905
N1150X69.133Y40.805
N1160G01Z-0.471F20.0
N1170G01X69.032Y40.704F500.0
N1180X68.932Y40.805
N1190X69.032Y40.905
N1200X69.133Y40.805
N1210G01Z-0.565F20.0
N1220G01X69.032Y40.704F500.0
N1230X68.932Y40.805
N1240X69.032Y40.905
N1250X69.133Y40.805
N1260G01Z-0.659F20.0
N1270G01X69.032Y40.704F500.0
N1280X68.932Y40.805
N1290X69.032Y40.905
N1300X69.133Y40.805
N1310G01Z-0.753F20.0
N1320G01X69.032Y40.704F500.0
N1330X68.932Y40.805
N1340X69.032Y40.905
N1350X69.133Y40.805
N1360G01Z-0.847F20.0
N1370G01X69.032Y40.704F500.0
N1380X68.932Y40.805
N1390X69.032Y40.905
N1400X69.133Y40.805
N1410G01Z-0.941F20.0
N1420G01X69.032Y40.704F500.0
N1430X68.932Y40.805
N1440X69.032Y40.905
N1450X69.133Y40.805
N1460G01Z-1.035F20.0
N1470G01X69.032Y40.704F500.0
N1480X68.932Y40.805
N1490X69.032Y40.905
N1500X69.133Y40.805
N1510G01Z-1.129F20.0
N1520G01X69.032Y40.704F500.0
N1530X68.932Y40.805
N1540X69.032Y40.905
N1550X69.133Y40.805
N1560G01Z-1.224F20.0
N1570G01X69.032Y40.704F500.0
N1580X68.932Y40.805
N1590X69.032Y40.905
N1600X69.133Y40.805
N1610G01Z-1.318F20.0
N1620G01X69.032Y40.704F500.0
N1630X68.932Y40.805
N1640X69.032Y40.905
N1650X69.133Y40.805
N1660G01Z-1.412F20.0
N1670G01X69.032Y40.704F500.0
N1680X68.932Y40.805
N1690X69.032Y40.905
N1700X69.133Y40.805
N1710G01Z-1.506F20.0
N1720G01X69.032Y40.704F500.0
N1730X68.932Y40.805
N1740X69.032Y40.905
N1750X69.133Y40.805
N1760G01Z-1.600F20.0
N1770G01X69.032Y40.704F500.0
N1780X68.932Y40.805
N1790X69.032Y40.905
N1800X69.133Y40.805
N1810G00Z6.000
N1820G00X71.133Y47.805
N1830G01Z-0.094F20.0
N1840G01X71.032Y47.704F500.0
N1850X70.932Y47.805
N1860X71.032Y47.905
N1870X71.133Y47.805
N1880G01Z-0.188F20.0
N1890G01X71.032Y47.704F500.0
N1900X70.932Y47.805
N1910X71.032Y47.905
N1920X71.133Y47.805
N1930G01Z-0.282F20.0
N1940G01X71.032Y47.704F500.0
N1950X70.932Y47.805
N1960X71.032Y47.905
N1970X71.133Y47.805
N1980G01Z-0.376F20.0
N1990G01X71.032Y47.704F500.0
N2000X70.932Y47.805
N2010X71.032Y47.905
N2020X71.133Y47.805
N2030G01Z-0.471F20.0
N2040G01X71.032Y47.704F500.0
N2050X70.932Y47.805
N2060X71.032Y47.905
N2070X71.133Y47.805
N2080G01Z-0.565F20.0
N2090G01X71.032Y47.704F500.0
N2100X70.932Y47.805
N2110X71.032Y47.905
N2120X71.133Y47.805
N2130G01Z-0.659F20.0
N2140G01X71.032Y47.704F500.0
N2150X70.932Y47.805
N2160X71.032Y47.905
N2170X71.133Y47.805
N2180G01Z-0.753F20.0
N2190G01X71.032Y47.704F500.0
N2200X70.932Y47.805
N2210X71.032Y47.905
N2220X71.133Y47.805
N2230G01Z-0.847F20.0
N2240G01X71.032Y47.704F500.0
N2250X70.932Y47.805
N2260X71.032Y47.905
N2270X71.133Y47.805
N2280G01Z-0.941F20.0
N2290G01X71.032Y47.704F500.0
N2300X70.932Y47.805
N2310X71.032Y47.905
N2320X71.133Y47.805
N2330G01Z-1.035F20.0
N2340G01X71.032Y47.704F500.0
N2350X70.932Y47.805
N2360X71.032Y47.905
N2370X71.133Y47.805
N2380G01Z-1.129F20.0
N2390G01X71.032Y47.704F500.0
N2400X70.932Y47.805
N2410X71.032Y47.905
N2420X71.133Y47.805
N2430G01Z-1.224F20.0
N2440G01X71.032Y47.704F500.0
N2450X70.932Y47.805
N2460X71.032Y47.905
N2470X71.133Y47.805
N2480G01Z-1.318F20.0
N2490G01X71.032Y47.704F500.0
N2500X70.932Y47.805
N2510X71.032Y47.905
N2520X71.133Y47.805
N2530G01Z-1.412F20.0
N2540G01X71.032Y47.704F500.0
N2550X70.932Y47.805
N2560X71.032Y47.905
N2570X71.133Y47.805
N2580G01Z-1.506F20.0
N2590G01X71.032Y47.704F500.0
N2600X70.932Y47.805
N2610X71.032Y47.905
N2620X71.133Y47.805
N2630G01Z-1.600F20.0
N2640G01X71.032Y47.704F500.0
N2650X70.932Y47.805
N2660X71.032Y47.905
N2670X71.133Y47.805
N2680G00Z6.000
N2690G00X69.532Y53.804
N2700G01Z-0.094F20.0
N2710G2Y54.005I0.000J0.101F500.0
N2720G3X70.532Y55.005I0.000J1.000
N2730G01Y60.605
N2740G3X69.532Y61.604I-1.000J0.000
N2750G2Y61.805I0.000J0.101
N2760G01X72.532
N2770G2Y61.604I0.000J-0.100
N2780G3X71.533Y60.605I0.000J-1.000
N2790G01Y55.005
N2800G3X72.532Y54.005I0.999J0.000
N2810G2Y53.804I0.000J-0.100
N2820G01X69.532
N2830G01Z-0.188F20.0
N2840G2Y54.005I0.000J0.101F500.0
N2850G3X70.532Y55.005I0.000J1.000
N2860G01Y60.605
N2870G3X69.532Y61.604I-1.000J0.000
N2880G2Y61.805I0.000J0.101
N2890G01X72.532
N2900G2Y61.604I0.000J-0.100
N2910G3X71.533Y60.605I0.000J-1.000
N2920G01Y55.005
N2930G3X72.532Y54.005I0.999J0.000
N2940G2Y53.804I0.000J-0.100
N2950G01X69.532
N2960G01Z-0.282F20.0
N2970G2Y54.005I0.000J0.101F500.0
N2980G3X70.532Y55.005I0.000J1.000
N2990G01Y60.605
N3000G3X69.532Y61.604I-1.000J0.000
N3010G2Y61.805I0.000J0.101
N3020G01X72.532
N3030G2Y61.604I0.000J-0.100
N3040G3X71.533Y60.605I0.000J-1.000
N3050G01Y55.005
N3060G3X72.532Y54.005I0.999J0.000
N3070G2Y53.804I0.000J-0.100
N3080G01X69.532
N3090G01Z-0.376F20.0
N3100G2Y54.005I0.000J0.101F500.0
N3110G3X70.532Y55.005I0.000J1.000
N3120G01Y60.605
N3130G3X69.532Y61.604I-1.000J0.000
N3140G2Y61.805I0.000J0.101
N3150G01X72.532
N3160G2Y61.604I0.000J-0.100
N3170G3X71.533Y60.605I0.000J-1.000
N3180G01Y55.005
N3190G3X72.532Y54.005I0.999J0.000
N3200G2Y53.804I0.000J-0.100
N3210G01X69.532
N3220G01Z-0.471F20.0
N3230G2Y54.005I0.000J0.101F500.0
N3240G3X70.532Y55.005I0.000J1.000
N3250G01Y60.605
N3260G3X69.532Y61.604I-1.000J0.000
N3270G2Y61.805I0.000J0.101
N3280G01X72.532
N3290G2Y61.604I0.000J-0.100
N3300G3X71.533Y60.605I0.000J-1.000
N3310G01Y55.005
N3320G3X72.532Y54.005I0.999J0.000
N3330G2Y53.804I0.000J-0.100
N3340G01X69.532
N3350G01Z-0.565F20.0
N3360G2Y54.005I0.000J0.101F500.0
N3370G3X70.532Y55.005I0.000J1.000
N3380G01Y60.605
N3390G3X69.532Y61.604I-1.000J0.000
N3400G2Y61.805I0.000J0.101
N3410G01X72.532
N3420G2Y61.604I0.000J-0.100
N3430G3X71.533Y60.605I0.000J-1.000
N3440G01Y55.005
N3450G3X72.532Y54.005I0.999J0.000
N3460G2Y53.804I0.000J-0.100
N3470G01X69.532
N3480G01Z-0.659F20.0
N3490G2Y54.005I0.000J0.101F500.0
N3500G3X70.532Y55.005I0.000J1.000
N3510G01Y60.605
N3520G3X69.532Y61.604I-1.000J0.000
N3530G2Y61.805I0.000J0.101
N3540G01X72.532
N3550G2Y61.604I0.000J-0.100
N3560G3X71.533Y60.605I0.000J-1.000
N3570G01Y55.005
N3580G3X72.532Y54.005I0.999J0.000
N3590G2Y53.804I0.000J-0.100
N3600G01X69.532
N3610G01Z-0.753F20.0
N3620G2Y54.005I0.000J0.101F500.0
N3630G3X70.532Y55.005I0.000J1.000
N3640G01Y60.605
N3650G3X69.532Y61.604I-1.000J0.000
N3660G2Y61.805I0.000J0.101
N3670G01X72.532
N3680G2Y61.604I0.000J-0.100
N3690G3X71.533Y60.605I0.000J-1.000
N3700G01Y55.005
N3710G3X72.532Y54.005I0.999J0.000
N3720G2Y53.804I0.000J-0.100
N3730G01X69.532
N3740G01Z-0.847F20.0
N3750G2Y54.005I0.000J0.101F500.0
N3760G3X70.532Y55.005I0.000J1.000
N3770G01Y60.605
N3780G3X69.532Y61.604I-1.000J0.000
N3790G2Y61.805I0.000J0.101
N3800G01X72.532
N3810G2Y61.604I0.000J-0.100
N3820G3X71.533Y60.605I0.000J-1.000
N3830G01Y55.005
N3840G3X72.532Y54.005I0.999J0.000
N3850G2Y53.804I0.000J-0.100
N3860G01X69.532
N3870G01Z-0.941F20.0
N3880G2Y54.005I0.000J0.101F500.0
N3890G3X70.532Y55.005I0.000J1.000
N3900G01Y60.605
N3910G3X69.532Y61.604I-1.000J0.000
N3920G2Y61.805I0.000J0.101
N3930G01X72.532
N3940G2Y61.604I0.000J-0.100
N3950G3X71.533Y60.605I0.000J-1.000
N3960G01Y55.005
N3970G3X72.532Y54.005I0.999J0.000
N3980G2Y53.804I0.000J-0.100
N3990G01X69.532
N4000G01Z-1.035F20.0
N4010G2Y54.005I0.000J0.101F500.0
N4020G3X70.532Y55.005I0.000J1.000
N4030G01Y60.605
N4040G3X69.532Y61.604I-1.000J0.000
N4050G2Y61.805I0.000J0.101
N4060G01X72.532
N4070G2Y61.604I0.000J-0.100
N4080G3X71.533Y60.605I0.000J-1.000
N4090G01Y55.005
N4100G3X72.532Y54.005I0.999J0.000
N4110G2Y53.804I0.000J-0.100
N4120G01X69.532
N4130G01Z-1.129F20.0
N4140G2Y54.005I0.000J0.101F500.0
N4150G3X70.532Y55.005I0.000J1.000
N4160G01Y60.605
N4170G3X69.532Y61.604I-1.000J0.000
N4180G2Y61.805I0.000J0.101
N4190G01X72.532
N4200G2Y61.604I0.000J-0.100
N4210G3X71.533Y60.605I0.000J-1.000
N4220G01Y55.005
N4230G3X72.532Y54.005I0.999J0.000
N4240G2Y53.804I0.000J-0.100
N4250G01X69.532
N4260G01Z-1.224F20.0
N4270G2Y54.005I0.000J0.101F500.0
N4280G3X70.532Y55.005I0.000J1.000
N4290G01Y60.605
N4300G3X69.532Y61.604I-1.000J0.000
N4310G2Y61.805I0.000J0.101
N4320G01X72.532
N4330G2Y61.604I0.000J-0.100
N4340G3X71.533Y60.605I0.000J-1.000
N4350G01Y55.005
N4360G3X72.532Y54.005I0.999J0.000
N4370G2Y53.804I0.000J-0.100
N4380G01X69.532
N4390G01Z-1.318F20.0
N4400G2Y54.005I0.000J0.101F500.0
N4410G3X70.532Y55.005I0.000J1.000
N4420G01Y60.605
N4430G3X69.532Y61.604I-1.000J0.000
N4440G2Y61.805I0.000J0.101
N4450G01X72.532
N4460G2Y61.604I0.000J-0.100
N4470G3X71.533Y60.605I0.000J-1.000
N4480G01Y55.005
N4490G3X72.532Y54.005I0.999J0.000
N4500G2Y53.804I0.000J-0.100
N4510G01X69.532
N4520G01Z-1.412F20.0
N4530G2Y54.005I0.000J0.101F500.0
N4540G3X70.532Y55.005I0.000J1.000
N4550G01Y60.605
N4560G3X69.532Y61.604I-1.000J0.000
N4570G2Y61.805I0.000J0.101
N4580G01X72.532
N4590G2Y61.604I0.000J-0.100
N4600G3X71.533Y60.605I0.000J-1.000
N4610G01Y55.005
N4620G3X72.532Y54.005I0.999J0.000
N4630G2Y53.804I0.000J-0.100
N4640G01X69.532
N4650G01Z-1.506F20.0
N4660G2Y54.005I0.000J0.101F500.0
N4670G3X70.532Y55.005I0.000J1.000
N4680G01Y60.605
N4690G3X69.532Y61.604I-1.000J0.000
N4700G2Y61.805I0.000J0.101
N4710G01X72.532
N4720G2Y61.604I0.000J-0.100
N4730G3X71.533Y60.605I0.000J-1.000
N4740G01Y55.005
N4750G3X72.532Y54.005I0.999J0.000
N4760G2Y53.804I0.000J-0.100
N4770G01X69.532
N4780G01Z-1.600F20.0
N4790G2Y54.005I0.000J0.101F500.0
N4800G3X70.532Y55.005I0.000J1.000
N4810G01Y60.605
N4820G3X69.532Y61.604I-1.000J0.000
N4830G2Y61.805I0.000J0.101
N4840G01X72.532
N4850G2Y61.604I0.000J-0.100
N4860G3X71.533Y60.605I0.000J-1.000
N4870G01Y55.005
N4880G3X72.532Y54.005I0.999J0.000
N4890G2Y53.804I0.000J-0.100
N4900G01X69.532
N4910G00Z6.000
N4920G00X71.133Y67.805
N4930G01Z-0.094F20.0
N4940G01X71.032Y67.704F500.0
N4950X70.932Y67.805
N4960X71.032Y67.905
N4970X71.133Y67.805
N4980G01Z-0.188F20.0
N4990G01X71.032Y67.704F500.0
N5000X70.932Y67.805
N5010X71.032Y67.905
N5020X71.133Y67.805
N5030G01Z-0.282F20.0
N5040G01X71.032Y67.704F500.0
N5050X70.932Y67.805
N5060X71.032Y67.905
N5070X71.133Y67.805
N5080G01Z-0.376F20.0
N5090G01X71.032Y67.704F500.0
N5100X70.932Y67.805
N5110X71.032Y67.905
N5120X71.133Y67.805
N5130G01Z-0.471F20.0
N5140G01X71.032Y67.704F500.0
N5150X70.932Y67.805
N5160X71.032Y67.905
N5170X71.133Y67.805
N5180G01Z-0.565F20.0
N5190G01X71.032Y67.704F500.0
N5200X70.932Y67.805
N5210X71.032Y67.905
N5220X71.133Y67.805
N5230G01Z-0.659F20.0
N5240G01X71.032Y67.704F500.0
N5250X70.932Y67.805
N5260X71.032Y67.905
N5270X71.133Y67.805
N5280G01Z-0.753F20.0
N5290G01X71.032Y67.704F500.0
N5300X70.932Y67.805
N5310X71.032Y67.905
N5320X71.133Y67.805
N5330G01Z-0.847F20.0
N5340G01X71.032Y67.704F500.0
N5350X70.932Y67.805
N5360X71.032Y67.905
N5370X71.133Y67.805
N5380G01Z-0.941F20.0
N5390G01X71.032Y67.704F500.0
N5400X70.932Y67.805
N5410X71.032Y67.905
N5420X71.133Y67.805
N5430G01Z-1.035F20.0
N5440G01X71.032Y67.704F500.0
N5450X70.932Y67.805
N5460X71.032Y67.905
N5470X71.133Y67.805
N5480G01Z-1.129F20.0
N5490G01X71.032Y67.704F500.0
N5500X70.932Y67.805
N5510X71.032Y67.905
N5520X71.133Y67.805
N5530G01Z-1.224F20.0
N5540G01X71.032Y67.704F500.0
N5550X70.932Y67.805
N5560X71.032Y67.905
N5570X71.133Y67.805
N5580G01Z-1.318F20.0
N5590G01X71.032Y67.704F500.0
N5600X70.932Y67.805
N5610X71.032Y67.905
N5620X71.133Y67.805
N5630G01Z-1.412F20.0
N5640G01X71.032Y67.704F500.0
N5650X70.932Y67.805
N5660X71.032Y67.905
N5670X71.133Y67.805
N5680G01Z-1.506F20.0
N5690G01X71.032Y67.704F500.0
N5700X70.932Y67.805
N5710X71.032Y67.905
N5720X71.133Y67.805
N5730G01Z-1.600F20.0
N5740G01X71.032Y67.704F500.0
N5750X70.932Y67.805
N5760X71.032Y67.905
N5770X71.133Y67.805
N5780G00Z6.000
N5790G00X69.532Y73.804
N5800G01Z-0.094F20.0
N5810G2Y74.005I0.000J0.101F500.0
N5820G3X70.532Y75.005I0.000J0.999
N5830G01Y80.605
N5840G3X69.532Y81.604I-1.000J0.000
N5850G2Y81.805I0.000J0.100
N5860G01X72.532
N5870G2Y81.604I0.000J-0.101
N5880G3X71.533Y80.605I0.000J-1.000
N5890G01Y75.005
N5900G3X72.532Y74.005I0.999J0.000
N5910G2Y73.804I0.000J-0.101
N5920G01X69.532
N5930G01Z-0.188F20.0
N5940G2Y74.005I0.000J0.101F500.0
N5950G3X70.532Y75.005I0.000J0.999
N5960G01Y80.605
N5970G3X69.532Y81.604I-1.000J0.000
N5980G2Y81.805I0.000J0.100
N5990G01X72.532
N6000G2Y81.604I0.000J-0.101
N6010G3X71.533Y80.605I0.000J-1.000
N6020G01Y75.005
N6030G3X72.532Y74.005I0.999J0.000
N6040G2Y73.804I0.000J-0.101
N6050G01X69.532
N6060G01Z-0.282F20.0
N6070G2Y74.005I0.000J0.101F500.0
N6080G3X70.532Y75.005I0.000J0.999
N6090G01Y80.605
N6100G3X69.532Y81.604I-1.000J0.000
N6110G2Y81.805I0.000J0.100
N6120G01X72.532
N6130G2Y81.604I0.000J-0.101
N6140G3X71.533Y80.605I0.000J-1.000
N6150G01Y75.005
N6160G3X72.532Y74.005I0.999J0.000
N6170G2Y73.804I0.000J-0.101
N6180G01X69.532
N6190G01Z-0.376F20.0
N6200G2Y74.005I0.000J0.101F500.0
N6210G3X70.532Y75.005I0.000J0.999
N6220G01Y80.605
N6230G3X69.532Y81.604I-1.000J0.000
N6240G2Y81.805I0.000J0.100
N6250G01X72.532
N6260G2Y81.604I0.000J-0.101
N6270G3X71.533Y80.605I0.000J-1.000
N6280G01Y75.005
N6290G3X72.532Y74.005I0.999J0.000
N6300G2Y73.804I0.000J-0.101
N6310G01X69.532
N6320G01Z-0.471F20.0
N6330G2Y74.005I0.000J0.101F500.0
N6340G3X70.532Y75.005I0.000J0.999
N6350G01Y80.605
N6360G3X69.532Y81.604I-1.000J0.000
N6370G2Y81.805I0.000J0.100
N6380G01X72.532
N6390G2Y81.604I0.000J-0.101
N6400G3X71.533Y80.605I0.000J-1.000
N6410G01Y75.005
N6420G3X72.532Y74.005I0.999J0.000
N6430G2Y73.804I0.000J-0.101
N6440G01X69.532
N6450G01Z-0.565F20.0
N6460G2Y74.005I0.000J0.101F500.0
N6470G3X70.532Y75.005I0.000J0.999
N6480G01Y80.605
N6490G3X69.532Y81.604I-1.000J0.000
N6500G2Y81.805I0.000J0.100
N6510G01X72.532
N6520G2Y81.604I0.000J-0.101
N6530G3X71.533Y80.605I0.000J-1.000
N6540G01Y75.005
N6550G3X72.532Y74.005I0.999J0.000
N6560G2Y73.804I0.000J-0.101
N6570G01X69.532
N6580G01Z-0.659F20.0
N6590G2Y74.005I0.000J0.101F500.0
N6600G3X70.532Y75.005I0.000J0.999
N6610G01Y80.605
N6620G3X69.532Y81.604I-1.000J0.000
N6630G2Y81.805I0.000J0.100
N6640G01X72.532
N6650G2Y81.604I0.000J-0.101
N6660G3X71.533Y80.605I0.000J-1.000
N6670G01Y75.005
N6680G3X72.532Y74.005I0.999J0.000
N6690G2Y73.804I0.000J-0.101
N6700G01X69.532
N6710G01Z-0.753F20.0
N6720G2Y74.005I0.000J0.101F500.0
N6730G3X70.532Y75.005I0.000J0.999
N6740G01Y80.605
N6750G3X69.532Y81.604I-1.000J0.000
N6760G2Y81.805I0.000J0.100
N6770G01X72.532
N6780G2Y81.604I0.000J-0.101
N6790G3X71.533Y80.605I0.000J-1.000
N6800G01Y75.005
N6810G3X72.532Y74.005I0.999J0.000
N6820G2Y73.804I0.000J-0.101
N6830G01X69.532
N6840G01Z-0.847F20.0
N6850G2Y74.005I0.000J0.101F500.0
N6860G3X70.532Y75.005I0.000J0.999
N6870G01Y80.605
N6880G3X69.532Y81.604I-1.000J0.000
N6890G2Y81.805I0.000J0.100
N6900G01X72.532
N6910G2Y81.604I0.000J-0.101
N6920G3X71.533Y80.605I0.000J-1.000
N6930G01Y75.005
N6940G3X72.532Y74.005I0.999J0.000
N6950G2Y73.804I0.000J-0.101
N6960G01X69.532
N6970G01Z-0.941F20.0
N6980G2Y74.005I0.000J0.101F500.0
N6990G3X70.532Y75.005I0.000J0.999
N7000G01Y80.605
N7010G3X69.532Y81.604I-1.000J0.000
N7020G2Y81.805I0.000J0.100
N7030G01X72.532
N7040G2Y81.604I0.000J-0.101
N7050G3X71.533Y80.605I0.000J-1.000
N7060G01Y75.005
N7070G3X72.532Y74.005I0.999J0.000
N7080G2Y73.804I0.000J-0.101
N7090G01X69.532
N7100G01Z-1.035F20.0
N7110G2Y74.005I0.000J0.101F500.0
N7120G3X70.532Y75.005I0.000J0.999
N7130G01Y80.605
N7140G3X69.532Y81.604I-1.000J0.000
N7150G2Y81.805I0.000J0.100
N7160G01X72.532
N7170G2Y81.604I0.000J-0.101
N7180G3X71.533Y80.605I0.000J-1.000
N7190G01Y75.005
N7200G3X72.532Y74.005I0.999J0.000
N7210G2Y73.804I0.000J-0.101
N7220G01X69.532
N7230G01Z-1.129F20.0
N7240G2Y74.005I0.000J0.101F500.0
N7250G3X70.532Y75.005I0.000J0.999
N7260G01Y80.605
N7270G3X69.532Y81.604I-1.000J0.000
N7280G2Y81.805I0.000J0.100
N7290G01X72.532
N7300G2Y81.604I0.000J-0.101
N7310G3X71.533Y80.605I0.000J-1.000
N7320G01Y75.005
N7330G3X72.532Y74.005I0.999J0.000
N7340G2Y73.804I0.000J-0.101
N7350G01X69.532
N7360G01Z-1.224F20.0
N7370G2Y74.005I0.000J0.101F500.0
N7380G3X70.532Y75.005I0.000J0.999
N7390G01Y80.605
N7400G3X69.532Y81.604I-1.000J0.000
N7410G2Y81.805I0.000J0.100
N7420G01X72.532
N7430G2Y81.604I0.000J-0.101
N7440G3X71.533Y80.605I0.000J-1.000
N7450G01Y75.005
N7460G3X72.532Y74.005I0.999J0.000
N7470G2Y73.804I0.000J-0.101
N7480G01X69.532
N7490G01Z-1.318F20.0
N7500G2Y74.005I0.000J0.101F500.0
N7510G3X70.532Y75.005I0.000J0.999
N7520G01Y80.605
N7530G3X69.532Y81.604I-1.000J0.000
N7540G2Y81.805I0.000J0.100
N7550G01X72.532
N7560G2Y81.604I0.000J-0.101
N7570G3X71.533Y80.605I0.000J-1.000
N7580G01Y75.005
N7590G3X72.532Y74.005I0.999J0.000
N7600G2Y73.804I0.000J-0.101
N7610G01X69.532
N7620G01Z-1.412F20.0
N7630G2Y74.005I0.000J0.101F500.0
N7640G3X70.532Y75.005I0.000J0.999
N7650G01Y80.605
N7660G3X69.532Y81.604I-1.000J0.000
N7670G2Y81.805I0.000J0.100
N7680G01X72.532
N7690G2Y81.604I0.000J-0.101
N7700G3X71.533Y80.605I0.000J-1.000
N7710G01Y75.005
N7720G3X72.532Y74.005I0.999J0.000
N7730G2Y73.804I0.000J-0.101
N7740G01X69.532
N7750G01Z-1.506F20.0
N7760G2Y74.005I0.000J0.101F500.0
N7770G3X70.532Y75.005I0.000J0.999
N7780G01Y80.605
N7790G3X69.532Y81.604I-1.000J0.000
N7800G2Y81.805I0.000J0.100
N7810G01X72.532
N7820G2Y81.604I0.000J-0.101
N7830G3X71.533Y80.605I0.000J-1.000
N7840G01Y75.005
N7850G3X72.532Y74.005I0.999J0.000
N7860G2Y73.804I0.000J-0.101
N7870G01X69.532
N7880G01Z-1.600F20.0
N7890G2Y74.005I0.000J0.101F500.0
N7900G3X70.532Y75.005I0.000J0.999
N7910G01Y80.605
N7920G3X69.532Y81.604I-1.000J0.000
N7930G2Y81.805I0.000J0.100
N7940G01X72.532
N7950G2Y81.604I0.000J-0.101
N7960G3X71.533Y80.605I0.000J-1.000
N7970G01Y75.005
N7980G3X72.532Y74.005I0.999J0.000
N7990G2Y73.804I0.000J-0.101
N8000G01X69.532
N8010G00Z6.000
N8020G00X85.459Y78.837
N8030G01Z-0.094F20.0
N8040G3X77.674Y90.717I-54.888J-27.479F500.0
N8050G2X78.442Y92.359I0.768J0.642
N8060G01X86.354
N8070G2X87.354Y91.358I0.000J-1.000
N8080G01Y79.285
N8090G2X85.459Y78.837I-1.000J0.000
N8100G01Z-0.188F20.0
N8110G3X77.674Y90.717I-54.888J-27.479F500.0
N8120G2X78.442Y92.359I0.768J0.642
N8130G01X86.354
N8140G2X87.354Y91.358I0.000J-1.000
N8150G01Y79.285
N8160G2X85.459Y78.837I-1.000J0.000
N8170G01Z-0.282F20.0
N8180G3X77.674Y90.717I-54.888J-27.479F500.0
N8190G2X78.442Y92.359I0.768J0.642
N8200G01X86.354
N8210G2X87.354Y91.358I0.000J-1.000
N8220G01Y79.285
N8230G2X85.459Y78.837I-1.000J0.000
N8240G01Z-0.376F20.0
N8250G3X77.674Y90.717I-54.888J-27.479F500.0
N8260G2X78.442Y92.359I0.768J0.642
N8270G01X86.354
N8280G2X87.354Y91.358I0.000J-1.000
N8290G01Y79.285
N8300G2X85.459Y78.837I-1.000J0.000
N8310G01Z-0.471F20.0
N8320G3X77.674Y90.717I-54.888J-27.479F500.0
N8330G2X78.442Y92.359I0.768J0.642
N8340G01X86.354
N8350G2X87.354Y91.358I0.000J-1.000
N8360G01Y79.285
N8370G2X85.459Y78.837I-1.000J0.000
N8380G01Z-0.565F20.0
N8390G3X77.674Y90.717I-54.888J-27.479F500.0
N8400G2X78.442Y92.359I0.768J0.642
N8410G01X86.354
N8420G2X87.354Y91.358I0.000J-1.000
N8430G01Y79.285
N8440G2X85.459Y78.837I-1.000J0.000
N8450G01Z-0.659F20.0
N8460G3X77.674Y90.717I-54.888J-27.479F500.0
N8470G2X78.442Y92.359I0.768J0.642
N8480G01X86.354
N8490G2X87.354Y91.358I0.000J-1.000
N8500G01Y79.285
N8510G2X85.459Y78.837I-1.000J0.000
N8520G01Z-0.753F20.0
N8530G3X77.674Y90.717I-54.888J-27.479F500.0
N8540G2X78.442Y92.359I0.768J0.642
N8550G01X86.354
N8560G2X87.354Y91.358I0.000J-1.000
N8570G01Y79.285
N8580G2X85.459Y78.837I-1.000J0.000
N8590G01Z-0.847F20.0
N8600G3X77.674Y90.717I-54.888J-27.479F500.0
N8610G2X78.442Y92.359I0.768J0.642
N8620G01X86.354
N8630G2X87.354Y91.358I0.000J-1.000
N8640G01Y79.285
N8650G2X85.459Y78.837I-1.000J0.000
N8660G01Z-0.941F20.0
N8670G3X77.674Y90.717I-54.888J-27.479F500.0
N8680G2X78.442Y92.359I0.768J0.642
N8690G01X86.354
N8700G2X87.354Y91.358I0.000J-1.000
N8710G01Y79.285
N8720G2X85.459Y78.837I-1.000J0.000
N8730G01Z-1.035F20.0
N8740G3X77.674Y90.717I-54.888J-27.479F500.0
N8750G2X78.442Y92.359I0.768J0.642
N8760G01X86.354
N8770G2X87.354Y91.358I0.000J-1.000
N8780G01Y79.285
N8790G2X85.459Y78.837I-1.000J0.000
N8800G01Z-1.129F20.0
N8810G3X77.674Y90.717I-54.888J-27.479F500.0
N8820G2X78.442Y92.359I0.768J0.642
N8830G01X86.354
N8840G2X87.354Y91.358I0.000J-1.000
N8850G01Y79.285
N8860G2X85.459Y78.837I-1.000J0.000
N8870G01Z-1.224F20.0
N8880G3X77.674Y90.717I-54.888J-27.479F500.0
N8890G2X78.442Y92.359I0.768J0.642
N8900G01X86.354
N8910G2X87.354Y91.358I0.000J-1.000
N8920G01Y79.285
N8930G2X85.459Y78.837I-1.000J0.000
N8940G01Z-1.318F20.0
N8950G3X77.674Y90.717I-54.888J-27.479F500.0
N8960G2X78.442Y92.359I0.768J0.642
N8970G01X86.354
N8980G2X87.354Y91.358I0.000J-1.000
N8990G01Y79.285
N9000G2X85.459Y78.837I-1.000J0.000
N9010G01Z-1.412F20.0
N9020G3X77.674Y90.717I-54.888J-27.479F500.0
N9030G2X78.442Y92.359I0.768J0.642
N9040G01X86.354
N9050G2X87.354Y91.358I0.000J-1.000
N9060G01Y79.285
N9070G2X85.459Y78.837I-1.000J0.000
N9080G01Z-1.506F20.0
N9090G3X77.674Y90.717I-54.888J-27.479F500.0
N9100G2X78.442Y92.359I0.768J0.642
N9110G01X86.354
N9120G2X87.354Y91.358I0.000J-1.000
N9130G01Y79.285
N9140G2X85.459Y78.837I-1.000J0.000
N9150G01Z-1.600F20.0
N9160G3X77.674Y90.717I-54.888J-27.479F500.0
N9170G2X78.442Y92.359I0.768J0.642
N9180G01X86.354
N9190G2X87.354Y91.358I0.000J-1.000
N9200G01Y79.285
N9210G2X85.459Y78.837I-1.000J0.000
N9220G00Z6.000
N9230G00X91.454Y72.358
N9240G01Z-0.094F20.0
N9250G2Y72.559I0.000J0.101F500.0
N9260G3X92.453Y73.558I0.000J0.999
N9270G01Y79.158
N9280G3X91.454Y80.158I-0.999J0.000
N9290G2Y80.359I0.000J0.101
N9300G01X94.454
N9310G2Y80.158I0.000J-0.100
N9320G3X93.454Y79.158I0.000J-0.999
N9330G01Y73.558
N9340G3X94.454Y72.559I1.000J0.000
N9350G2Y72.358I0.000J-0.101
N9360G01X91.454
N9370G01Z-0.188F20.0
N9380G2Y72.559I0.000J0.101F500.0
N9390G3X92.453Y73.558I0.000J0.999
N9400G01Y79.158
N9410G3X91.454Y80.158I-0.999J0.000
N9420G2Y80.359I0.000J0.101
N9430G01X94.454
N9440G2Y80.158I0.000J-0.100
N9450G3X93.454Y79.158I0.000J-0.999
N9460G01Y73.558
N9470G3X94.454Y72.559I1.000J0.000
N9480G2Y72.358I0.000J-0.101
N9490G01X91.454
N9500G01Z-0.282F20.0
N9510G2Y72.559I0.000J0.101F500.0
N9520G3X92.453Y73.558I0.000J0.999
N9530G01Y79.158
N9540G3X91.454Y80.158I-0.999J0.000
N9550G2Y80.359I0.000J0.101
N9560G01X94.454
N9570G2Y80.158I0.000J-0.100
N9580G3X93.454Y79.158I0.000J-0.999
N9590G01Y73.558
N9600G3X94.454Y72.559I1.000J0.000
N9610G2Y72.358I0.000J-0.101
N9620G01X91.454
N9630G01Z-0.376F20.0
N9640G2Y72.559I0.000J0.101F500.0
N9650G3X92.453Y73.558I0.000J0.999
N9660G01Y79.158
N9670G3X91.454Y80.158I-0.999J0.000
N9680G2Y80.359I0.000J0.101
N9690G01X94.454
N9700G2Y80.158I0.000J-0.100
N9710G3X93.454Y79.158I0.000J-0.999
N9720G01Y73.558
N9730G3X94.454Y72.559I1.000J0.000
N9740G2Y72.358I0.000J-0.101
N9750G01X91.454
N9760G01Z-0.471F20.0
N9770G2Y72.559I0.000J0.101F500.0
N9780G3X92.453Y73.558I0.000J0.999
N9790G01Y79.158
N9800G3X91.454Y80.158I-0.999J0.000
N9810G2Y80.359I0.000J0.101
N9820G01X94.454
N9830G2Y80.158I0.000J-0.100
N9840G3X93.454Y79.158I0.000J-0.999
N9850G01Y73.558
N9860G3X94.454Y72.559I1.000J0.000
N9870G2Y72.358I0.000J-0.101
N9880G01X91.454
N9890G01Z-0.565F20.0
N9900G2Y72.559I0.000J0.101F500.0
N9910G3X92.453Y73.558I0.000J0.999
N9920G01Y79.158
N9930G3X91.454Y80.158I-0.999J0.000
N9940G2Y80.359I0.000J0.101
N9950G01X94.454
N9960G2Y80.158I0.000J-0.100
N9970G3X93.454Y79.158I0.000J-0.999
N9980G01Y73.558
N9990G3X94.454Y72.559I1.000J0.000
N10000G2Y72.358I0.000J-0.101
N10010G01X91.454
N10020G01Z-0.659F20.0
N10030G2Y72.559I0.000J0.101F500.0
N10040G3X92.453Y73.558I0.000J0.999
N10050G01Y79.158
N10060G3X91.454Y80.158I-0.999J0.000
N10070G2Y80.359I0.000J0.101
N10080G01X94.454
N10090G2Y80.158I0.000J-0.100
N10100G3X93.454Y79.158I0.000J-0.999
N10110G01Y73.558
N10120G3X94.454Y72.559I1.000J0.000
N10130G2Y72.358I0.000J-0.101
N10140G01X91.454
N10150G01Z-0.753F20.0
N10160G2Y72.559I0.000J0.101F500.0
N10170G3X92.453Y73.558I0.000J0.999
N10180G01Y79.158
N10190G3X91.454Y80.158I-0.999J0.000
N10200G2Y80.359I0.000J0.101
N10210G01X94.454
N10220G2Y80.158I0.000J-0.100
N10230G3X93.454Y79.158I0.000J-0.999
N10240G01Y73.558
N10250G3X94.454Y72.559I1.000J0.000
N10260G2Y72.358I0.000J-0.101
N10270G01X91.454
N10280G01Z-0.847F20.0
N10290G2Y72.559I0.000J0.101F500.0
N10300G3X92.453Y73.558I0.000J0.999
N10310G01Y79.158
N10320G3X91.454Y80.158I-0.999J0.000
N10330G2Y80.359I0.000J0.101
N10340G01X94.454
N10350G2Y80.158I0.000J-0.100
N10360G3X93.454Y79.158I0.000J-0.999
N10370G01Y73.558
N10380G3X94.454Y72.559I1.000J0.000
N10390G2Y72.358I0.000J-0.101
N10400G01X91.454
N10410G01Z-0.941F20.0
N10420G2Y72.559I0.000J0.101F500.0
N10430G3X92.453Y73.558I0.000J0.999
N10440G01Y79.158
N10450G3X91.454Y80.158I-0.999J0.000
N10460G2Y80.359I0.000J0.101
N10470G01X94.454
N10480G2Y80.158I0.000J-0.100
N10490G3X93.454Y79.158I0.000J-0.999
N10500G01Y73.558
N10510G3X94.454Y72.559I1.000J0.000
N10520G2Y72.358I0.000J-0.101
N10530G01X91.454
N10540G01Z-1.035F20.0
N10550G2Y72.559I0.000J0.101F500.0
N10560G3X92.453Y73.558I0.000J0.999
N10570G01Y79.158
N10580G3X91.454Y80.158I-0.999J0.000
N10590G2Y80.359I0.000J0.101
N10600G01X94.454
N10610G2Y80.158I0.000J-0.100
N10620G3X93.454Y79.158I0.000J-0.999
N10630G01Y73.558
N10640G3X94.454Y72.559I1.000J0.000
N10650G2Y72.358I0.000J-0.101
N10660G01X91.454
N10670G01Z-1.129F20.0
N10680G2Y72.559I0.000J0.101F500.0
N10690G3X92.453Y73.558I0.000J0.999
N10700G01Y79.158
N10710G3X91.454Y80.158I-0.999J0.000
N10720G2Y80.359I0.000J0.101
N10730G01X94.454
N10740G2Y80.158I0.000J-0.100
N10750G3X93.454Y79.158I0.000J-0.999
N10760G01Y73.558
N10770G3X94.454Y72.559I1.000J0.000
N10780G2Y72.358I0.000J-0.101
N10790G01X91.454
N10800G01Z-1.224F20.0
N10810G2Y72.559I0.000J0.101F500.0
N10820G3X92.453Y73.558I0.000J0.999
N10830G01Y79.158
N10840G3X91.454Y80.158I-0.999J0.000
N10850G2Y80.359I0.000J0.101
N10860G01X94.454
N10870G2Y80.158I0.000J-0.100
N10880G3X93.454Y79.158I0.000J-0.999
N10890G01Y73.558
N10900G3X94.454Y72.559I1.000J0.000
N10910G2Y72.358I0.000J-0.101
N10920G01X91.454
N10930G01Z-1.318F20.0
N10940G2Y72.559I0.000J0.101F500.0
N10950G3X92.453Y73.558I0.000J0.999
N10960G01Y79.158
N10970G3X91.454Y80.158I-0.999J0.000
N10980G2Y80.359I0.000J0.101
N10990G01X94.454
N11000G2Y80.158I0.000J-0.100
N11010G3X93.454Y79.158I0.000J-0.999
N11020G01Y73.558
N11030G3X94.454Y72.559I1.000J0.000
N11040G2Y72.358I0.000J-0.101
N11050G01X91.454
N11060G01Z-1.412F20.0
N11070G2Y72.559I0.000J0.101F500.0
N11080G3X92.453Y73.558I0.000J0.999
N11090G01Y79.158
N11100G3X91.454Y80.158I-0.999J0.000
N11110G2Y80.359I0.000J0.101
N11120G01X94.454
N11130G2Y80.158I0.000J-0.100
N11140G3X93.454Y79.158I0.000J-0.999
N11150G01Y73.558
N11160G3X94.454Y72.559I1.000J0.000
N11170G2Y72.358I0.000J-0.101
N11180G01X91.454
N11190G01Z-1.506F20.0
N11200G2Y72.559I0.000J0.101F500.0
N11210G3X92.453Y73.558I0.000J0.999
N11220G01Y79.158
N11230G3X91.454Y80.158I-0.999J0.000
N11240G2Y80.359I0.000J0.101
N11250G01X94.454
N11260G2Y80.158I0.000J-0.100
N11270G3X93.454Y79.158I0.000J-0.999
N11280G01Y73.558
N11290G3X94.454Y72.559I1.000J0.000
N11300G2Y72.358I0.000J-0.101
N11310G01X91.454
N11320G01Z-1.600F20.0
N11330G2Y72.559I0.000J0.101F500.0
N11340G3X92.453Y73.558I0.000J0.999
N11350G01Y79.158
N11360G3X91.454Y80.158I-0.999J0.000
N11370G2Y80.359I0.000J0.101
N11380G01X94.454
N11390G2Y80.158I0.000J-0.100
N11400G3X93.454Y79.158I0.000J-0.999
N11410G01Y73.558
N11420G3X94.454Y72.559I1.000J0.000
N11430G2Y72.358I0.000J-0.101
N11440G01X91.454
N11450G00Z6.000
N11460G00X93.054Y66.358
N11470G01Z-0.094F20.0
N11480G01X92.954Y66.258F500.0
N11490X92.853Y66.358
N11500X92.954Y66.459
N11510X93.054Y66.358
N11520G01Z-0.188F20.0
N11530G01X92.954Y66.258F500.0
N11540X92.853Y66.358
N11550X92.954Y66.459
N11560X93.054Y66.358
N11570G01Z-0.282F20.0
N11580G01X92.954Y66.258F500.0
N11590X92.853Y66.358
N11600X92.954Y66.459
N11610X93.054Y66.358
N11620G01Z-0.376F20.0
N11630G01X92.954Y66.258F500.0
N11640X92.853Y66.358
N11650X92.954Y66.459
N11660X93.054Y66.358
N11670G01Z-0.471F20.0
N11680G01X92.954Y66.258F500.0
N11690X92.853Y66.358
N11700X92.954Y66.459
N11710X93.054Y66.358
N11720G01Z-0.565F20.0
N11730G01X92.954Y66.258F500.0
N11740X92.853Y66.358
N11750X92.954Y66.459
N11760X93.054Y66.358
N11770G01Z-0.659F20.0
N11780G01X92.954Y66.258F500.0
N11790X92.853Y66.358
N11800X92.954Y66.459
N11810X93.054Y66.358
N11820G01Z-0.753F20.0
N11830G01X92.954Y66.258F500.0
N11840X92.853Y66.358
N11850X92.954Y66.459
N11860X93.054Y66.358
N11870G01Z-0.847F20.0
N11880G01X92.954Y66.258F500.0
N11890X92.853Y66.358
N11900X92.954Y66.459
N11910X93.054Y66.358
N11920G01Z-0.941F20.0
N11930G01X92.954Y66.258F500.0
N11940X92.853Y66.358
N11950X92.954Y66.459
N11960X93.054Y66.358
N11970G01Z-1.035F20.0
N11980G01X92.954Y66.258F500.0
N11990X92.853Y66.358
N12000X92.954Y66.459
N12010X93.054Y66.358
N12020G01Z-1.129F20.0
N12030G01X92.954Y66.258F500.0
N12040X92.853Y66.358
N12050X92.954Y66.459
N12060X93.054Y66.358
N12070G01Z-1.224F20.0
N12080G01X92.954Y66.258F500.0
N12090X92.853Y66.358
N12100X92.954Y66.459
N12110X93.054Y66.358
N12120G01Z-1.318F20.0
N12130G01X92.954Y66.258F500.0
N12140X92.853Y66.358
N12150X92.954Y66.459
N12160X93.054Y66.358
N12170G01Z-1.412F20.0
N12180G01X92.954Y66.258F500.0
N12190X92.853Y66.358
N12200X92.954Y66.459
N12210X93.054Y66.358
N12220G01Z-1.506F20.0
N12230G01X92.954Y66.258F500.0
N12240X92.853Y66.358
N12250X92.954Y66.459
N12260X93.054Y66.358
N12270G01Z-1.600F20.0
N12280G01X92.954Y66.258F500.0
N12290X92.853Y66.358
N12300X92.954Y66.459
N12310X93.054Y66.358
N12320G00Z6.000
N12330G00X91.454Y52.358
N12340G01Z-0.094F20.0
N12350G01X91.353Y52.458F500.0
N12360X91.454Y52.559
N12370G3X92.453Y53.558I0.000J1.000
N12380G01Y59.158
N12390G3X91.454Y60.158I-0.999J0.000
N12400G2Y60.359I0.000J0.101
N12410G01X94.454
N12420G2Y60.158I0.000J-0.100
N12430G3X93.454Y59.158I0.000J-1.000
N12440G01Y53.558
N12450G3X94.454Y52.559I1.000J0.000
N12460G2Y52.358I0.000J-0.101
N12470G01X91.454
N12480G01Z-0.188F20.0
N12490G01X91.353Y52.458F500.0
N12500X91.454Y52.559
N12510G3X92.453Y53.558I0.000J1.000
N12520G01Y59.158
N12530G3X91.454Y60.158I-0.999J0.000
N12540G2Y60.359I0.000J0.101
N12550G01X94.454
N12560G2Y60.158I0.000J-0.100
N12570G3X93.454Y59.158I0.000J-1.000
N12580G01Y53.558
N12590G3X94.454Y52.559I1.000J0.000
N12600G2Y52.358I0.000J-0.101
N12610G01X91.454
N12620G01Z-0.282F20.0
N12630G01X91.353Y52.458F500.0
N12640X91.454Y52.559
N12650G3X92.453Y53.558I0.000J1.000
N12660G01Y59.158
N12670G3X91.454Y60.158I-0.999J0.000
N12680G2Y60.359I0.000J0.101
N12690G01X94.454
N12700G2Y60.158I0.000J-0.100
N12710G3X93.454Y59.158I0.000J-1.000
N12720G01Y53.558
N12730G3X94.454Y52.559I1.000J0.000
N12740G2Y52.358I0.000J-0.101
N12750G01X91.454
N12760G01Z-0.376F20.0
N12770G01X91.353Y52.458F500.0
N12780X91.454Y52.559
N12790G3X92.453Y53.558I0.000J1.000
N12800G01Y59.158
N12810G3X91.454Y60.158I-0.999J0.000
N12820G2Y60.359I0.000J0.101
N12830G01X94.454
N12840G2Y60.158I0.000J-0.100
N12850G3X93.454Y59.158I0.000J-1.000
N12860G01Y53.558
N12870G3X94.454Y52.559I1.000J0.000
N12880G2Y52.358I0.000J-0.101
N12890G01X91.454
N12900G01Z-0.471F20.0
N12910G01X91.353Y52.458F500.0
N12920X91.454Y52.559
N12930G3X92.453Y53.558I0.000J1.000
N12940G01Y59.158
N12950G3X91.454Y60.158I-0.999J0.000
N12960G2Y60.359I0.000J0.101
N12970G01X94.454
N12980G2Y60.158I0.000J-0.100
N12990G3X93.454Y59.158I0.000J-1.000
N13000G01Y53.558
N13010G3X94.454Y52.559I1.000J0.000
N13020G2Y52.358I0.000J-0.101
N13030G01X91.454
N13040G01Z-0.565F20.0
N13050G01X91.353Y52.458F500.0
N13060X91.454Y52.559
N13070G3X92.453Y53.558I0.000J1.000
N13080G01Y59.158
N13090G3X91.454Y60.158I-0.999J0.000
N13100G2Y60.359I0.000J0.101
N13110G01X94.454
N13120G2Y60.158I0.000J-0.100
N13130G3X93.454Y59.158I0.000J-1.000
N13140G01Y53.558
N13150G3X94.454Y52.559I1.000J0.000
N13160G2Y52.358I0.000J-0.101
N13170G01X91.454
N13180G01Z-0.659F20.0
N13190G01X91.353Y52.458F500.0
N13200X91.454Y52.559
N13210G3X92.453Y53.558I0.000J1.000
N13220G01Y59.158
N13230G3X91.454Y60.158I-0.999J0.000
N13240G2Y60.359I0.000J0.101
N13250G01X94.454
N13260G2Y60.158I0.000J-0.100
N13270G3X93.454Y59.158I0.000J-1.000
N13280G01Y53.558
N13290G3X94.454Y52.559I1.000J0.000
N13300G2Y52.358I0.000J-0.101
N13310G01X91.454
N13320G01Z-0.753F20.0
N13330G01X91.353Y52.458F500.0
N13340X91.454Y52.559
N13350G3X92.453Y53.558I0.000J1.000
N13360G01Y59.158
N13370G3X91.454Y60.158I-0.999J0.000
N13380G2Y60.359I0.000J0.101
N13390G01X94.454
N13400G2Y60.158I0.000J-0.100
N13410G3X93.454Y59.158I0.000J-1.000
N13420G01Y53.558
N13430G3X94.454Y52.559I1.000J0.000
N13440G2Y52.358I0.000J-0.101
N13450G01X91.454
N13460G01Z-0.847F20.0
N13470G01X91.353Y52.458F500.0
N13480X91.454Y52.559
N13490G3X92.453Y53.558I0.000J1.000
N13500G01Y59.158
N13510G3X91.454Y60.158I-0.999J0.000
N13520G2Y60.359I0.000J0.101
N13530G01X94.454
N13540G2Y60.158I0.000J-0.100
N13550G3X93.454Y59.158I0.000J-1.000
N13560G01Y53.558
N13570G3X94.454Y52.559I1.000J0.000
N13580G2Y52.358I0.000J-0.101
N13590G01X91.454
N13600G01Z-0.941F20.0
N13610G01X91.353Y52.458F500.0
N13620X91.454Y52.559
N13630G3X92.453Y53.558I0.000J1.000
N13640G01Y59.158
N13650G3X91.454Y60.158I-0.999J0.000
N13660G2Y60.359I0.000J0.101
N13670G01X94.454
N13680G2Y60.158I0.000J-0.100
N13690G3X93.454Y59.158I0.000J-1.000
N13700G01Y53.558
N13710G3X94.454Y52.559I1.000J0.000
N13720G2Y52.358I0.000J-0.101
N13730G01X91.454
N13740G01Z-1.035F20.0
N13750G01X91.353Y52.458F500.0
N13760X91.454Y52.559
N13770G3X92.453Y53.558I0.000J1.000
N13780G01Y59.158
N13790G3X91.454Y60.158I-0.999J0.000
N13800G2Y60.359I0.000J0.101
N13810G01X94.454
N13820G2Y60.158I0.000J-0.100
N13830G3X93.454Y59.158I0.000J-1.000
N13840G01Y53.558
N13850G3X94.454Y52.559I1.000J0.000
N13860G2Y52.358I0.000J-0.101
N13870G01X91.454
N13880G01Z-1.129F20.0
N13890G01X91.353Y52.458F500.0
N13900X91.454Y52.559
N13910G3X92.453Y53.558I0.000J1.000
N13920G01Y59.158
N13930G3X91.454Y60.158I-0.999J0.000
N13940G2Y60.359I0.000J0.101
N13950G01X94.454
N13960G2Y60.158I0.000J-0.100
N13970G3X93.454Y59.158I0.000J-1.000
N13980G01Y53.558
N13990G3X94.454Y52.559I1.000J0.000
N14000G2Y52.358I0.000J-0.101
N14010G01X91.454
N14020G01Z-1.224F20.0
N14030G01X91.353Y52.458F500.0
N14040X91.454Y52.559
N14050G3X92.453Y53.558I0.000J1.000
N14060G01Y59.158
N14070G3X91.454Y60.158I-0.999J0.000
N14080G2Y60.359I0.000J0.101
N14090G01X94.454
N14100G2Y60.158I0.000J-0.100
N14110G3X93.454Y59.158I0.000J-1.000
N14120G01Y53.558
N14130G3X94.454Y52.559I1.000J0.000
N14140G2Y52.358I0.000J-0.101
N14150G01X91.454
N14160G01Z-1.318F20.0
N14170G01X91.353Y52.458F500.0
N14180X91.454Y52.559
N14190G3X92.453Y53.558I0.000J1.000
N14200G01Y59.158
N14210G3X91.454Y60.158I-0.999J0.000
N14220G2Y60.359I0.000J0.101
N14230G01X94.454
N14240G2Y60.158I0.000J-0.100
N14250G3X93.454Y59.158I0.000J-1.000
N14260G01Y53.558
N14270G3X94.454Y52.559I1.000J0.000
N14280G2Y52.358I0.000J-0.101
N14290G01X91.454
N14300G01Z-1.412F20.0
N14310G01X91.353Y52.458F500.0
N14320X91.454Y52.559
N14330G3X92.453Y53.558I0.000J1.000
N14340G01Y59.158
N14350G3X91.454Y60.158I-0.999J0.000
N14360G2Y60.359I0.000J0.101
N14370G01X94.454
N14380G2Y60.158I0.000J-0.100
N14390G3X93.454Y59.158I0.000J-1.000
N14400G01Y53.558
N14410G3X94.454Y52.559I1.000J0.000
N14420G2Y52.358I0.000J-0.101
N14430G01X91.454
N14440G01Z-1.506F20.0
N14450G01X91.353Y52.458F500.0
N14460X91.454Y52.559
N14470G3X92.453Y53.558I0.000J1.000
N14480G01Y59.158
N14490G3X91.454Y60.158I-0.999J0.000
N14500G2Y60.359I0.000J0.101
N14510G01X94.454
N14520G2Y60.158I0.000J-0.100
N14530G3X93.454Y59.158I0.000J-1.000
N14540G01Y53.558
N14550G3X94.454Y52.559I1.000J0.000
N14560G2Y52.358I0.000J-0.101
N14570G01X91.454
N14580G01Z-1.600F20.0
N14590G01X91.353Y52.458F500.0
N14600X91.454Y52.559
N14610G3X92.453Y53.558I0.000J1.000
N14620G01Y59.158
N14630G3X91.454Y60.158I-0.999J0.000
N14640G2Y60.359I0.000J0.101
N14650G01X94.454
N14660G2Y60.158I0.000J-0.100
N14670G3X93.454Y59.158I0.000J-1.000
N14680G01Y53.558
N14690G3X94.454Y52.559I1.000J0.000
N14700G2Y52.358I0.000J-0.101
N14710G01X91.454
N14720G00Z6.000
N14730G00X90.133Y40.805
N14740G01Z-0.094F20.0
N14750G01X90.032Y40.704F500.0
N14760X89.932Y40.805
N14770X90.032Y40.905
N14780X90.133Y40.805
N14790G01Z-0.188F20.0
N14800G01X90.032Y40.704F500.0
N14810X89.932Y40.805
N14820X90.032Y40.905
N14830X90.133Y40.805
N14840G01Z-0.282F20.0
N14850G01X90.032Y40.704F500.0
N14860X89.932Y40.805
N14870X90.032Y40.905
N14880X90.133Y40.805
N14890G01Z-0.376F20.0
N14900G01X90.032Y40.704F500.0
N14910X89.932Y40.805
N14920X90.032Y40.905
N14930X90.133Y40.805
N14940G01Z-0.471F20.0
N14950G01X90.032Y40.704F500.0
N14960X89.932Y40.805
N14970X90.032Y40.905
N14980X90.133Y40.805
N14990G01Z-0.565F20.0
N15000G01X90.032Y40.704F500.0
N15010X89.932Y40.805
N15020X90.032Y40.905
N15030X90.133Y40.805
N15040G01Z-0.659F20.0
N15050G01X90.032Y40.704F500.0
N15060X89.932Y40.805
N15070X90.032Y40.905
N15080X90.133Y40.805
N15090G01Z-0.753F20.0
N15100G01X90.032Y40.704F500.0
N15110X89.932Y40.805
N15120X90.032Y40.905
N15130X90.133Y40.805
N15140G01Z-0.847F20.0
N15150G01X90.032Y40.704F500.0
N15160X89.932Y40.805
N15170X90.032Y40.905
N15180X90.133Y40.805
N15190G01Z-0.941F20.0
N15200G01X90.032Y40.704F500.0
N15210X89.932Y40.805
N15220X90.032Y40.905
N15230X90.133Y40.805
N15240G01Z-1.035F20.0
N15250G01X90.032Y40.704F500.0
N15260X89.932Y40.805
N15270X90.032Y40.905
N15280X90.133Y40.805
N15290G01Z-1.129F20.0
N15300G01X90.032Y40.704F500.0
N15310X89.932Y40.805
N15320X90.032Y40.905
N15330X90.133Y40.805
N15340G01Z-1.224F20.0
N15350G01X90.032Y40.704F500.0
N15360X89.932Y40.805
N15370X90.032Y40.905
N15380X90.133Y40.805
N15390G01Z-1.318F20.0
N15400G01X90.032Y40.704F500.0
N15410X89.932Y40.805
N15420X90.032Y40.905
N15430X90.133Y40.805
N15440G01Z-1.412F20.0
N15450G01X90.032Y40.704F500.0
N15460X89.932Y40.805
N15470X90.032Y40.905
N15480X90.133Y40.805
N15490G01Z-1.506F20.0
N15500G01X90.032Y40.704F500.0
N15510X89.932Y40.805
N15520X90.032Y40.905
N15530X90.133Y40.805
N15540G01Z-1.600F20.0
N15550G01X90.032Y40.704F500.0
N15560X89.932Y40.805
N15570X90.032Y40.905
N15580X90.133Y40.805
N15590G00Z6.000
N15600G00X77.632Y41.804
N15610G01Z-0.094F20.0
N15620G2X76.632Y42.805I0.000J1.000F500.0
N15630G01Y54.878
N15640G2X78.527Y55.326I1.000J0.000
N15650G3X86.312Y43.446I54.888J27.479
N15660G2X85.545Y41.804I-0.768J-0.642
N15670G01X77.632
N15680G01Z-0.188F20.0
N15690G2X76.632Y42.805I0.000J1.000F500.0
N15700G01Y54.878
N15710G2X78.527Y55.326I1.000J0.000
N15720G3X86.312Y43.446I54.888J27.479
N15730G2X85.545Y41.804I-0.768J-0.642
N15740G01X77.632
N15750G01Z-0.282F20.0
N15760G2X76.632Y42.805I0.000J1.000F500.0
N15770G01Y54.878
N15780G2X78.527Y55.326I1.000J0.000
N15790G3X86.312Y43.446I54.888J27.479
N15800G2X85.545Y41.804I-0.768J-0.642
N15810G01X77.632
N15820G01Z-0.376F20.0
N15830G2X76.632Y42.805I0.000J1.000F500.0
N15840G01Y54.878
N15850G2X78.527Y55.326I1.000J0.000
N15860G3X86.312Y43.446I54.888J27.479
N15870G2X85.545Y41.804I-0.768J-0.642
N15880G01X77.632
N15890G01Z-0.471F20.0
N15900G2X76.632Y42.805I0.000J1.000F500.0
N15910G01Y54.878
N15920G2X78.527Y55.326I1.000J0.000
N15930G3X86.312Y43.446I54.888J27.479
N15940G2X85.545Y41.804I-0.768J-0.642
N15950G01X77.632
N15960G01Z-0.565F20.0
N15970G2X76.632Y42.805I0.000J1.000F500.0
N15980G01Y54.878
N15990G2X78.527Y55.326I1.000J0.000
N16000G3X86.312Y43.446I54.888J27.479
N16010G2X85.545Y41.804I-0.768J-0.642
N16020G01X77.632
N16030G01Z-0.659F20.0
N16040G2X76.632Y42.805I0.000J1.000F500.0
N16050G01Y54.878
N16060G2X78.527Y55.326I1.000J0.000
N16070G3X86.312Y43.446I54.888J27.479
N16080G2X85.545Y41.804I-0.768J-0.642
N16090G01X77.632
N16100G01Z-0.753F20.0
N16110G2X76.632Y42.805I0.000J1.000F500.0
N16120G01Y54.878
N16130G2X78.527Y55.326I1.000J0.000
N16140G3X86.312Y43.446I54.888J27.479
N16150G2X85.545Y41.804I-0.768J-0.642
N16160G01X77.632
N16170G01Z-0.847F20.0
N16180G2X76.632Y42.805I0.000J1.000F500.0
N16190G01Y54.878
N16200G2X78.527Y55.326I1.000J0.000
N16210G3X86.312Y43.446I54.888J27.479
N16220G2X85.545Y41.804I-0.768J-0.642
N16230G01X77.632
N16240G01Z-0.941F20.0
N16250G2X76.632Y42.805I0.000J1.000F500.0
N16260G01Y54.878
N16270G2X78.527Y55.326I1.000J0.000
N16280G3X86.312Y43.446I54.888J27.479
N16290G2X85.545Y41.804I-0.768J-0.642
N16300G01X77.632
N16310G01Z-1.035F20.0
N16320G2X76.632Y42.805I0.000J1.000F500.0
N16330G01Y54.878
N16340G2X78.527Y55.326I1.000J0.000
N16350G3X86.312Y43.446I54.888J27.479
N16360G2X85.545Y41.804I-0.768J-0.642
N16370G01X77.632
N16380G01Z-1.129F20.0
N16390G2X76.632Y42.805I0.000J1.000F500.0
N16400G01Y54.878
N16410G2X78.527Y55.326I1.000J0.000
N16420G3X86.312Y43.446I54.888J27.479
N16430G2X85.545Y41.804I-0.768J-0.642
N16440G01X77.632
N16450G01Z-1.224F20.0
N16460G2X76.632Y42.805I0.000J1.000F500.0
N16470G01Y54.878
N16480G2X78.527Y55.326I1.000J0.000
N16490G3X86.312Y43.446I54.888J27.479
N16500G2X85.545Y41.804I-0.768J-0.642
N16510G01X77.632
N16520G01Z-1.318F20.0
N16530G2X76.632Y42.805I0.000J1.000F500.0
N16540G01Y54.878
N16550G2X78.527Y55.326I1.000J0.000
N16560G3X86.312Y43.446I54.888J27.479
N16570G2X85.545Y41.804I-0.768J-0.642
N16580G01X77.632
N16590G01Z-1.412F20.0
N16600G2X76.632Y42.805I0.000J1.000F500.0
N16610G01Y54.878
N16620G2X78.527Y55.326I1.000J0.000
N16630G3X86.312Y43.446I54.888J27.479
N16640G2X85.545Y41.804I-0.768J-0.642
N16650G01X77.632
N16660G01Z-1.506F20.0
N16670G2X76.632Y42.805I0.000J1.000F500.0
N16680G01Y54.878
N16690G2X78.527Y55.326I1.000J0.000
N16700G3X86.312Y43.446I54.888J27.479
N16710G2X85.545Y41.804I-0.768J-0.642
N16720G01X77.632
N16730G01Z-1.600F20.0
N16740G2X76.632Y42.805I0.000J1.000F500.0
N16750G01Y54.878
N16760G2X78.527Y55.326I1.000J0.000
N16770G3X86.312Y43.446I54.888J27.479
N16780G2X85.545Y41.804I-0.768J-0.642
N16790G01X77.632
N16800G00Z6.000
N16810G00X93.054Y86.358
N16820G01Z-0.094F20.0
N16830G01X92.954Y86.258F500.0
N16840X92.853Y86.358
N16850X92.954Y86.459
N16860X93.054Y86.358
N16870G01Z-0.188F20.0
N16880G01X92.954Y86.258F500.0
N16890X92.853Y86.358
N16900X92.954Y86.459
N16910X93.054Y86.358
N16920G01Z-0.282F20.0
N16930G01X92.954Y86.258F500.0
N16940X92.853Y86.358
N16950X92.954Y86.459
N16960X93.054Y86.358
N16970G01Z-0.376F20.0
N16980G01X92.954Y86.258F500.0
N16990X92.853Y86.358
N17000X92.954Y86.459
N17010X93.054Y86.358
N17020G01Z-0.471F20.0
N17030G01X92.954Y86.258F500.0
N17040X92.853Y86.358
N17050X92.954Y86.459
N17060X93.054Y86.358
N17070G01Z-0.565F20.0
N17080G01X92.954Y86.258F500.0
N17090X92.853Y86.358
N17100X92.954Y86.459
N17110X93.054Y86.358
N17120G01Z-0.659F20.0
N17130G01X92.954Y86.258F500.0
N17140X92.853Y86.358
N17150X92.954Y86.459
N17160X93.054Y86.358
N17170G01Z-0.753F20.0
N17180G01X92.954Y86.258F500.0
N17190X92.853Y86.358
N17200X92.954Y86.459
N17210X93.054Y86.358
N17220G01Z-0.847F20.0
N17230G01X92.954Y86.258F500.0
N17240X92.853Y86.358
N17250X92.954Y86.459
N17260X93.054Y86.358
N17270G01Z-0.941F20.0
N17280G01X92.954Y86.258F500.0
N17290X92.853Y86.358
N17300X92.954Y86.459
N17310X93.054Y86.358
N17320G01Z-1.035F20.0
N17330G01X92.954Y86.258F500.0
N17340X92.853Y86.358
N17350X92.954Y86.459
N17360X93.054Y86.358
N17370G01Z-1.129F20.0
N17380G01X92.954Y86.258F500.0
N17390X92.853Y86.358
N17400X92.954Y86.459
N17410X93.054Y86.358
N17420G01Z-1.224F20.0
N17430G01X92.954Y86.258F500.0
N17440X92.853Y86.358
N17450X92.954Y86.459
N17460X93.054Y86.358
N17470G01Z-1.318F20.0
N17480G01X92.954Y86.258F500.0
N17490X92.853Y86.358
N17500X92.954Y86.459
N17510X93.054Y86.358
N17520G01Z-1.412F20.0
N17530G01X92.954Y86.258F500.0
N17540X92.853Y86.358
N17550X92.954Y86.459
N17560X93.054Y86.358
N17570G01Z-1.506F20.0
N17580G01X92.954Y86.258F500.0
N17590X92.853Y86.358
N17600X92.954Y86.459
N17610X93.054Y86.358
N17620G01Z-1.600F20.0
N17630G01X92.954Y86.258F500.0
N17640X92.853Y86.358
N17650X92.954Y86.459
N17660X93.054Y86.358
N17670G00Z6.000
N17680G00X95.054Y93.358
N17690G01Z-0.094F20.0
N17700G01X94.954Y93.258F500.0
N17710X94.853Y93.358
N17720X94.954Y93.459
N17730X95.054Y93.358
N17740G01Z-0.188F20.0
N17750G01X94.954Y93.258F500.0
N17760X94.853Y93.358
N17770X94.954Y93.459
N17780X95.054Y93.358
N17790G01Z-0.282F20.0
N17800G01X94.954Y93.258F500.0
N17810X94.853Y93.358
N17820X94.954Y93.459
N17830X95.054Y93.358
N17840G01Z-0.376F20.0
N17850G01X94.954Y93.258F500.0
N17860X94.853Y93.358
N17870X94.954Y93.459
N17880X95.054Y93.358
N17890G01Z-0.471F20.0
N17900G01X94.954Y93.258F500.0
N17910X94.853Y93.358
N17920X94.954Y93.459
N17930X95.054Y93.358
N17940G01Z-0.565F20.0
N17950G01X94.954Y93.258F500.0
N17960X94.853Y93.358
N17970X94.954Y93.459
N17980X95.054Y93.358
N17990G01Z-0.659F20.0
N18000G01X94.954Y93.258F500.0
N18010X94.853Y93.358
N18020X94.954Y93.459
N18030X95.054Y93.358
N18040G01Z-0.753F20.0
N18050G01X94.954Y93.258F500.0
N18060X94.853Y93.358
N18070X94.954Y93.459
N18080X95.054Y93.358
N18090G01Z-0.847F20.0
N18100G01X94.954Y93.258F500.0
N18110X94.853Y93.358
N18120X94.954Y93.459
N18130X95.054Y93.358
N18140G01Z-0.941F20.0
N18150G01X94.954Y93.258F500.0
N18160X94.853Y93.358
N18170X94.954Y93.459
N18180X95.054Y93.358
N18190G01Z-1.035F20.0
N18200G01X94.954Y93.258F500.0
N18210X94.853Y93.358
N18220X94.954Y93.459
N18230X95.054Y93.358
N18240G01Z-1.129F20.0
N18250G01X94.954Y93.258F500.0
N18260X94.853Y93.358
N18270X94.954Y93.459
N18280X95.054Y93.358
N18290G01Z-1.224F20.0
N18300G01X94.954Y93.258F500.0
N18310X94.853Y93.358
N18320X94.954Y93.459
N18330X95.054Y93.358
N18340G01Z-1.318F20.0
N18350G01X94.954Y93.258F500.0
N18360X94.853Y93.358
N18370X94.954Y93.459
N18380X95.054Y93.358
N18390G01Z-1.412F20.0
N18400G01X94.954Y93.258F500.0
N18410X94.853Y93.358
N18420X94.954Y93.459
N18430X95.054Y93.358
N18440G01Z-1.506F20.0
N18450G01X94.954Y93.258F500.0
N18460X94.853Y93.358
N18470X94.954Y93.459
N18480X95.054Y93.358
N18490G01Z-1.600F20.0
N18500G01X94.954Y93.258F500.0
N18510X94.853Y93.358
N18520X94.954Y93.459
N18530X95.054Y93.358
N18540G00Z6.000
N18550G00X88.854Y99.558
N18560G01Z-0.094F20.0
N18570G01X88.754Y99.458F500.0
N18580X88.653Y99.558
N18590X88.754Y99.659
N18600X88.854Y99.558
N18610G01Z-0.188F20.0
N18620G01X88.754Y99.458F500.0
N18630X88.653Y99.558
N18640X88.754Y99.659
N18650X88.854Y99.558
N18660G01Z-0.282F20.0
N18670G01X88.754Y99.458F500.0
N18680X88.653Y99.558
N18690X88.754Y99.659
N18700X88.854Y99.558
N18710G01Z-0.376F20.0
N18720G01X88.754Y99.458F500.0
N18730X88.653Y99.558
N18740X88.754Y99.659
N18750X88.854Y99.558
N18760G01Z-0.471F20.0
N18770G01X88.754Y99.458F500.0
N18780X88.653Y99.558
N18790X88.754Y99.659
N18800X88.854Y99.558
N18810G01Z-0.565F20.0
N18820G01X88.754Y99.458F500.0
N18830X88.653Y99.558
N18840X88.754Y99.659
N18850X88.854Y99.558
N18860G01Z-0.659F20.0
N18870G01X88.754Y99.458F500.0
N18880X88.653Y99.558
N18890X88.754Y99.659
N18900X88.854Y99.558
N18910G01Z-0.753F20.0
N18920G01X88.754Y99.458F500.0
N18930X88.653Y99.558
N18940X88.754Y99.659
N18950X88.854Y99.558
N18960G01Z-0.847F20.0
N18970G01X88.754Y99.458F500.0
N18980X88.653Y99.558
N18990X88.754Y99.659
N19000X88.854Y99.558
N19010G01Z-0.941F20.0
N19020G01X88.754Y99.458F500.0
N19030X88.653Y99.558
N19040X88.754Y99.659
N19050X88.854Y99.558
N19060G01Z-1.035F20.0
N19070G01X88.754Y99.458F500.0
N19080X88.653Y99.558
N19090X88.754Y99.659
N19100X88.854Y99.558
N19110G01Z-1.129F20.0
N19120G01X88.754Y99.458F500.0
N19130X88.653Y99.558
N19140X88.754Y99.659
N19150X88.854Y99.558
N19160G01Z-1.224F20.0
N19170G01X88.754Y99.458F500.0
N19180X88.653Y99.558
N19190X88.754Y99.659
N19200X88.854Y99.558
N19210G01Z-1.318F20.0
N19220G01X88.754Y99.458F500.0
N19230X88.653Y99.558
N19240X88.754Y99.659
N19250X88.854Y99.558
N19260G01Z-1.412F20.0
N19270G01X88.754Y99.458F500.0
N19280X88.653Y99.558
N19290X88.754Y99.659
N19300X88.854Y99.558
N19310G01Z-1.506F20.0
N19320G01X88.754Y99.458F500.0
N19330X88.653Y99.558
N19340X88.754Y99.659
N19350X88.854Y99.558
N19360G01Z-1.600F20.0
N19370G01X88.754Y99.458F500.0
N19380X88.653Y99.558
N19390X88.754Y99.659
N19400X88.854Y99.558
N19410G00Z6.000
N19420G00X87.054Y105.758
N19430G01Z-0.094F20.0
N19440G01X86.954Y105.658F500.0
N19450X86.853Y105.758
N19460X86.954Y105.859
N19470X87.054Y105.758
N19480G01Z-0.188F20.0
N19490G01X86.954Y105.658F500.0
N19500X86.853Y105.758
N19510X86.954Y105.859
N19520X87.054Y105.758
N19530G01Z-0.282F20.0
N19540G01X86.954Y105.658F500.0
N19550X86.853Y105.758
N19560X86.954Y105.859
N19570X87.054Y105.758
N19580G01Z-0.376F20.0
N19590G01X86.954Y105.658F500.0
N19600X86.853Y105.758
N19610X86.954Y105.859
N19620X87.054Y105.758
N19630G01Z-0.471F20.0
N19640G01X86.954Y105.658F500.0
N19650X86.853Y105.758
N19660X86.954Y105.859
N19670X87.054Y105.758
N19680G01Z-0.565F20.0
N19690G01X86.954Y105.658F500.0
N19700X86.853Y105.758
N19710X86.954Y105.859
N19720X87.054Y105.758
N19730G01Z-0.659F20.0
N19740G01X86.954Y105.658F500.0
N19750X86.853Y105.758
N19760X86.954Y105.859
N19770X87.054Y105.758
N19780G01Z-0.753F20.0
N19790G01X86.954Y105.658F500.0
N19800X86.853Y105.758
N19810X86.954Y105.859
N19820X87.054Y105.758
N19830G01Z-0.847F20.0
N19840G01X86.954Y105.658F500.0
N19850X86.853Y105.758
N19860X86.954Y105.859
N19870X87.054Y105.758
N19880G01Z-0.941F20.0
N19890G01X86.954Y105.658F500.0
N19900X86.853Y105.758
N19910X86.954Y105.859
N19920X87.054Y105.758
N19930G01Z-1.035F20.0
N19940G01X86.954Y105.658F500.0
N19950X86.853Y105.758
N19960X86.954Y105.859
N19970X87.054Y105.758
N19980G01Z-1.129F20.0
N19990G01X86.954Y105.658F500.0
N20000X86.853Y105.758
N20010X86.954Y105.859
N20020X87.054Y105.758
N20030G01Z-1.224F20.0
N20040G01X86.954Y105.658F500.0
N20050X86.853Y105.758
N20060X86.954Y105.859
N20070X87.054Y105.758
N20080G01Z-1.318F20.0
N20090G01X86.954Y105.658F500.0
N20100X86.853Y105.758
N20110X86.954Y105.859
N20120X87.054Y105.758
N20130G01Z-1.412F20.0
N20140G01X86.954Y105.658F500.0
N20150X86.853Y105.758
N20160X86.954Y105.859
N20170X87.054Y105.758
N20180G01Z-1.506F20.0
N20190G01X86.954Y105.658F500.0
N20200X86.853Y105.758
N20210X86.954Y105.859
N20220X87.054Y105.758
N20230G01Z-1.600F20.0
N20240G01X86.954Y105.658F500.0
N20250X86.853Y105.758
N20260X86.954Y105.859
N20270X87.054Y105.758
N20280G00Z6.000
N20290G00X95.054Y114.358
N20300G01Z-0.094F20.0
N20310G01X94.954Y114.258F500.0
N20320X94.853Y114.358
N20330X94.954Y114.459
N20340X95.054Y114.358
N20350G01Z-0.188F20.0
N20360G01X94.954Y114.258F500.0
N20370X94.853Y114.358
N20380X94.954Y114.459
N20390X95.054Y114.358
N20400G01Z-0.282F20.0
N20410G01X94.954Y114.258F500.0
N20420X94.853Y114.358
N20430X94.954Y114.459
N20440X95.054Y114.358
N20450G01Z-0.376F20.0
N20460G01X94.954Y114.258F500.0
N20470X94.853Y114.358
N20480X94.954Y114.459
N20490X95.054Y114.358
N20500G01Z-0.471F20.0
N20510G01X94.954Y114.258F500.0
N20520X94.853Y114.358
N20530X94.954Y114.459
N20540X95.054Y114.358
N20550G01Z-0.565F20.0
N20560G01X94.954Y114.258F500.0
N20570X94.853Y114.358
N20580X94.954Y114.459
N20590X95.054Y114.358
N20600G01Z-0.659F20.0
N20610G01X94.954Y114.258F500.0
N20620X94.853Y114.358
N20630X94.954Y114.459
N20640X95.054Y114.358
N20650G01Z-0.753F20.0
N20660G01X94.954Y114.258F500.0
N20670X94.853Y114.358
N20680X94.954Y114.459
N20690X95.054Y114.358
N20700G01Z-0.847F20.0
N20710G01X94.954Y114.258F500.0
N20720X94.853Y114.358
N20730X94.954Y114.459
N20740X95.054Y114.358
N20750G01Z-0.941F20.0
N20760G01X94.954Y114.258F500.0
N20770X94.853Y114.358
N20780X94.954Y114.459
N20790X95.054Y114.358
N20800G01Z-1.035F20.0
N20810G01X94.954Y114.258F500.0
N20820X94.853Y114.358
N20830X94.954Y114.459
N20840X95.054Y114.358
N20850G01Z-1.129F20.0
N20860G01X94.954Y114.258F500.0
N20870X94.853Y114.358
N20880X94.954Y114.459
N20890X95.054Y114.358
N20900G01Z-1.224F20.0
N20910G01X94.954Y114.258F500.0
N20920X94.853Y114.358
N20930X94.954Y114.459
N20940X95.054Y114.358
N20950G01Z-1.318F20.0
N20960G01X94.954Y114.258F500.0
N20970X94.853Y114.358
N20980X94.954Y114.459
N20990X95.054Y114.358
N21000G01Z-1.412F20.0
N21010G01X94.954Y114.258F500.0
N21020X94.853Y114.358
N21030X94.954Y114.459
N21040X95.054Y114.358
N21050G01Z-1.506F20.0
N21060G01X94.954Y114.258F500.0
N21070X94.853Y114.358
N21080X94.954Y114.459
N21090X95.054Y114.358
N21100G01Z-1.600F20.0
N21110G01X94.954Y114.258F500.0
N21120X94.853Y114.358
N21130X94.954Y114.459
N21140X95.054Y114.358
N21150G00Z6.000
N21160G00X84.297Y121.516
N21170G01Z-0.094F20.0
N21180G01X84.197Y121.415F500.0
N21190X84.096Y121.516
N21200X84.197Y121.616
N21210X84.297Y121.516
N21220G01Z-0.188F20.0
N21230G01X84.197Y121.415F500.0
N21240X84.096Y121.516
N21250X84.197Y121.616
N21260X84.297Y121.516
N21270G01Z-0.282F20.0
N21280G01X84.197Y121.415F500.0
N21290X84.096Y121.516
N21300X84.197Y121.616
N21310X84.297Y121.516
N21320G01Z-0.376F20.0
N21330G01X84.197Y121.415F500.0
N21340X84.096Y121.516
N21350X84.197Y121.616
N21360X84.297Y121.516
N21370G01Z-0.471F20.0
N21380G01X84.197Y121.415F500.0
N21390X84.096Y121.516
N21400X84.197Y121.616
N21410X84.297Y121.516
N21420G01Z-0.565F20.0
N21430G01X84.197Y121.415F500.0
N21440X84.096Y121.516
N21450X84.197Y121.616
N21460X84.297Y121.516
N21470G01Z-0.659F20.0
N21480G01X84.197Y121.415F500.0
N21490X84.096Y121.516
N21500X84.197Y121.616
N21510X84.297Y121.516
N21520G01Z-0.753F20.0
N21530G01X84.197Y121.415F500.0
N21540X84.096Y121.516
N21550X84.197Y121.616
N21560X84.297Y121.516
N21570G01Z-0.847F20.0
N21580G01X84.197Y121.415F500.0
N21590X84.096Y121.516
N21600X84.197Y121.616
N21610X84.297Y121.516
N21620G01Z-0.941F20.0
N21630G01X84.197Y121.415F500.0
N21640X84.096Y121.516
N21650X84.197Y121.616
N21660X84.297Y121.516
N21670G01Z-1.035F20.0
N21680G01X84.197Y121.415F500.0
N21690X84.096Y121.516
N21700X84.197Y121.616
N21710X84.297Y121.516
N21720G01Z-1.129F20.0
N21730G01X84.197Y121.415F500.0
N21740X84.096Y121.516
N21750X84.197Y121.616
N21760X84.297Y121.516
N21770G01Z-1.224F20.0
N21780G01X84.197Y121.415F500.0
N21790X84.096Y121.516
N21800X84.197Y121.616
N21810X84.297Y121.516
N21820G01Z-1.318F20.0
N21830G01X84.197Y121.415F500.0
N21840X84.096Y121.516
N21850X84.197Y121.616
N21860X84.297Y121.516
N21870G01Z-1.412F20.0
N21880G01X84.197Y121.415F500.0
N21890X84.096Y121.516
N21900X84.197Y121.616
N21910X84.297Y121.516
N21920G01Z-1.506F20.0
N21930G01X84.197Y121.415F500.0
N21940X84.096Y121.516
N21950X84.197Y121.616
N21960X84.297Y121.516
N21970G01Z-1.600F20.0
N21980G01X84.197Y121.415F500.0
N21990X84.096Y121.516
N22000X84.197Y121.616
N22010X84.297Y121.516
N22020G00Z6.000
N22030G00X82.954Y125.758
N22040G01Z-0.094F20.0
N22050G2X79.954Y122.758I-3.000J0.000F500.0
N22060G2X76.953Y125.758I0.000J3.001
N22070G2X79.954Y128.759I3.001J0.000
N22080G2X82.954Y125.758I0.000J-3.000
N22090G01Z-0.188F20.0
N22100G2X79.954Y122.758I-3.000J0.000F500.0
N22110G2X76.953Y125.758I0.000J3.001
N22120G2X79.954Y128.759I3.001J0.000
N22130G2X82.954Y125.758I0.000J-3.000
N22140G01Z-0.282F20.0
N22150G2X79.954Y122.758I-3.000J0.000F500.0
N22160G2X76.953Y125.758I0.000J3.001
N22170G2X79.954Y128.759I3.001J0.000
N22180G2X82.954Y125.758I0.000J-3.000
N22190G01Z-0.376F20.0
N22200G2X79.954Y122.758I-3.000J0.000F500.0
N22210G2X76.953Y125.758I0.000J3.001
N22220G2X79.954Y128.759I3.001J0.000
N22230G2X82.954Y125.758I0.000J-3.000
N22240G01Z-0.471F20.0
N22250G2X79.954Y122.758I-3.000J0.000F500.0
N22260G2X76.953Y125.758I0.000J3.001
N22270G2X79.954Y128.759I3.001J0.000
N22280G2X82.954Y125.758I0.000J-3.000
N22290G01Z-0.565F20.0
N22300G2X79.954Y122.758I-3.000J0.000F500.0
N22310G2X76.953Y125.758I0.000J3.001
N22320G2X79.954Y128.759I3.001J0.000
N22330G2X82.954Y125.758I0.000J-3.000
N22340G01Z-0.659F20.0
N22350G2X79.954Y122.758I-3.000J0.000F500.0
N22360G2X76.953Y125.758I0.000J3.001
N22370G2X79.954Y128.759I3.001J0.000
N22380G2X82.954Y125.758I0.000J-3.000
N22390G01Z-0.753F20.0
N22400G2X79.954Y122.758I-3.000J0.000F500.0
N22410G2X76.953Y125.758I0.000J3.001
N22420G2X79.954Y128.759I3.001J0.000
N22430G2X82.954Y125.758I0.000J-3.000
N22440G01Z-0.847F20.0
N22450G2X79.954Y122.758I-3.000J0.000F500.0
N22460G2X76.953Y125.758I0.000J3.001
N22470G2X79.954Y128.759I3.001J0.000
N22480G2X82.954Y125.758I0.000J-3.000
N22490G01Z-0.941F20.0
N22500G2X79.954Y122.758I-3.000J0.000F500.0
N22510G2X76.953Y125.758I0.000J3.001
N22520G2X79.954Y128.759I3.001J0.000
N22530G2X82.954Y125.758I0.000J-3.000
N22540G01Z-1.035F20.0
N22550G2X79.954Y122.758I-3.000J0.000F500.0
N22560G2X76.953Y125.758I0.000J3.001
N22570G2X79.954Y128.759I3.001J0.000
N22580G2X82.954Y125.758I0.000J-3.000
N22590G01Z-1.129F20.0
N22600G2X79.954Y122.758I-3.000J0.000F500.0
N22610G2X76.953Y125.758I0.000J3.001
N22620G2X79.954Y128.759I3.001J0.000
N22630G2X82.954Y125.758I0.000J-3.000
N22640G01Z-1.224F20.0
N22650G2X79.954Y122.758I-3.000J0.000F500.0
N22660G2X76.953Y125.758I0.000J3.001
N22670G2X79.954Y128.759I3.001J0.000
N22680G2X82.954Y125.758I0.000J-3.000
N22690G01Z-1.318F20.0
N22700G2X79.954Y122.758I-3.000J0.000F500.0
N22710G2X76.953Y125.758I0.000J3.001
N22720G2X79.954Y128.759I3.001J0.000
N22730G2X82.954Y125.758I0.000J-3.000
N22740G01Z-1.412F20.0
N22750G2X79.954Y122.758I-3.000J0.000F500.0
N22760G2X76.953Y125.758I0.000J3.001
N22770G2X79.954Y128.759I3.001J0.000
N22780G2X82.954Y125.758I0.000J-3.000
N22790G01Z-1.506F20.0
N22800G2X79.954Y122.758I-3.000J0.000F500.0
N22810G2X76.953Y125.758I0.000J3.001
N22820G2X79.954Y128.759I3.001J0.000
N22830G2X82.954Y125.758I0.000J-3.000
N22840G01Z-1.600F20.0
N22850G2X79.954Y122.758I-3.000J0.000F500.0
N22860G2X76.953Y125.758I0.000J3.001
N22870G2X79.954Y128.759I3.001J0.000
N22880G2X82.954Y125.758I0.000J-3.000
N22890G00Z6.000
N22900G00X86.054
N22910G01Z-0.094F20.0
N22920G01X85.954Y125.658F500.0
N22930X85.853Y125.758
N22940X85.954Y125.859
N22950X86.054Y125.758
N22960G01Z-0.188F20.0
N22970G01X85.954Y125.658F500.0
N22980X85.853Y125.758
N22990X85.954Y125.859
N23000X86.054Y125.758
N23010G01Z-0.282F20.0
N23020G01X85.954Y125.658F500.0
N23030X85.853Y125.758
N23040X85.954Y125.859
N23050X86.054Y125.758
N23060G01Z-0.376F20.0
N23070G01X85.954Y125.658F500.0
N23080X85.853Y125.758
N23090X85.954Y125.859
N23100X86.054Y125.758
N23110G01Z-0.471F20.0
N23120G01X85.954Y125.658F500.0
N23130X85.853Y125.758
N23140X85.954Y125.859
N23150X86.054Y125.758
N23160G01Z-0.565F20.0
N23170G01X85.954Y125.658F500.0
N23180X85.853Y125.758
N23190X85.954Y125.859
N23200X86.054Y125.758
N23210G01Z-0.659F20.0
N23220G01X85.954Y125.658F500.0
N23230X85.853Y125.758
N23240X85.954Y125.859
N23250X86.054Y125.758
N23260G01Z-0.753F20.0
N23270G01X85.954Y125.658F500.0
N23280X85.853Y125.758
N23290X85.954Y125.859
N23300X86.054Y125.758
N23310G01Z-0.847F20.0
N23320G01X85.954Y125.658F500.0
N23330X85.853Y125.758
N23340X85.954Y125.859
N23350X86.054Y125.758
N23360G01Z-0.941F20.0
N23370G01X85.954Y125.658F500.0
N23380X85.853Y125.758
N23390X85.954Y125.859
N23400X86.054Y125.758
N23410G01Z-1.035F20.0
N23420G01X85.954Y125.658F500.0
N23430X85.853Y125.758
N23440X85.954Y125.859
N23450X86.054Y125.758
N23460G01Z-1.129F20.0
N23470G01X85.954Y125.658F500.0
N23480X85.853Y125.758
N23490X85.954Y125.859
N23500X86.054Y125.758
N23510G01Z-1.224F20.0
N23520G01X85.954Y125.658F500.0
N23530X85.853Y125.758
N23540X85.954Y125.859
N23550X86.054Y125.758
N23560G01Z-1.318F20.0
N23570G01X85.954Y125.658F500.0
N23580X85.853Y125.758
N23590X85.954Y125.859
N23600X86.054Y125.758
N23610G01Z-1.412F20.0
N23620G01X85.954Y125.658F500.0
N23630X85.853Y125.758
N23640X85.954Y125.859
N23650X86.054Y125.758
N23660G01Z-1.506F20.0
N23670G01X85.954Y125.658F500.0
N23680X85.853Y125.758
N23690X85.954Y125.859
N23700X86.054Y125.758
N23710G01Z-1.600F20.0
N23720G01X85.954Y125.658F500.0
N23730X85.853Y125.758
N23740X85.954Y125.859
N23750X86.054Y125.758
N23760G00Z6.000
N23770G00X84.297Y130.001
N23780G01Z-0.094F20.0
N23790G01X84.197Y129.901F500.0
N23800X84.096Y130.001
N23810X84.197Y130.102
N23820X84.297Y130.001
N23830G01Z-0.188F20.0
N23840G01X84.197Y129.901F500.0
N23850X84.096Y130.001
N23860X84.197Y130.102
N23870X84.297Y130.001
N23880G01Z-0.282F20.0
N23890G01X84.197Y129.901F500.0
N23900X84.096Y130.001
N23910X84.197Y130.102
N23920X84.297Y130.001
N23930G01Z-0.376F20.0
N23940G01X84.197Y129.901F500.0
N23950X84.096Y130.001
N23960X84.197Y130.102
N23970X84.297Y130.001
N23980G01Z-0.471F20.0
N23990G01X84.197Y129.901F500.0
N24000X84.096Y130.001
N24010X84.197Y130.102
N24020X84.297Y130.001
N24030G01Z-0.565F20.0
N24040G01X84.197Y129.901F500.0
N24050X84.096Y130.001
N24060X84.197Y130.102
N24070X84.297Y130.001
N24080G01Z-0.659F20.0
N24090G01X84.197Y129.901F500.0
N24100X84.096Y130.001
N24110X84.197Y130.102
N24120X84.297Y130.001
N24130G01Z-0.753F20.0
N24140G01X84.197Y129.901F500.0
N24150X84.096Y130.001
N24160X84.197Y130.102
N24170X84.297Y130.001
N24180G01Z-0.847F20.0
N24190G01X84.197Y129.901F500.0
N24200X84.096Y130.001
N24210X84.197Y130.102
N24220X84.297Y130.001
N24230G01Z-0.941F20.0
N24240G01X84.197Y129.901F500.0
N24250X84.096Y130.001
N24260X84.197Y130.102
N24270X84.297Y130.001
N24280G01Z-1.035F20.0
N24290G01X84.197Y129.901F500.0
N24300X84.096Y130.001
N24310X84.197Y130.102
N24320X84.297Y130.001
N24330G01Z-1.129F20.0
N24340G01X84.197Y129.901F500.0
N24350X84.096Y130.001
N24360X84.197Y130.102
N24370X84.297Y130.001
N24380G01Z-1.224F20.0
N24390G01X84.197Y129.901F500.0
N24400X84.096Y130.001
N24410X84.197Y130.102
N24420X84.297Y130.001
N24430G01Z-1.318F20.0
N24440G01X84.197Y129.901F500.0
N24450X84.096Y130.001
N24460X84.197Y130.102
N24470X84.297Y130.001
N24480G01Z-1.412F20.0
N24490G01X84.197Y129.901F500.0
N24500X84.096Y130.001
N24510X84.197Y130.102
N24520X84.297Y130.001
N24530G01Z-1.506F20.0
N24540G01X84.197Y129.901F500.0
N24550X84.096Y130.001
N24560X84.197Y130.102
N24570X84.297Y130.001
N24580G01Z-1.600F20.0
N24590G01X84.197Y129.901F500.0
N24600X84.096Y130.001
N24610X84.197Y130.102
N24620X84.297Y130.001
N24630G00Z6.000
N24640G00X80.054Y131.758
N24650G01Z-0.094F20.0
N24660G01X79.954Y131.658F500.0
N24670X79.853Y131.758
N24680X79.954Y131.859
N24690X80.054Y131.758
N24700G01Z-0.188F20.0
N24710G01X79.954Y131.658F500.0
N24720X79.853Y131.758
N24730X79.954Y131.859
N24740X80.054Y131.758
N24750G01Z-0.282F20.0
N24760G01X79.954Y131.658F500.0
N24770X79.853Y131.758
N24780X79.954Y131.859
N24790X80.054Y131.758
N24800G01Z-0.376F20.0
N24810G01X79.954Y131.658F500.0
N24820X79.853Y131.758
N24830X79.954Y131.859
N24840X80.054Y131.758
N24850G01Z-0.471F20.0
N24860G01X79.954Y131.658F500.0
N24870X79.853Y131.758
N24880X79.954Y131.859
N24890X80.054Y131.758
N24900G01Z-0.565F20.0
N24910G01X79.954Y131.658F500.0
N24920X79.853Y131.758
N24930X79.954Y131.859
N24940X80.054Y131.758
N24950G01Z-0.659F20.0
N24960G01X79.954Y131.658F500.0
N24970X79.853Y131.758
N24980X79.954Y131.859
N24990X80.054Y131.758
N25000G01Z-0.753F20.0
N25010G01X79.954Y131.658F500.0
N25020X79.853Y131.758
N25030X79.954Y131.859
N25040X80.054Y131.758
N25050G01Z-0.847F20.0
N25060G01X79.954Y131.658F500.0
N25070X79.853Y131.758
N25080X79.954Y131.859
N25090X80.054Y131.758
N25100G01Z-0.941F20.0
N25110G01X79.954Y131.658F500.0
N25120X79.853Y131.758
N25130X79.954Y131.859
N25140X80.054Y131.758
N25150G01Z-1.035F20.0
N25160G01X79.954Y131.658F500.0
N25170X79.853Y131.758
N25180X79.954Y131.859
N25190X80.054Y131.758
N25200G01Z-1.129F20.0
N25210G01X79.954Y131.658F500.0
N25220X79.853Y131.758
N25230X79.954Y131.859
N25240X80.054Y131.758
N25250G01Z-1.224F20.0
N25260G01X79.954Y131.658F500.0
N25270X79.853Y131.758
N25280X79.954Y131.859
N25290X80.054Y131.758
N25300G01Z-1.318F20.0
N25310G01X79.954Y131.658F500.0
N25320X79.853Y131.758
N25330X79.954Y131.859
N25340X80.054Y131.758
N25350G01Z-1.412F20.0
N25360G01X79.954Y131.658F500.0
N25370X79.853Y131.758
N25380X79.954Y131.859
N25390X80.054Y131.758
N25400G01Z-1.506F20.0
N25410G01X79.954Y131.658F500.0
N25420X79.853Y131.758
N25430X79.954Y131.859
N25440X80.054Y131.758
N25450G01Z-1.600F20.0
N25460G01X79.954Y131.658F500.0
N25470X79.853Y131.758
N25480X79.954Y131.859
N25490X80.054Y131.758
N25500G00Z6.000
N25510G00X75.812Y130.001
N25520G01Z-0.094F20.0
N25530G01X75.711Y129.901F500.0
N25540X75.611Y130.001
N25550X75.711Y130.102
N25560X75.812Y130.001
N25570G01Z-0.188F20.0
N25580G01X75.711Y129.901F500.0
N25590X75.611Y130.001
N25600X75.711Y130.102
N25610X75.812Y130.001
N25620G01Z-0.282F20.0
N25630G01X75.711Y129.901F500.0
N25640X75.611Y130.001
N25650X75.711Y130.102
N25660X75.812Y130.001
N25670G01Z-0.376F20.0
N25680G01X75.711Y129.901F500.0
N25690X75.611Y130.001
N25700X75.711Y130.102
N25710X75.812Y130.001
N25720G01Z-0.471F20.0
N25730G01X75.711Y129.901F500.0
N25740X75.611Y130.001
N25750X75.711Y130.102
N25760X75.812Y130.001
N25770G01Z-0.565F20.0
N25780G01X75.711Y129.901F500.0
N25790X75.611Y130.001
N25800X75.711Y130.102
N25810X75.812Y130.001
N25820G01Z-0.659F20.0
N25830G01X75.711Y129.901F500.0
N25840X75.611Y130.001
N25850X75.711Y130.102
N25860X75.812Y130.001
N25870G01Z-0.753F20.0
N25880G01X75.711Y129.901F500.0
N25890X75.611Y130.001
N25900X75.711Y130.102
N25910X75.812Y130.001
N25920G01Z-0.847F20.0
N25930G01X75.711Y129.901F500.0
N25940X75.611Y130.001
N25950X75.711Y130.102
N25960X75.812Y130.001
N25970G01Z-0.941F20.0
N25980G01X75.711Y129.901F500.0
N25990X75.611Y130.001
N26000X75.711Y130.102
N26010X75.812Y130.001
N26020G01Z-1.035F20.0
N26030G01X75.711Y129.901F500.0
N26040X75.611Y130.001
N26050X75.711Y130.102
N26060X75.812Y130.001
N26070G01Z-1.129F20.0
N26080G01X75.711Y129.901F500.0
N26090X75.611Y130.001
N26100X75.711Y130.102
N26110X75.812Y130.001
N26120G01Z-1.224F20.0
N26130G01X75.711Y129.901F500.0
N26140X75.611Y130.001
N26150X75.711Y130.102
N26160X75.812Y130.001
N26170G01Z-1.318F20.0
N26180G01X75.711Y129.901F500.0
N26190X75.611Y130.001
N26200X75.711Y130.102
N26210X75.812Y130.001
N26220G01Z-1.412F20.0
N26230G01X75.711Y129.901F500.0
N26240X75.611Y130.001
N26250X75.711Y130.102
N26260X75.812Y130.001
N26270G01Z-1.506F20.0
N26280G01X75.711Y129.901F500.0
N26290X75.611Y130.001
N26300X75.711Y130.102
N26310X75.812Y130.001
N26320G01Z-1.600F20.0
N26330G01X75.711Y129.901F500.0
N26340X75.611Y130.001
N26350X75.711Y130.102
N26360X75.812Y130.001
N26370G00Z6.000
N26380G00X74.054Y125.758
N26390G01Z-0.094F20.0
N26400G01X73.954Y125.658F500.0
N26410X73.853Y125.758
N26420X73.954Y125.859
N26430X74.054Y125.758
N26440G01Z-0.188F20.0
N26450G01X73.954Y125.658F500.0
N26460X73.853Y125.758
N26470X73.954Y125.859
N26480X74.054Y125.758
N26490G01Z-0.282F20.0
N26500G01X73.954Y125.658F500.0
N26510X73.853Y125.758
N26520X73.954Y125.859
N26530X74.054Y125.758
N26540G01Z-0.376F20.0
N26550G01X73.954Y125.658F500.0
N26560X73.853Y125.758
N26570X73.954Y125.859
N26580X74.054Y125.758
N26590G01Z-0.471F20.0
N26600G01X73.954Y125.658F500.0
N26610X73.853Y125.758
N26620X73.954Y125.859
N26630X74.054Y125.758
N26640G01Z-0.565F20.0
N26650G01X73.954Y125.658F500.0
N26660X73.853Y125.758
N26670X73.954Y125.859
N26680X74.054Y125.758
N26690G01Z-0.659F20.0
N26700G01X73.954Y125.658F500.0
N26710X73.853Y125.758
N26720X73.954Y125.859
N26730X74.054Y125.758
N26740G01Z-0.753F20.0
N26750G01X73.954Y125.658F500.0
N26760X73.853Y125.758
N26770X73.954Y125.859
N26780X74.054Y125.758
N26790G01Z-0.847F20.0
N26800G01X73.954Y125.658F500.0
N26810X73.853Y125.758
N26820X73.954Y125.859
N26830X74.054Y125.758
N26840G01Z-0.941F20.0
N26850G01X73.954Y125.658F500.0
N26860X73.853Y125.758
N26870X73.954Y125.859
N26880X74.054Y125.758
N26890G01Z-1.035F20.0
N26900G01X73.954Y125.658F500.0
N26910X73.853Y125.758
N26920X73.954Y125.859
N26930X74.054Y125.758
N26940G01Z-1.129F20.0
N26950G01X73.954Y125.658F500.0
N26960X73.853Y125.758
N26970X73.954Y125.859
N26980X74.054Y125.758
N26990G01Z-1.224F20.0
N27000G01X73.954Y125.658F500.0
N27010X73.853Y125.758
N27020X73.954Y125.859
N27030X74.054Y125.758
N27040G01Z-1.318F20.0
N27050G01X73.954Y125.658F500.0
N27060X73.853Y125.758
N27070X73.954Y125.859
N27080X74.054Y125.758
N27090G01Z-1.412F20.0
N27100G01X73.954Y125.658F500.0
N27110X73.853Y125.758
N27120X73.954Y125.859
N27130X74.054Y125.758
N27140G01Z-1.506F20.0
N27150G01X73.954Y125.658F500.0
N27160X73.853Y125.758
N27170X73.954Y125.859
N27180X74.054Y125.758
N27190G01Z-1.600F20.0
N27200G01X73.954Y125.658F500.0
N27210X73.853Y125.758
N27220X73.954Y125.859
N27230X74.054Y125.758
N27240G00Z6.000
N27250G00X75.812Y121.516
N27260G01Z-0.094F20.0
N27270G01X75.711Y121.415F500.0
N27280X75.611Y121.516
N27290X75.711Y121.616
N27300X75.812Y121.516
N27310G01Z-0.188F20.0
N27320G01X75.711Y121.415F500.0
N27330X75.611Y121.516
N27340X75.711Y121.616
N27350X75.812Y121.516
N27360G01Z-0.282F20.0
N27370G01X75.711Y121.415F500.0
N27380X75.611Y121.516
N27390X75.711Y121.616
N27400X75.812Y121.516
N27410G01Z-0.376F20.0
N27420G01X75.711Y121.415F500.0
N27430X75.611Y121.516
N27440X75.711Y121.616
N27450X75.812Y121.516
N27460G01Z-0.471F20.0
N27470G01X75.711Y121.415F500.0
N27480X75.611Y121.516
N27490X75.711Y121.616
N27500X75.812Y121.516
N27510G01Z-0.565F20.0
N27520G01X75.711Y121.415F500.0
N27530X75.611Y121.516
N27540X75.711Y121.616
N27550X75.812Y121.516
N27560G01Z-0.659F20.0
N27570G01X75.711Y121.415F500.0
N27580X75.611Y121.516
N27590X75.711Y121.616
N27600X75.812Y121.516
N27610G01Z-0.753F20.0
N27620G01X75.711Y121.415F500.0
N27630X75.611Y121.516
N27640X75.711Y121.616
N27650X75.812Y121.516
N27660G01Z-0.847F20.0
N27670G01X75.711Y121.415F500.0
N27680X75.611Y121.516
N27690X75.711Y121.616
N27700X75.812Y121.516
N27710G01Z-0.941F20.0
N27720G01X75.711Y121.415F500.0
N27730X75.611Y121.516
N27740X75.711Y121.616
N27750X75.812Y121.516
N27760G01Z-1.035F20.0
N27770G01X75.711Y121.415F500.0
N27780X75.611Y121.516
N27790X75.711Y121.616
N27800X75.812Y121.516
N27810G01Z-1.129F20.0
N27820G01X75.711Y121.415F500.0
N27830X75.611Y121.516
N27840X75.711Y121.616
N27850X75.812Y121.516
N27860G01Z-1.224F20.0
N27870G01X75.711Y121.415F500.0
N27880X75.611Y121.516
N27890X75.711Y121.616
N27900X75.812Y121.516
N27910G01Z-1.318F20.0
N27920G01X75.711Y121.415F500.0
N27930X75.611Y121.516
N27940X75.711Y121.616
N27950X75.812Y121.516
N27960G01Z-1.412F20.0
N27970G01X75.711Y121.415F500.0
N27980X75.611Y121.516
N27990X75.711Y121.616
N28000X75.812Y121.516
N28010G01Z-1.506F20.0
N28020G01X75.711Y121.415F500.0
N28030X75.611Y121.516
N28040X75.711Y121.616
N28050X75.812Y121.516
N28060G01Z-1.600F20.0
N28070G01X75.711Y121.415F500.0
N28080X75.611Y121.516
N28090X75.711Y121.616
N28100X75.812Y121.516
N28110G00Z6.000
N28120G00X80.054Y119.758
N28130G01Z-0.094F20.0
N28140G01X79.954Y119.658F500.0
N28150X79.853Y119.758
N28160X79.954Y119.859
N28170X80.054Y119.758
N28180G01Z-0.188F20.0
N28190G01X79.954Y119.658F500.0
N28200X79.853Y119.758
N28210X79.954Y119.859
N28220X80.054Y119.758
N28230G01Z-0.282F20.0
N28240G01X79.954Y119.658F500.0
N28250X79.853Y119.758
N28260X79.954Y119.859
N28270X80.054Y119.758
N28280G01Z-0.376F20.0
N28290G01X79.954Y119.658F500.0
N28300X79.853Y119.758
N28310X79.954Y119.859
N28320X80.054Y119.758
N28330G01Z-0.471F20.0
N28340G01X79.954Y119.658F500.0
N28350X79.853Y119.758
N28360X79.954Y119.859
N28370X80.054Y119.758
N28380G01Z-0.565F20.0
N28390G01X79.954Y119.658F500.0
N28400X79.853Y119.758
N28410X79.954Y119.859
N28420X80.054Y119.758
N28430G01Z-0.659F20.0
N28440G01X79.954Y119.658F500.0
N28450X79.853Y119.758
N28460X79.954Y119.859
N28470X80.054Y119.758
N28480G01Z-0.753F20.0
N28490G01X79.954Y119.658F500.0
N28500X79.853Y119.758
N28510X79.954Y119.859
N28520X80.054Y119.758
N28530G01Z-0.847F20.0
N28540G01X79.954Y119.658F500.0
N28550X79.853Y119.758
N28560X79.954Y119.859
N28570X80.054Y119.758
N28580G01Z-0.941F20.0
N28590G01X79.954Y119.658F500.0
N28600X79.853Y119.758
N28610X79.954Y119.859
N28620X80.054Y119.758
N28630G01Z-1.035F20.0
N28640G01X79.954Y119.658F500.0
N28650X79.853Y119.758
N28660X79.954Y119.859
N28670X80.054Y119.758
N28680G01Z-1.129F20.0
N28690G01X79.954Y119.658F500.0
N28700X79.853Y119.758
N28710X79.954Y119.859
N28720X80.054Y119.758
N28730G01Z-1.224F20.0
N28740G01X79.954Y119.658F500.0
N28750X79.853Y119.758
N28760X79.954Y119.859
N28770X80.054Y119.758
N28780G01Z-1.318F20.0
N28790G01X79.954Y119.658F500.0
N28800X79.853Y119.758
N28810X79.954Y119.859
N28820X80.054Y119.758
N28830G01Z-1.412F20.0
N28840G01X79.954Y119.658F500.0
N28850X79.853Y119.758
N28860X79.954Y119.859
N28870X80.054Y119.758
N28880G01Z-1.506F20.0
N28890G01X79.954Y119.658F500.0
N28900X79.853Y119.758
N28910X79.954Y119.859
N28920X80.054Y119.758
N28930G01Z-1.600F20.0
N28940G01X79.954Y119.658F500.0
N28950X79.853Y119.758
N28960X79.954Y119.859
N28970X80.054Y119.758
N28980G00Z6.000
N28990G00X67.854Y120.558
N29000G01Z-0.094F20.0
N29010G01X67.754Y120.458F500.0
N29020X67.653Y120.558
N29030X67.754Y120.659
N29040X67.854Y120.558
N29050G01Z-0.188F20.0
N29060G01X67.754Y120.458F500.0
N29070X67.653Y120.558
N29080X67.754Y120.659
N29090X67.854Y120.558
N29100G01Z-0.282F20.0
N29110G01X67.754Y120.458F500.0
N29120X67.653Y120.558
N29130X67.754Y120.659
N29140X67.854Y120.558
N29150G01Z-0.376F20.0
N29160G01X67.754Y120.458F500.0
N29170X67.653Y120.558
N29180X67.754Y120.659
N29190X67.854Y120.558
N29200G01Z-0.471F20.0
N29210G01X67.754Y120.458F500.0
N29220X67.653Y120.558
N29230X67.754Y120.659
N29240X67.854Y120.558
N29250G01Z-0.565F20.0
N29260G01X67.754Y120.458F500.0
N29270X67.653Y120.558
N29280X67.754Y120.659
N29290X67.854Y120.558
N29300G01Z-0.659F20.0
N29310G01X67.754Y120.458F500.0
N29320X67.653Y120.558
N29330X67.754Y120.659
N29340X67.854Y120.558
N29350G01Z-0.753F20.0
N29360G01X67.754Y120.458F500.0
N29370X67.653Y120.558
N29380X67.754Y120.659
N29390X67.854Y120.558
N29400G01Z-0.847F20.0
N29410G01X67.754Y120.458F500.0
N29420X67.653Y120.558
N29430X67.754Y120.659
N29440X67.854Y120.558
N29450G01Z-0.941F20.0
N29460G01X67.754Y120.458F500.0
N29470X67.653Y120.558
N29480X67.754Y120.659
N29490X67.854Y120.558
N29500G01Z-1.035F20.0
N29510G01X67.754Y120.458F500.0
N29520X67.653Y120.558
N29530X67.754Y120.659
N29540X67.854Y120.558
N29550G01Z-1.129F20.0
N29560G01X67.754Y120.458F500.0
N29570X67.653Y120.558
N29580X67.754Y120.659
N29590X67.854Y120.558
N29600G01Z-1.224F20.0
N29610G01X67.754Y120.458F500.0
N29620X67.653Y120.558
N29630X67.754Y120.659
N29640X67.854Y120.558
N29650G01Z-1.318F20.0
N29660G01X67.754Y120.458F500.0
N29670X67.653Y120.558
N29680X67.754Y120.659
N29690X67.854Y120.558
N29700G01Z-1.412F20.0
N29710G01X67.754Y120.458F500.0
N29720X67.653Y120.558
N29730X67.754Y120.659
N29740X67.854Y120.558
N29750G01Z-1.506F20.0
N29760G01X67.754Y120.458F500.0
N29770X67.653Y120.558
N29780X67.754Y120.659
N29790X67.854Y120.558
N29800G01Z-1.600F20.0
N29810G01X67.754Y120.458F500.0
N29820X67.653Y120.558
N29830X67.754Y120.659
N29840X67.854Y120.558
N29850G00Z6.000
N29860G00X57.334Y127.100
N29870G01Z-0.094F20.0
N29880G01Y130.100F500.0
N29890X57.434Y130.200
N29900X57.535Y130.100
N29910G3X58.534Y129.100I1.000J0.000
N29920G01X64.134
N29930G3X65.134Y130.100I0.000J0.999
N29940G01X65.234Y130.200
N29950X65.335Y130.100
N29960Y127.100
N29970G2X65.134I-0.101J0.000
N29980G3X64.134Y128.099I-1.000J0.000
N29990G01X58.534
N30000G3X57.535Y127.100I0.000J-0.999
N30010G2X57.334I-0.101J0.000
N30020G01Z-0.188F20.0
N30030G01Y130.100F500.0
N30040X57.434Y130.200
N30050X57.535Y130.100
N30060G3X58.534Y129.100I1.000J0.000
N30070G01X64.134
N30080G3X65.134Y130.100I0.000J0.999
N30090G01X65.234Y130.200
N30100X65.335Y130.100
N30110Y127.100
N30120G2X65.134I-0.101J0.000
N30130G3X64.134Y128.099I-1.000J0.000
N30140G01X58.534
N30150G3X57.535Y127.100I0.000J-0.999
N30160G2X57.334I-0.101J0.000
N30170G01Z-0.282F20.0
N30180G01Y130.100F500.0
N30190X57.434Y130.200
N30200X57.535Y130.100
N30210G3X58.534Y129.100I1.000J0.000
N30220G01X64.134
N30230G3X65.134Y130.100I0.000J0.999
N30240G01X65.234Y130.200
N30250X65.335Y130.100
N30260Y127.100
N30270G2X65.134I-0.101J0.000
N30280G3X64.134Y128.099I-1.000J0.000
N30290G01X58.534
N30300G3X57.535Y127.100I0.000J-0.999
N30310G2X57.334I-0.101J0.000
N30320G01Z-0.376F20.0
N30330G01Y130.100F500.0
N30340X57.434Y130.200
N30350X57.535Y130.100
N30360G3X58.534Y129.100I1.000J0.000
N30370G01X64.134
N30380G3X65.134Y130.100I0.000J0.999
N30390G01X65.234Y130.200
N30400X65.335Y130.100
N30410Y127.100
N30420G2X65.134I-0.101J0.000
N30430G3X64.134Y128.099I-1.000J0.000
N30440G01X58.534
N30450G3X57.535Y127.100I0.000J-0.999
N30460G2X57.334I-0.101J0.000
N30470G01Z-0.471F20.0
N30480G01Y130.100F500.0
N30490X57.434Y130.200
N30500X57.535Y130.100
N30510G3X58.534Y129.100I1.000J0.000
N30520G01X64.134
N30530G3X65.134Y130.100I0.000J0.999
N30540G01X65.234Y130.200
N30550X65.335Y130.100
N30560Y127.100
N30570G2X65.134I-0.101J0.000
N30580G3X64.134Y128.099I-1.000J0.000
N30590G01X58.534
N30600G3X57.535Y127.100I0.000J-0.999
N30610G2X57.334I-0.101J0.000
N30620G01Z-0.565F20.0
N30630G01Y130.100F500.0
N30640X57.434Y130.200
N30650X57.535Y130.100
N30660G3X58.534Y129.100I1.000J0.000
N30670G01X64.134
N30680G3X65.134Y130.100I0.000J0.999
N30690G01X65.234Y130.200
N30700X65.335Y130.100
N30710Y127.100
N30720G2X65.134I-0.101J0.000
N30730G3X64.134Y128.099I-1.000J0.000
N30740G01X58.534
N30750G3X57.535Y127.100I0.000J-0.999
N30760G2X57.334I-0.101J0.000
N30770G01Z-0.659F20.0
N30780G01Y130.100F500.0
N30790X57.434Y130.200
N30800X57.535Y130.100
N30810G3X58.534Y129.100I1.000J0.000
N30820G01X64.134
N30830G3X65.134Y130.100I0.000J0.999
N30840G01X65.234Y130.200
N30850X65.335Y130.100
N30860Y127.100
N30870G2X65.134I-0.101J0.000
N30880G3X64.134Y128.099I-1.000J0.000
N30890G01X58.534
N30900G3X57.535Y127.100I0.000J-0.999
N30910G2X57.334I-0.101J0.000
N30920G01Z-0.753F20.0
N30930G01Y130.100F500.0
N30940X57.434Y130.200
N30950X57.535Y130.100
N30960G3X58.534Y129.100I1.000J0.000
N30970G01X64.134
N30980G3X65.134Y130.100I0.000J0.999
N30990G01X65.234Y130.200
N31000X65.335Y130.100
N31010Y127.100
N31020G2X65.134I-0.101J0.000
N31030G3X64.134Y128.099I-1.000J0.000
N31040G01X58.534
N31050G3X57.535Y127.100I0.000J-0.999
N31060G2X57.334I-0.101J0.000
N31070G01Z-0.847F20.0
N31080G01Y130.100F500.0
N31090X57.434Y130.200
N31100X57.535Y130.100
N31110G3X58.534Y129.100I1.000J0.000
N31120G01X64.134
N31130G3X65.134Y130.100I0.000J0.999
N31140G01X65.234Y130.200
N31150X65.335Y130.100
N31160Y127.100
N31170G2X65.134I-0.101J0.000
N31180G3X64.134Y128.099I-1.000J0.000
N31190G01X58.534
N31200G3X57.535Y127.100I0.000J-0.999
N31210G2X57.334I-0.101J0.000
N31220G01Z-0.941F20.0
N31230G01Y130.100F500.0
N31240X57.434Y130.200
N31250X57.535Y130.100
N31260G3X58.534Y129.100I1.000J0.000
N31270G01X64.134
N31280G3X65.134Y130.100I0.000J0.999
N31290G01X65.234Y130.200
N31300X65.335Y130.100
N31310Y127.100
N31320G2X65.134I-0.101J0.000
N31330G3X64.134Y128.099I-1.000J0.000
N31340G01X58.534
N31350G3X57.535Y127.100I0.000J-0.999
N31360G2X57.334I-0.101J0.000
N31370G01Z-1.035F20.0
N31380G01Y130.100F500.0
N31390X57.434Y130.200
N31400X57.535Y130.100
N31410G3X58.534Y129.100I1.000J0.000
N31420G01X64.134
N31430G3X65.134Y130.100I0.000J0.999
N31440G01X65.234Y130.200
N31450X65.335Y130.100
N31460Y127.100
N31470G2X65.134I-0.101J0.000
N31480G3X64.134Y128.099I-1.000J0.000
N31490G01X58.534
N31500G3X57.535Y127.100I0.000J-0.999
N31510G2X57.334I-0.101J0.000
N31520G01Z-1.129F20.0
N31530G01Y130.100F500.0
N31540X57.434Y130.200
N31550X57.535Y130.100
N31560G3X58.534Y129.100I1.000J0.000
N31570G01X64.134
N31580G3X65.134Y130.100I0.000J0.999
N31590G01X65.234Y130.200
N31600X65.335Y130.100
N31610Y127.100
N31620G2X65.134I-0.101J0.000
N31630G3X64.134Y128.099I-1.000J0.000
N31640G01X58.534
N31650G3X57.535Y127.100I0.000J-0.999
N31660G2X57.334I-0.101J0.000
N31670G01Z-1.224F20.0
N31680G01Y130.100F500.0
N31690X57.434Y130.200
N31700X57.535Y130.100
N31710G3X58.534Y129.100I1.000J0.000
N31720G01X64.134
N31730G3X65.134Y130.100I0.000J0.999
N31740G01X65.234Y130.200
N31750X65.335Y130.100
N31760Y127.100
N31770G2X65.134I-0.101J0.000
N31780G3X64.134Y128.099I-1.000J0.000
N31790G01X58.534
N31800G3X57.535Y127.100I0.000J-0.999
N31810G2X57.334I-0.101J0.000
N31820G01Z-1.318F20.0
N31830G01Y130.100F500.0
N31840X57.434Y130.200
N31850X57.535Y130.100
N31860G3X58.534Y129.100I1.000J0.000
N31870G01X64.134
N31880G3X65.134Y130.100I0.000J0.999
N31890G01X65.234Y130.200
N31900X65.335Y130.100
N31910Y127.100
N31920G2X65.134I-0.101J0.000
N31930G3X64.134Y128.099I-1.000J0.000
N31940G01X58.534
N31950G3X57.535Y127.100I0.000J-0.999
N31960G2X57.334I-0.101J0.000
N31970G01Z-1.412F20.0
N31980G01Y130.100F500.0
N31990X57.434Y130.200
N32000X57.535Y130.100
N32010G3X58.534Y129.100I1.000J0.000
N32020G01X64.134
N32030G3X65.134Y130.100I0.000J0.999
N32040G01X65.234Y130.200
N32050X65.335Y130.100
N32060Y127.100
N32070G2X65.134I-0.101J0.000
N32080G3X64.134Y128.099I-1.000J0.000
N32090G01X58.534
N32100G3X57.535Y127.100I0.000J-0.999
N32110G2X57.334I-0.101J0.000
N32120G01Z-1.506F20.0
N32130G01Y130.100F500.0
N32140X57.434Y130.200
N32150X57.535Y130.100
N32160G3X58.534Y129.100I1.000J0.000
N32170G01X64.134
N32180G3X65.134Y130.100I0.000J0.999
N32190G01X65.234Y130.200
N32200X65.335Y130.100
N32210Y127.100
N32220G2X65.134I-0.101J0.000
N32230G3X64.134Y128.099I-1.000J0.000
N32240G01X58.534
N32250G3X57.535Y127.100I0.000J-0.999
N32260G2X57.334I-0.101J0.000
N32270G01Z-1.600F20.0
N32280G01Y130.100F500.0
N32290X57.434Y130.200
N32300X57.535Y130.100
N32310G3X58.534Y129.100I1.000J0.000
N32320G01X64.134
N32330G3X65.134Y130.100I0.000J0.999
N32340G01X65.234Y130.200
N32350X65.335Y130.100
N32360Y127.100
N32370G2X65.134I-0.101J0.000
N32380G3X64.134Y128.099I-1.000J0.000
N32390G01X58.534
N32400G3X57.535Y127.100I0.000J-0.999
N32410G2X57.334I-0.101J0.000
N32420G00Z6.000
N32430G00X51.435Y128.600
N32440G01Z-0.094F20.0
N32450G01X51.334Y128.499F500.0
N32460X51.234Y128.600
N32470X51.334Y128.700
N32480X51.435Y128.600
N32490G01Z-0.188F20.0
N32500G01X51.334Y128.499F500.0
N32510X51.234Y128.600
N32520X51.334Y128.700
N32530X51.435Y128.600
N32540G01Z-0.282F20.0
N32550G01X51.334Y128.499F500.0
N32560X51.234Y128.600
N32570X51.334Y128.700
N32580X51.435Y128.600
N32590G01Z-0.376F20.0
N32600G01X51.334Y128.499F500.0
N32610X51.234Y128.600
N32620X51.334Y128.700
N32630X51.435Y128.600
N32640G01Z-0.471F20.0
N32650G01X51.334Y128.499F500.0
N32660X51.234Y128.600
N32670X51.334Y128.700
N32680X51.435Y128.600
N32690G01Z-0.565F20.0
N32700G01X51.334Y128.499F500.0
N32710X51.234Y128.600
N32720X51.334Y128.700
N32730X51.435Y128.600
N32740G01Z-0.659F20.0
N32750G01X51.334Y128.499F500.0
N32760X51.234Y128.600
N32770X51.334Y128.700
N32780X51.435Y128.600
N32790G01Z-0.753F20.0
N32800G01X51.334Y128.499F500.0
N32810X51.234Y128.600
N32820X51.334Y128.700
N32830X51.435Y128.600
N32840G01Z-0.847F20.0
N32850G01X51.334Y128.499F500.0
N32860X51.234Y128.600
N32870X51.334Y128.700
N32880X51.435Y128.600
N32890G01Z-0.941F20.0
N32900G01X51.334Y128.499F500.0
N32910X51.234Y128.600
N32920X51.334Y128.700
N32930X51.435Y128.600
N32940G01Z-1.035F20.0
N32950G01X51.334Y128.499F500.0
N32960X51.234Y128.600
N32970X51.334Y128.700
N32980X51.435Y128.600
N32990G01Z-1.129F20.0
N33000G01X51.334Y128.499F500.0
N33010X51.234Y128.600
N33020X51.334Y128.700
N33030X51.435Y128.600
N33040G01Z-1.224F20.0
N33050G01X51.334Y128.499F500.0
N33060X51.234Y128.600
N33070X51.334Y128.700
N33080X51.435Y128.600
N33090G01Z-1.318F20.0
N33100G01X51.334Y128.499F500.0
N33110X51.234Y128.600
N33120X51.334Y128.700
N33130X51.435Y128.600
N33140G01Z-1.412F20.0
N33150G01X51.334Y128.499F500.0
N33160X51.234Y128.600
N33170X51.334Y128.700
N33180X51.435Y128.600
N33190G01Z-1.506F20.0
N33200G01X51.334Y128.499F500.0
N33210X51.234Y128.600
N33220X51.334Y128.700
N33230X51.435Y128.600
N33240G01Z-1.600F20.0
N33250G01X51.334Y128.499F500.0
N33260X51.234Y128.600
N33270X51.334Y128.700
N33280X51.435Y128.600
N33290G00Z6.000
N33300G00X37.334Y127.100
N33310G01Z-0.094F20.0
N33320G01Y130.100F500.0
N33330G2X37.535I0.100J0.000
N33340G3X38.534Y129.100I1.000J0.000
N33350G01X44.134
N33360G3X45.134Y130.100I0.000J0.999
N33370G01X45.234Y130.200
N33380X45.335Y130.100
N33390Y127.100
N33400X45.234Y126.999
N33410X45.134Y127.100
N33420G3X44.134Y128.099I-1.000J0.000
N33430G01X38.534
N33440G3X37.535Y127.100I0.000J-0.999
N33450G2X37.334I-0.101J0.000
N33460G01Z-0.188F20.0
N33470G01Y130.100F500.0
N33480G2X37.535I0.100J0.000
N33490G3X38.534Y129.100I1.000J0.000
N33500G01X44.134
N33510G3X45.134Y130.100I0.000J0.999
N33520G01X45.234Y130.200
N33530X45.335Y130.100
N33540Y127.100
N33550X45.234Y126.999
N33560X45.134Y127.100
N33570G3X44.134Y128.099I-1.000J0.000
N33580G01X38.534
N33590G3X37.535Y127.100I0.000J-0.999
N33600G2X37.334I-0.101J0.000
N33610G01Z-0.282F20.0
N33620G01Y130.100F500.0
N33630G2X37.535I0.100J0.000
N33640G3X38.534Y129.100I1.000J0.000
N33650G01X44.134
N33660G3X45.134Y130.100I0.000J0.999
N33670G01X45.234Y130.200
N33680X45.335Y130.100
N33690Y127.100
N33700X45.234Y126.999
N33710X45.134Y127.100
N33720G3X44.134Y128.099I-1.000J0.000
N33730G01X38.534
N33740G3X37.535Y127.100I0.000J-0.999
N33750G2X37.334I-0.101J0.000
N33760G01Z-0.376F20.0
N33770G01Y130.100F500.0
N33780G2X37.535I0.100J0.000
N33790G3X38.534Y129.100I1.000J0.000
N33800G01X44.134
N33810G3X45.134Y130.100I0.000J0.999
N33820G01X45.234Y130.200
N33830X45.335Y130.100
N33840Y127.100
N33850X45.234Y126.999
N33860X45.134Y127.100
N33870G3X44.134Y128.099I-1.000J0.000
N33880G01X38.534
N33890G3X37.535Y127.100I0.000J-0.999
N33900G2X37.334I-0.101J0.000
N33910G01Z-0.471F20.0
N33920G01Y130.100F500.0
N33930G2X37.535I0.100J0.000
N33940G3X38.534Y129.100I1.000J0.000
N33950G01X44.134
N33960G3X45.134Y130.100I0.000J0.999
N33970G01X45.234Y130.200
N33980X45.335Y130.100
N33990Y127.100
N34000X45.234Y126.999
N34010X45.134Y127.100
N34020G3X44.134Y128.099I-1.000J0.000
N34030G01X38.534
N34040G3X37.535Y127.100I0.000J-0.999
N34050G2X37.334I-0.101J0.000
N34060G01Z-0.565F20.0
N34070G01Y130.100F500.0
N34080G2X37.535I0.100J0.000
N34090G3X38.534Y129.100I1.000J0.000
N34100G01X44.134
N34110G3X45.134Y130.100I0.000J0.999
N34120G01X45.234Y130.200
N34130X45.335Y130.100
N34140Y127.100
N34150X45.234Y126.999
N34160X45.134Y127.100
N34170G3X44.134Y128.099I-1.000J0.000
N34180G01X38.534
N34190G3X37.535Y127.100I0.000J-0.999
N34200G2X37.334I-0.101J0.000
N34210G01Z-0.659F20.0
N34220G01Y130.100F500.0
N34230G2X37.535I0.100J0.000
N34240G3X38.534Y129.100I1.000J0.000
N34250G01X44.134
N34260G3X45.134Y130.100I0.000J0.999
N34270G01X45.234Y130.200
N34280X45.335Y130.100
N34290Y127.100
N34300X45.234Y126.999
N34310X45.134Y127.100
N34320G3X44.134Y128.099I-1.000J0.000
N34330G01X38.534
N34340G3X37.535Y127.100I0.000J-0.999
N34350G2X37.334I-0.101J0.000
N34360G01Z-0.753F20.0
N34370G01Y130.100F500.0
N34380G2X37.535I0.100J0.000
N34390G3X38.534Y129.100I1.000J0.000
N34400G01X44.134
N34410G3X45.134Y130.100I0.000J0.999
N34420G01X45.234Y130.200
N34430X45.335Y130.100
N34440Y127.100
N34450X45.234Y126.999
N34460X45.134Y127.100
N34470G3X44.134Y128.099I-1.000J0.000
N34480G01X38.534
N34490G3X37.535Y127.100I0.000J-0.999
N34500G2X37.334I-0.101J0.000
N34510G01Z-0.847F20.0
N34520G01Y130.100F500.0
N34530G2X37.535I0.100J0.000
N34540G3X38.534Y129.100I1.000J0.000
N34550G01X44.134
N34560G3X45.134Y130.100I0.000J0.999
N34570G01X45.234Y130.200
N34580X45.335Y130.100
N34590Y127.100
N34600X45.234Y126.999
N34610X45.134Y127.100
N34620G3X44.134Y128.099I-1.000J0.000
N34630G01X38.534
N34640G3X37.535Y127.100I0.000J-0.999
N34650G2X37.334I-0.101J0.000
N34660G01Z-0.941F20.0
N34670G01Y130.100F500.0
N34680G2X37.535I0.100J0.000
N34690G3X38.534Y129.100I1.000J0.000
N34700G01X44.134
N34710G3X45.134Y130.100I0.000J0.999
N34720G01X45.234Y130.200
N34730X45.335Y130.100
N34740Y127.100
N34750X45.234Y126.999
N34760X45.134Y127.100
N34770G3X44.134Y128.099I-1.000J0.000
N34780G01X38.534
N34790G3X37.535Y127.100I0.000J-0.999
N34800G2X37.334I-0.101J0.000
N34810G01Z-1.035F20.0
N34820G01Y130.100F500.0
N34830G2X37.535I0.100J0.000
N34840G3X38.534Y129.100I1.000J0.000
N34850G01X44.134
N34860G3X45.134Y130.100I0.000J0.999
N34870G01X45.234Y130.200
N34880X45.335Y130.100
N34890Y127.100
N34900X45.234Y126.999
N34910X45.134Y127.100
N34920G3X44.134Y128.099I-1.000J0.000
N34930G01X38.534
N34940G3X37.535Y127.100I0.000J-0.999
N34950G2X37.334I-0.101J0.000
N34960G01Z-1.129F20.0
N34970G01Y130.100F500.0
N34980G2X37.535I0.100J0.000
N34990G3X38.534Y129.100I1.000J0.000
N35000G01X44.134
N35010G3X45.134Y130.100I0.000J0.999
N35020G01X45.234Y130.200
N35030X45.335Y130.100
N35040Y127.100
N35050X45.234Y126.999
N35060X45.134Y127.100
N35070G3X44.134Y128.099I-1.000J0.000
N35080G01X38.534
N35090G3X37.535Y127.100I0.000J-0.999
N35100G2X37.334I-0.101J0.000
N35110G01Z-1.224F20.0
N35120G01Y130.100F500.0
N35130G2X37.535I0.100J0.000
N35140G3X38.534Y129.100I1.000J0.000
N35150G01X44.134
N35160G3X45.134Y130.100I0.000J0.999
N35170G01X45.234Y130.200
N35180X45.335Y130.100
N35190Y127.100
N35200X45.234Y126.999
N35210X45.134Y127.100
N35220G3X44.134Y128.099I-1.000J0.000
N35230G01X38.534
N35240G3X37.535Y127.100I0.000J-0.999
N35250G2X37.334I-0.101J0.000
N35260G01Z-1.318F20.0
N35270G01Y130.100F500.0
N35280G2X37.535I0.100J0.000
N35290G3X38.534Y129.100I1.000J0.000
N35300G01X44.134
N35310G3X45.134Y130.100I0.000J0.999
N35320G01X45.234Y130.200
N35330X45.335Y130.100
N35340Y127.100
N35350X45.234Y126.999
N35360X45.134Y127.100
N35370G3X44.134Y128.099I-1.000J0.000
N35380G01X38.534
N35390G3X37.535Y127.100I0.000J-0.999
N35400G2X37.334I-0.101J0.000
N35410G01Z-1.412F20.0
N35420G01Y130.100F500.0
N35430G2X37.535I0.100J0.000
N35440G3X38.534Y129.100I1.000J0.000
N35450G01X44.134
N35460G3X45.134Y130.100I0.000J0.999
N35470G01X45.234Y130.200
N35480X45.335Y130.100
N35490Y127.100
N35500X45.234Y126.999
N35510X45.134Y127.100
N35520G3X44.134Y128.099I-1.000J0.000
N35530G01X38.534
N35540G3X37.535Y127.100I0.000J-0.999
N35550G2X37.334I-0.101J0.000
N35560G01Z-1.506F20.0
N35570G01Y130.100F500.0
N35580G2X37.535I0.100J0.000
N35590G3X38.534Y129.100I1.000J0.000
N35600G01X44.134
N35610G3X45.134Y130.100I0.000J0.999
N35620G01X45.234Y130.200
N35630X45.335Y130.100
N35640Y127.100
N35650X45.234Y126.999
N35660X45.134Y127.100
N35670G3X44.134Y128.099I-1.000J0.000
N35680G01X38.534
N35690G3X37.535Y127.100I0.000J-0.999
N35700G2X37.334I-0.101J0.000
N35710G01Z-1.600F20.0
N35720G01Y130.100F500.0
N35730G2X37.535I0.100J0.000
N35740G3X38.534Y129.100I1.000J0.000
N35750G01X44.134
N35760G3X45.134Y130.100I0.000J0.999
N35770G01X45.234Y130.200
N35780X45.335Y130.100
N35790Y127.100
N35800X45.234Y126.999
N35810X45.134Y127.100
N35820G3X44.134Y128.099I-1.000J0.000
N35830G01X38.534
N35840G3X37.535Y127.100I0.000J-0.999
N35850G2X37.334I-0.101J0.000
N35860G00Z6.000
N35870G00X31.435Y128.600
N35880G01Z-0.094F20.0
N35890G01X31.334Y128.499F500.0
N35900X31.234Y128.600
N35910X31.334Y128.700
N35920X31.435Y128.600
N35930G01Z-0.188F20.0
N35940G01X31.334Y128.499F500.0
N35950X31.234Y128.600
N35960X31.334Y128.700
N35970X31.435Y128.600
N35980G01Z-0.282F20.0
N35990G01X31.334Y128.499F500.0
N36000X31.234Y128.600
N36010X31.334Y128.700
N36020X31.435Y128.600
N36030G01Z-0.376F20.0
N36040G01X31.334Y128.499F500.0
N36050X31.234Y128.600
N36060X31.334Y128.700
N36070X31.435Y128.600
N36080G01Z-0.471F20.0
N36090G01X31.334Y128.499F500.0
N36100X31.234Y128.600
N36110X31.334Y128.700
N36120X31.435Y128.600
N36130G01Z-0.565F20.0
N36140G01X31.334Y128.499F500.0
N36150X31.234Y128.600
N36160X31.334Y128.700
N36170X31.435Y128.600
N36180G01Z-0.659F20.0
N36190G01X31.334Y128.499F500.0
N36200X31.234Y128.600
N36210X31.334Y128.700
N36220X31.435Y128.600
N36230G01Z-0.753F20.0
N36240G01X31.334Y128.499F500.0
N36250X31.234Y128.600
N36260X31.334Y128.700
N36270X31.435Y128.600
N36280G01Z-0.847F20.0
N36290G01X31.334Y128.499F500.0
N36300X31.234Y128.600
N36310X31.334Y128.700
N36320X31.435Y128.600
N36330G01Z-0.941F20.0
N36340G01X31.334Y128.499F500.0
N36350X31.234Y128.600
N36360X31.334Y128.700
N36370X31.435Y128.600
N36380G01Z-1.035F20.0
N36390G01X31.334Y128.499F500.0
N36400X31.234Y128.600
N36410X31.334Y128.700
N36420X31.435Y128.600
N36430G01Z-1.129F20.0
N36440G01X31.334Y128.499F500.0
N36450X31.234Y128.600
N36460X31.334Y128.700
N36470X31.435Y128.600
N36480G01Z-1.224F20.0
N36490G01X31.334Y128.499F500.0
N36500X31.234Y128.600
N36510X31.334Y128.700
N36520X31.435Y128.600
N36530G01Z-1.318F20.0
N36540G01X31.334Y128.499F500.0
N36550X31.234Y128.600
N36560X31.334Y128.700
N36570X31.435Y128.600
N36580G01Z-1.412F20.0
N36590G01X31.334Y128.499F500.0
N36600X31.234Y128.600
N36610X31.334Y128.700
N36620X31.435Y128.600
N36630G01Z-1.506F20.0
N36640G01X31.334Y128.499F500.0
N36650X31.234Y128.600
N36660X31.334Y128.700
N36670X31.435Y128.600
N36680G01Z-1.600F20.0
N36690G01X31.334Y128.499F500.0
N36700X31.234Y128.600
N36710X31.334Y128.700
N36720X31.435Y128.600
N36730G00Z6.000
N36740G00X24.435Y130.600
N36750G01Z-0.094F20.0
N36760G01X24.334Y130.499F500.0
N36770X24.234Y130.600
N36780X24.334Y130.700
N36790X24.435Y130.600
N36800G01Z-0.188F20.0
N36810G01X24.334Y130.499F500.0
N36820X24.234Y130.600
N36830X24.334Y130.700
N36840X24.435Y130.600
N36850G01Z-0.282F20.0
N36860G01X24.334Y130.499F500.0
N36870X24.234Y130.600
N36880X24.334Y130.700
N36890X24.435Y130.600
N36900G01Z-0.376F20.0
N36910G01X24.334Y130.499F500.0
N36920X24.234Y130.600
N36930X24.334Y130.700
N36940X24.435Y130.600
N36950G01Z-0.471F20.0
N36960G01X24.334Y130.499F500.0
N36970X24.234Y130.600
N36980X24.334Y130.700
N36990X24.435Y130.600
N37000G01Z-0.565F20.0
N37010G01X24.334Y130.499F500.0
N37020X24.234Y130.600
N37030X24.334Y130.700
N37040X24.435Y130.600
N37050G01Z-0.659F20.0
N37060G01X24.334Y130.499F500.0
N37070X24.234Y130.600
N37080X24.334Y130.700
N37090X24.435Y130.600
N37100G01Z-0.753F20.0
N37110G01X24.334Y130.499F500.0
N37120X24.234Y130.600
N37130X24.334Y130.700
N37140X24.435Y130.600
N37150G01Z-0.847F20.0
N37160G01X24.334Y130.499F500.0
N37170X24.234Y130.600
N37180X24.334Y130.700
N37190X24.435Y130.600
N37200G01Z-0.941F20.0
N37210G01X24.334Y130.499F500.0
N37220X24.234Y130.600
N37230X24.334Y130.700
N37240X24.435Y130.600
N37250G01Z-1.035F20.0
N37260G01X24.334Y130.499F500.0
N37270X24.234Y130.600
N37280X24.334Y130.700
N37290X24.435Y130.600
N37300G01Z-1.129F20.0
N37310G01X24.334Y130.499F500.0
N37320X24.234Y130.600
N37330X24.334Y130.700
N37340X24.435Y130.600
N37350G01Z-1.224F20.0
N37360G01X24.334Y130.499F500.0
N37370X24.234Y130.600
N37380X24.334Y130.700
N37390X24.435Y130.600
N37400G01Z-1.318F20.0
N37410G01X24.334Y130.499F500.0
N37420X24.234Y130.600
N37430X24.334Y130.700
N37440X24.435Y130.600
N37450G01Z-1.412F20.0
N37460G01X24.334Y130.499F500.0
N37470X24.234Y130.600
N37480X24.334Y130.700
N37490X24.435Y130.600
N37500G01Z-1.506F20.0
N37510G01X24.334Y130.499F500.0
N37520X24.234Y130.600
N37530X24.334Y130.700
N37540X24.435Y130.600
N37550G01Z-1.600F20.0
N37560G01X24.334Y130.499F500.0
N37570X24.234Y130.600
N37580X24.334Y130.700
N37590X24.435Y130.600
N37600G00Z6.000
N37610G00X18.235Y124.400
N37620G01Z-0.094F20.0
N37630G01X18.134Y124.299F500.0
N37640X18.034Y124.400
N37650X18.134Y124.500
N37660X18.235Y124.400
N37670G01Z-0.188F20.0
N37680G01X18.134Y124.299F500.0
N37690X18.034Y124.400
N37700X18.134Y124.500
N37710X18.235Y124.400
N37720G01Z-0.282F20.0
N37730G01X18.134Y124.299F500.0
N37740X18.034Y124.400
N37750X18.134Y124.500
N37760X18.235Y124.400
N37770G01Z-0.376F20.0
N37780G01X18.134Y124.299F500.0
N37790X18.034Y124.400
N37800X18.134Y124.500
N37810X18.235Y124.400
N37820G01Z-0.471F20.0
N37830G01X18.134Y124.299F500.0
N37840X18.034Y124.400
N37850X18.134Y124.500
N37860X18.235Y124.400
N37870G01Z-0.565F20.0
N37880G01X18.134Y124.299F500.0
N37890X18.034Y124.400
N37900X18.134Y124.500
N37910X18.235Y124.400
N37920G01Z-0.659F20.0
N37930G01X18.134Y124.299F500.0
N37940X18.034Y124.400
N37950X18.134Y124.500
N37960X18.235Y124.400
N37970G01Z-0.753F20.0
N37980G01X18.134Y124.299F500.0
N37990X18.034Y124.400
N38000X18.134Y124.500
N38010X18.235Y124.400
N38020G01Z-0.847F20.0
N38030G01X18.134Y124.299F500.0
N38040X18.034Y124.400
N38050X18.134Y124.500
N38060X18.235Y124.400
N38070G01Z-0.941F20.0
N38080G01X18.134Y124.299F500.0
N38090X18.034Y124.400
N38100X18.134Y124.500
N38110X18.235Y124.400
N38120G01Z-1.035F20.0
N38130G01X18.134Y124.299F500.0
N38140X18.034Y124.400
N38150X18.134Y124.500
N38160X18.235Y124.400
N38170G01Z-1.129F20.0
N38180G01X18.134Y124.299F500.0
N38190X18.034Y124.400
N38200X18.134Y124.500
N38210X18.235Y124.400
N38220G01Z-1.224F20.0
N38230G01X18.134Y124.299F500.0
N38240X18.034Y124.400
N38250X18.134Y124.500
N38260X18.235Y124.400
N38270G01Z-1.318F20.0
N38280G01X18.134Y124.299F500.0
N38290X18.034Y124.400
N38300X18.134Y124.500
N38310X18.235Y124.400
N38320G01Z-1.412F20.0
N38330G01X18.134Y124.299F500.0
N38340X18.034Y124.400
N38350X18.134Y124.500
N38360X18.235Y124.400
N38370G01Z-1.506F20.0
N38380G01X18.134Y124.299F500.0
N38390X18.034Y124.400
N38400X18.134Y124.500
N38410X18.235Y124.400
N38420G01Z-1.600F20.0
N38430G01X18.134Y124.299F500.0
N38440X18.034Y124.400
N38450X18.134Y124.500
N38460X18.235Y124.400
N38470G00Z6.000
N38480G00X25.334Y114.088
N38490G01Z-0.094F20.0
N38500G01Y122.000F500.0
N38510G2X26.334Y123.000I1.000J0.000
N38520G01X38.408
N38530G2X38.856Y121.105I0.000J-1.001
N38540G3X26.976Y113.320I27.479J-54.888
N38550G2X25.334Y114.088I-0.642J0.768
N38560G01Z-0.188F20.0
N38570G01Y122.000F500.0
N38580G2X26.334Y123.000I1.000J0.000
N38590G01X38.408
