( Pocket 1 )
( USBCNC Postprocessor )
N20G00G21G17G90G40G49
N30G80
N40G00G43Z20.000H1
N50S1000M03
N60G94
N70X0.000Y0.000F500.0
N80G00X43.746Y72.675Z6.000
N90G01Z-0.500F20.0
N100G01X44.415Y71.711F500.0
N110X43.077
N120X43.746Y72.675
N130Y74.428
N140X46.327Y70.711
N150X41.165
N160X43.746Y74.428
N170Y76.181
N180X48.239Y69.711
N190X39.253
N200X43.746Y76.181
N210Y77.934
N220X50.150Y68.711
N230X37.341
N240X43.746Y77.934
N250Y79.688
N260X52.062Y67.711
N270X35.429
N280X43.746Y79.688
N290Y81.441
N300X53.974Y66.711
N310X33.517
N320X43.746Y81.441
N330Y83.194
N340X55.886Y65.711
N350X31.605
N360X43.746Y83.194
N370Y84.947
N380X57.798Y64.711
N390X29.693
N400X43.746Y84.947
N410Y86.700
N420X59.710Y63.711
N430X27.782
N440X43.746Y86.700
N450Y88.453
N460X61.472Y62.928
N470X61.190Y62.711
N480X26.302
N490X26.020Y62.928
N500X43.746Y88.453
N510Y90.207
N520X62.836Y62.716
N530X61.530Y61.711
N540X25.961
N550X24.655Y62.716
N560X43.746Y90.207
N570Y91.960
N580X64.201Y62.504
N590X61.870Y60.711
N600X25.621
N610X23.291Y62.504
N620X43.746Y91.960
N630Y93.713
N640X65.565Y62.292
N650X62.210Y59.711
N660X25.281
N670X21.926Y62.292
N680X43.746Y93.713
N690Y95.466
N700X66.930Y62.080
N710X62.550Y58.711
N720X24.941
N730X20.561Y62.080
N740X43.746Y95.466
N750Y97.219
N760X68.295Y61.868
N770X62.891Y57.711
N780X24.601
N790X19.197Y61.868
N800X43.746Y97.219
N810Y98.973
N820X69.659Y61.657
N830X63.231Y56.711
N840X24.261
N850X17.832Y61.657
N860X43.746Y98.973
N870X44.568Y99.542
N880X70.480Y62.227
N890G2X70.269Y60.864I-0.822J-0.571
N900G01X63.841Y55.919
N910G2X63.231Y55.711I-0.610J0.793
N920G01X24.261
N930G2X23.651Y55.919I0.000J1.000
N940G01X17.223Y60.864
N950G2X17.011Y62.227I0.610J0.793
N960G01X42.924Y99.542
N970G2X44.568I0.822J-0.571
N980G00Z6.000
N990G00X43.746Y72.675
N1000G01Z-1.000F20.0
N1010G01X44.415Y71.711F500.0
N1020X43.077
N1030X43.746Y72.675
N1040Y74.428
N1050X46.327Y70.711
N1060X41.165
N1070X43.746Y74.428
N1080Y76.181
N1090X48.239Y69.711
N1100X39.253
N1110X43.746Y76.181
N1120Y77.934
N1130X50.150Y68.711
N1140X37.341
N1150X43.746Y77.934
N1160Y79.688
N1170X52.062Y67.711
N1180X35.429
N1190X43.746Y79.688
N1200Y81.441
N1210X53.974Y66.711
N1220X33.517
N1230X43.746Y81.441
N1240Y83.194
N1250X55.886Y65.711
N1260X31.605
N1270X43.746Y83.194
N1280Y84.947
N1290X57.798Y64.711
N1300X29.693
N1310X43.746Y84.947
N1320Y86.700
N1330X59.710Y63.711
N1340X27.782
N1350X43.746Y86.700
N1360Y88.453
N1370X61.472Y62.928
N1380X61.190Y62.711
N1390X26.302
N1400X26.020Y62.928
N1410X43.746Y88.453
N1420Y90.207
N1430X62.836Y62.716
N1440X61.530Y61.711
N1450X25.961
N1460X24.655Y62.716
N1470X43.746Y90.207
N1480Y91.960
N1490X64.201Y62.504
N1500X61.870Y60.711
N1510X25.621
N1520X23.291Y62.504
N1530X43.746Y91.960
N1540Y93.713
N1550X65.565Y62.292
N1560X62.210Y59.711
N1570X25.281
N1580X21.926Y62.292
N1590X43.746Y93.713
N1600Y95.466
N1610X66.930Y62.080
N1620X62.550Y58.711
N1630X24.941
N1640X20.561Y62.080
N1650X43.746Y95.466
N1660Y97.219
N1670X68.295Y61.868
N1680X62.891Y57.711
N1690X24.601
N1700X19.197Y61.868
N1710X43.746Y97.219
N1720Y98.973
N1730X69.659Y61.657
N1740X63.231Y56.711
N1750X24.261
N1760X17.832Y61.657
N1770X43.746Y98.973
N1780X44.568Y99.542
N1790X70.480Y62.227
N1800G2X70.269Y60.864I-0.822J-0.571
N1810G01X63.841Y55.919
N1820G2X63.231Y55.711I-0.610J0.793
N1830G01X24.261
N1840G2X23.651Y55.919I0.000J1.000
N1850G01X17.223Y60.864
N1860G2X17.011Y62.227I0.610J0.793
N1870G01X42.924Y99.542
N1880G2X44.568I0.822J-0.571
N1890G00Z6.000
N1900G00X43.746Y72.675
N1910G01Z-1.500F20.0
N1920G01X44.415Y71.711F500.0
N1930X43.077
N1940X43.746Y72.675
N1950Y74.428
N1960X46.327Y70.711
N1970X41.165
N1980X43.746Y74.428
N1990Y76.181
N2000X48.239Y69.711
N2010X39.253
N2020X43.746Y76.181
N2030Y77.934
N2040X50.150Y68.711
N2050X37.341
N2060X43.746Y77.934
N2070Y79.688
N2080X52.062Y67.711
N2090X35.429
N2100X43.746Y79.688
N2110Y81.441
N2120X53.974Y66.711
N2130X33.517
N2140X43.746Y81.441
N2150Y83.194
N2160X55.886Y65.711
N2170X31.605
N2180X43.746Y83.194
N2190Y84.947
N2200X57.798Y64.711
N2210X29.693
N2220X43.746Y84.947
N2230Y86.700
N2240X59.710Y63.711
N2250X27.782
N2260X43.746Y86.700
N2270Y88.453
N2280X61.472Y62.928
N2290X61.190Y62.711
N2300X26.302
N2310X26.020Y62.928
N2320X43.746Y88.453
N2330Y90.207
N2340X62.836Y62.716
N2350X61.530Y61.711
N2360X25.961
N2370X24.655Y62.716
N2380X43.746Y90.207
N2390Y91.960
N2400X64.201Y62.504
N2410X61.870Y60.711
N2420X25.621
N2430X23.291Y62.504
N2440X43.746Y91.960
N2450Y93.713
N2460X65.565Y62.292
N2470X62.210Y59.711
N2480X25.281
N2490X21.926Y62.292
N2500X43.746Y93.713
N2510Y95.466
N2520X66.930Y62.080
N2530X62.550Y58.711
N2540X24.941
N2550X20.561Y62.080
N2560X43.746Y95.466
N2570Y97.219
N2580X68.295Y61.868
N2590X62.891Y57.711
N2600X24.601
N2610X19.197Y61.868
N2620X43.746Y97.219
N2630Y98.973
N2640X69.659Y61.657
N2650X63.231Y56.711
N2660X24.261
N2670X17.832Y61.657
N2680X43.746Y98.973
N2690X44.568Y99.542
N2700X70.480Y62.227
N2710G2X70.269Y60.864I-0.822J-0.571
N2720G01X63.841Y55.919
N2730G2X63.231Y55.711I-0.610J0.793
N2740G01X24.261
N2750G2X23.651Y55.919I0.000J1.000
N2760G01X17.223Y60.864
N2770G2X17.011Y62.227I0.610J0.793
N2780G01X42.924Y99.542
N2790G2X44.568I0.822J-0.571
N2800G00Z6.000
N2810G00X71.246Y93.108
N2820G01Z-0.500F20.0
N2830G01Y89.174F500.0
N2840X68.514Y93.108
N2850X71.246
N2860X72.246Y94.108
N2870Y85.981
N2880X66.602Y94.108
N2890X72.246
N2900X73.246Y95.108
N2910Y82.787
N2920X64.690Y95.108
N2930X73.246
N2940X74.246Y96.108
N2950Y79.594
N2960X62.778Y96.108
N2970X74.246
N2980X75.246Y97.108
N2990Y76.401
N3000X60.866Y97.108
N3010X75.246
N3020X76.246Y98.108
N3030Y73.208
N3040X58.954Y98.108
N3050X76.246
N3060X77.246Y99.108
N3070Y72.539
N3080X76.104Y71.660
N3090X57.042Y99.108
N3100X77.246
N3110X78.246Y100.108
N3120Y72.047
N3130X75.881Y70.227
N3140X55.131Y100.108
N3150X78.246
N3160X79.246Y101.108
N3170Y71.554
N3180X75.659Y68.795
N3190X53.219Y101.108
N3200X79.246
N3210X80.246Y102.108
N3220Y71.062
N3230X75.436Y67.362
N3240X51.307Y102.108
N3250X80.246
N3260X81.246Y103.108
N3270Y70.570
N3280X75.214Y65.929
N3290X49.395Y103.108
N3300X81.246
N3310X81.246Y104.108
N3320G2X82.246Y103.108I0.000J-1.001
N3330G01Y70.570
N3340G2X81.856Y69.777I-1.001J0.000
N3350G01X75.824Y65.137
N3360G2X74.392Y65.359I-0.610J0.793
N3370G01X48.574Y102.537
N3380G2X49.396Y104.108I0.822J0.571
N3390G01X81.246
N3400G00Z6.000
N3410G00X71.246Y93.108
N3420G01Z-1.000F20.0
N3430G01Y89.174F500.0
N3440X68.514Y93.108
N3450X71.246
N3460X72.246Y94.108
N3470Y85.981
N3480X66.602Y94.108
N3490X72.246
N3500X73.246Y95.108
N3510Y82.787
N3520X64.690Y95.108
N3530X73.246
N3540X74.246Y96.108
N3550Y79.594
N3560X62.778Y96.108
N3570X74.246
N3580X75.246Y97.108
N3590Y76.401
N3600X60.866Y97.108
N3610X75.246
N3620X76.246Y98.108
N3630Y73.208
N3640X58.954Y98.108
N3650X76.246
N3660X77.246Y99.108
N3670Y72.539
N3680X76.104Y71.660
N3690X57.042Y99.108
N3700X77.246
N3710X78.246Y100.108
N3720Y72.047
N3730X75.881Y70.227
N3740X55.131Y100.108
N3750X78.246
N3760X79.246Y101.108
N3770Y71.554
N3780X75.659Y68.795
N3790X53.219Y101.108
N3800X79.246
N3810X80.246Y102.108
N3820Y71.062
N3830X75.436Y67.362
N3840X51.307Y102.108
N3850X80.246
N3860X81.246Y103.108
N3870Y70.570
N3880X75.214Y65.929
N3890X49.395Y103.108
N3900X81.246
N3910X81.246Y104.108
N3920G2X82.246Y103.108I0.000J-1.001
N3930G01Y70.570
N3940G2X81.856Y69.777I-1.001J0.000
N3950G01X75.824Y65.137
N3960G2X74.392Y65.359I-0.610J0.793
N3970G01X48.574Y102.537
N3980G2X49.396Y104.108I0.822J0.571
N3990G01X81.246
N4000G00Z6.000
N4010G00X71.246Y93.108
N4020G01Z-1.500F20.0
N4030G01Y89.174F500.0
N4040X68.514Y93.108
N4050X71.246
N4060X72.246Y94.108
N4070Y85.981
N4080X66.602Y94.108
N4090X72.246
N4100X73.246Y95.108
N4110Y82.787
N4120X64.690Y95.108
N4130X73.246
N4140X74.246Y96.108
N4150Y79.594
N4160X62.778Y96.108
N4170X74.246
N4180X75.246Y97.108
N4190Y76.401
N4200X60.866Y97.108
N4210X75.246
N4220X76.246Y98.108
N4230Y73.208
N4240X58.954Y98.108
N4250X76.246
N4260X77.246Y99.108
N4270Y72.539
N4280X76.104Y71.660
N4290X57.042Y99.108
N4300X77.246
N4310X78.246Y100.108
N4320Y72.047
N4330X75.881Y70.227
N4340X55.131Y100.108
N4350X78.246
N4360X79.246Y101.108
N4370Y71.554
N4380X75.659Y68.795
N4390X53.219Y101.108
N4400X79.246
N4410X80.246Y102.108
N4420Y71.062
N4430X75.436Y67.362
N4440X51.307Y102.108
N4450X80.246
N4460X81.246Y103.108
N4470Y70.570
N4480X75.214Y65.929
N4490X49.395Y103.108
N4500X81.246
N4510X81.246Y104.108
N4520G2X82.246Y103.108I0.000J-1.001
N4530G01Y70.570
N4540G2X81.856Y69.777I-1.001J0.000
N4550G01X75.824Y65.137
N4560G2X74.392Y65.359I-0.610J0.793
N4570G01X48.574Y102.537
N4580G2X49.396Y104.108I0.822J0.571
N4590G01X81.246
N4600G00Z6.000
N4610G00X16.245Y93.108
N4620G01Z-0.500F20.0
N4630G01X18.978F500.0
N4640X16.245Y89.174
N4650Y93.108
N4660X15.245Y94.108
N4670X20.890
N4680X15.245Y85.981
N4690Y94.108
N4700X14.245Y95.108
N4710X22.801
N4720X14.245Y82.787
N4730Y95.108
N4740X13.245Y96.108
N4750X24.713
N4760X13.245Y79.594
N4770Y96.108
N4780X12.245Y97.108
N4790X26.625
N4800X12.245Y76.401
N4810Y97.108
N4820X11.245Y98.108
N4830X28.537
N4840X11.245Y73.208
N4850Y98.108
N4860X10.245Y99.108
N4870X30.449
N4880X11.388Y71.660
N4890X10.245Y72.539
N4900Y99.108
N4910X9.245Y100.108
N4920X32.361
N4930X11.611Y70.227
N4940X9.245Y72.047
N4950Y100.108
N4960X8.245Y101.108
N4970X34.273
N4980X11.833Y68.795
N4990X8.245Y71.554
N5000Y101.108
N5010X7.245Y102.108
N5020X36.185
N5030X12.056Y67.362
N5040X7.245Y71.062
N5050Y102.108
N5060X6.245Y103.108
N5070X38.097
N5080X12.278Y65.929
N5090X6.245Y70.570
N5100Y103.108
N5110X5.245Y103.108
N5120G2X6.246Y104.108I1.000J0.000
N5130G01X38.096
N5140G2X38.918Y102.537I0.000J-1.001
N5150G01X13.100Y65.359
N5160G2X11.668Y65.137I-0.822J0.571
N5170G01X5.636Y69.777
N5180G2X5.245Y70.570I0.610J0.793
N5190G01Y103.108
N5200G00Z6.000
N5210G00X16.245Y93.108
N5220G01Z-1.000F20.0
N5230G01X18.978F500.0
N5240X16.245Y89.174
N5250Y93.108
N5260X15.245Y94.108
N5270X20.890
N5280X15.245Y85.981
N5290Y94.108
N5300X14.245Y95.108
N5310X22.801
N5320X14.245Y82.787
N5330Y95.108
N5340X13.245Y96.108
N5350X24.713
N5360X13.245Y79.594
N5370Y96.108
N5380X12.245Y97.108
N5390X26.625
N5400X12.245Y76.401
N5410Y97.108
N5420X11.245Y98.108
N5430X28.537
N5440X11.245Y73.208
N5450Y98.108
N5460X10.245Y99.108
N5470X30.449
N5480X11.388Y71.660
N5490X10.245Y72.539
N5500Y99.108
N5510X9.245Y100.108
N5520X32.361
N5530X11.611Y70.227
N5540X9.245Y72.047
N5550Y100.108
N5560X8.245Y101.108
N5570X34.273
N5580X11.833Y68.795
N5590X8.245Y71.554
N5600Y101.108
N5610X7.245Y102.108
N5620X36.185
N5630X12.056Y67.362
N5640X7.245Y71.062
N5650Y102.108
N5660X6.245Y103.108
N5670X38.097
N5680X12.278Y65.929
N5690X6.245Y70.570
N5700Y103.108
N5710X5.245Y103.108
N5720G2X6.246Y104.108I1.000J0.000
N5730G01X38.096
N5740G2X38.918Y102.537I0.000J-1.001
N5750G01X13.100Y65.359
N5760G2X11.668Y65.137I-0.822J0.571
N5770G01X5.636Y69.777
N5780G2X5.245Y70.570I0.610J0.793
N5790G01Y103.108
N5800G00Z6.000
N5810G00X16.245Y93.108
N5820G01Z-1.500F20.0
N5830G01X18.978F500.0
N5840X16.245Y89.174
N5850Y93.108
N5860X15.245Y94.108
N5870X20.890
N5880X15.245Y85.981
N5890Y94.108
N5900X14.245Y95.108
N5910X22.801
N5920X14.245Y82.787
N5930Y95.108
N5940X13.245Y96.108
N5950X24.713
N5960X13.245Y79.594
N5970Y96.108
N5980X12.245Y97.108
N5990X26.625
N6000X12.245Y76.401
N6010Y97.108
N6020X11.245Y98.108
N6030X28.537
N6040X11.245Y73.208
N6050Y98.108
N6060X10.245Y99.108
N6070X30.449
N6080X11.388Y71.660
N6090X10.245Y72.539
N6100Y99.108
N6110X9.245Y100.108
N6120X32.361
N6130X11.611Y70.227
N6140X9.245Y72.047
N6150Y100.108
N6160X8.245Y101.108
N6170X34.273
N6180X11.833Y68.795
N6190X8.245Y71.554
N6200Y101.108
N6210X7.245Y102.108
N6220X36.185
N6230X12.056Y67.362
N6240X7.245Y71.062
N6250Y102.108
N6260X6.245Y103.108
N6270X38.097
N6280X12.278Y65.929
N6290X6.245Y70.570
N6300Y103.108
N6310X5.245Y103.108
N6320G2X6.246Y104.108I1.000J0.000
N6330G01X38.096
N6340G2X38.918Y102.537I0.000J-1.001
N6350G01X13.100Y65.359
N6360G2X11.668Y65.137I-0.822J0.571
N6370G01X5.636Y69.777
N6380G2X5.245Y70.570I0.610J0.793
N6390G01Y103.108
N6400G00Z6.000
N6410G00X22.996Y2.608Z6.000
N6420G01Z-0.500F20.0
N6430G3X23.996Y1.608I1.000J0.000F500.0
N6440G01X63.496
N6450G3X64.495Y2.608I0.000J1.000
N6460G01Y9.408
N6470G3X63.496Y10.407I-0.999J0.000
N6480G01X63.395Y10.508
N6490X63.496Y10.608
N6500X64.996
N6510G3X65.995Y11.608I0.000J1.000
N6520G01Y21.608
N6530G3X64.996Y22.607I-0.999J0.000
N6540G01X63.496
N6550X63.395Y22.708
N6560X63.496Y22.808
N6570G3X64.495Y23.808I0.000J1.000
N6580G01Y29.408
N6590G3X63.496Y30.407I-0.999J0.000
N6600G01X63.395Y30.508
N6610X63.496Y30.608
N6620X64.996
N6630G3X65.995Y31.608I0.000J0.999
N6640G01Y39.522
N6650G3X65.314Y40.470I-0.999J0.000
N6660G2X64.495Y41.608I0.382J1.138
N6670G01Y47.776
N6680G2X66.349Y51.542I4.751J0.000
N6690G01X86.855Y67.316
N6700G3X87.245Y68.108I-0.609J0.792
N6710G01Y108.108
N6720G3X86.246Y109.107I-0.999J0.000
N6730G01X1.246
N6740G3X0.246Y108.108I0.000J-1.000
N6750G01Y68.108
N6760G3X0.636Y67.316I0.999J0.000
N6770G01X21.142Y51.542
N6780G2X22.996Y47.776I-2.896J-3.765
N6790G01Y41.608
N6800G2X22.178Y40.470I-1.200J0.000
N6810G3X21.496Y39.522I0.318J-0.948
N6820G01Y31.608
N6830G3X22.496Y30.608I1.000J0.000
N6840G01X23.996
N6850G2Y30.407I0.000J-0.101
N6860G3X22.996Y29.408I0.000J-1.000
N6870G01Y23.808
N6880G3X23.996Y22.808I1.000J0.000
N6890G2Y22.607I0.000J-0.101
N6900G01X22.496
N6910G3X21.496Y21.608I0.000J-1.000
N6920G01Y11.608
N6930G3X22.496Y10.608I1.000J0.000
N6940G01X23.996
N6950G2Y10.407I0.000J-0.101
N6960G3X22.996Y9.408I0.000J-0.999
N6970G01Y2.608
N6980G01Z-1.000F20.0
N6990G3X23.996Y1.608I1.000J0.000F500.0
N7000G01X63.496
N7010G3X64.495Y2.608I0.000J1.000
N7020G01Y9.408
N7030G3X63.496Y10.407I-0.999J0.000
N7040G01X63.395Y10.508
N7050X63.496Y10.608
N7060X64.996
N7070G3X65.995Y11.608I0.000J1.000
N7080G01Y21.608
N7090G3X64.996Y22.607I-0.999J0.000
N7100G01X63.496
N7110X63.395Y22.708
N7120X63.496Y22.808
N7130G3X64.495Y23.808I0.000J1.000
N7140G01Y29.408
N7150G3X63.496Y30.407I-0.999J0.000
N7160G01X63.395Y30.508
N7170X63.496Y30.608
N7180X64.996
N7190G3X65.995Y31.608I0.000J0.999
N7200G01Y39.522
N7210G3X65.314Y40.470I-0.999J0.000
N7220G2X64.495Y41.608I0.382J1.138
N7230G01Y47.776
N7240G2X66.349Y51.542I4.751J0.000
N7250G01X86.855Y67.316
N7260G3X87.245Y68.108I-0.609J0.792
N7270G01Y108.108
N7280G3X86.246Y109.107I-0.999J0.000
N7290G01X1.246
N7300G3X0.246Y108.108I0.000J-1.000
N7310G01Y68.108
N7320G3X0.636Y67.316I0.999J0.000
N7330G01X21.142Y51.542
N7340G2X22.996Y47.776I-2.896J-3.765
N7350G01Y41.608
N7360G2X22.178Y40.470I-1.200J0.000
N7370G3X21.496Y39.522I0.318J-0.948
N7380G01Y31.608
N7390G3X22.496Y30.608I1.000J0.000
N7400G01X23.996
N7410G2Y30.407I0.000J-0.101
N7420G3X22.996Y29.408I0.000J-1.000
N7430G01Y23.808
N7440G3X23.996Y22.808I1.000J0.000
N7450G2Y22.607I0.000J-0.101
N7460G01X22.496
N7470G3X21.496Y21.608I0.000J-1.000
N7480G01Y11.608
N7490G3X22.496Y10.608I1.000J0.000
N7500G01X23.996
N7510G2Y10.407I0.000J-0.101
N7520G3X22.996Y9.408I0.000J-0.999
N7530G01Y2.608
N7540G01Z-1.500F20.0
N7550G3X23.996Y1.608I1.000J0.000F500.0
N7560G01X63.496
N7570G3X64.495Y2.608I0.000J1.000
N7580G01Y9.408
N7590G3X63.496Y10.407I-0.999J0.000
N7600G01X63.395Y10.508
N7610X63.496Y10.608
N7620X64.996
N7630G3X65.995Y11.608I0.000J1.000
N7640G01Y21.608
N7650G3X64.996Y22.607I-0.999J0.000
N7660G01X63.496
N7670X63.395Y22.708
N7680X63.496Y22.808
N7690G3X64.495Y23.808I0.000J1.000
N7700G01Y29.408
N7710G3X63.496Y30.407I-0.999J0.000
N7720G01X63.395Y30.508
N7730X63.496Y30.608
N7740X64.996
N7750G3X65.995Y31.608I0.000J0.999
N7760G01Y39.522
N7770G3X65.314Y40.470I-0.999J0.000
N7780G2X64.495Y41.608I0.382J1.138
N7790G01Y47.776
N7800G2X66.349Y51.542I4.751J0.000
N7810G01X86.855Y67.316
N7820G3X87.245Y68.108I-0.609J0.792
N7830G01Y108.108
N7840G3X86.246Y109.107I-0.999J0.000
N7850G01X1.246
N7860G3X0.246Y108.108I0.000J-1.000
N7870G01Y68.108
N7880G3X0.636Y67.316I0.999J0.000
N7890G01X21.142Y51.542
N7900G2X22.996Y47.776I-2.896J-3.765
N7910G01Y41.608
N7920G2X22.178Y40.470I-1.200J0.000
N7930G3X21.496Y39.522I0.318J-0.948
N7940G01Y31.608
N7950G3X22.496Y30.608I1.000J0.000
N7960G01X23.996
N7970G2Y30.407I0.000J-0.101
N7980G3X22.996Y29.408I0.000J-1.000
N7990G01Y23.808
N8000G3X23.996Y22.808I1.000J0.000
N8010G2Y22.607I0.000J-0.101
N8020G01X22.496
N8030G3X21.496Y21.608I0.000J-1.000
N8040G01Y11.608
N8050G3X22.496Y10.608I1.000J0.000
N8060G01X23.996
N8070G2Y10.407I0.000J-0.101
N8080G3X22.996Y9.408I0.000J-0.999
N8090G01Y2.608
N8100G01Z-2.000F20.0
N8110G3X23.996Y1.608I1.000J0.000F500.0
N8120G01X63.496
N8130G3X64.495Y2.608I0.000J1.000
N8140G01Y9.408
N8150G3X63.496Y10.407I-0.999J0.000
N8160G01X63.395Y10.508
N8170X63.496Y10.608
N8180X64.996
N8190G3X65.995Y11.608I0.000J1.000
N8200G01Y21.608
N8210G3X64.996Y22.607I-0.999J0.000
N8220G01X63.496
N8230X63.395Y22.708
N8240X63.496Y22.808
N8250G3X64.495Y23.808I0.000J1.000
N8260G01Y29.408
N8270G3X63.496Y30.407I-0.999J0.000
N8280G01X63.395Y30.508
N8290X63.496Y30.608
N8300X64.996
N8310G3X65.995Y31.608I0.000J0.999
N8320G01Y39.522
N8330G3X65.314Y40.470I-0.999J0.000
N8340G2X64.495Y41.608I0.382J1.138
N8350G01Y47.776
N8360G2X66.349Y51.542I4.751J0.000
N8370G01X86.855Y67.316
N8380G3X87.245Y68.108I-0.609J0.792
N8390G01Y108.108
N8400G3X86.246Y109.107I-0.999J0.000
N8410G01X1.246
N8420G3X0.246Y108.108I0.000J-1.000
N8430G01Y68.108
N8440G3X0.636Y67.316I0.999J0.000
N8450G01X21.142Y51.542
N8460G2X22.996Y47.776I-2.896J-3.765
N8470G01Y41.608
N8480G2X22.178Y40.470I-1.200J0.000
N8490G3X21.496Y39.522I0.318J-0.948
N8500G01Y31.608
N8510G3X22.496Y30.608I1.000J0.000
N8520G01X23.996
N8530G2Y30.407I0.000J-0.101
N8540G3X22.996Y29.408I0.000J-1.000
N8550G01Y23.808
N8560G3X23.996Y22.808I1.000J0.000
N8570G2Y22.607I0.000J-0.101
N8580G01X22.496
N8590G3X21.496Y21.608I0.000J-1.000
N8600G01Y11.608
N8610G3X22.496Y10.608I1.000J0.000
N8620G01X23.996
N8630G2Y10.407I0.000J-0.101
N8640G3X22.996Y9.408I0.000J-0.999
N8650G01Y2.608
N8660G01Z-2.500F20.0
N8670G3X23.996Y1.608I1.000J0.000F500.0
N8680G01X63.496
N8690G3X64.495Y2.608I0.000J1.000
N8700G01Y9.408
N8710G3X63.496Y10.407I-0.999J0.000
N8720G01X63.395Y10.508
N8730X63.496Y10.608
N8740X64.996
N8750G3X65.995Y11.608I0.000J1.000
N8760G01Y21.608
N8770G3X64.996Y22.607I-0.999J0.000
N8780G01X63.496
N8790X63.395Y22.708
N8800X63.496Y22.808
N8810G3X64.495Y23.808I0.000J1.000
N8820G01Y29.408
N8830G3X63.496Y30.407I-0.999J0.000
N8840G01X63.395Y30.508
N8850X63.496Y30.608
N8860X64.996
N8870G3X65.995Y31.608I0.000J0.999
N8880G01Y39.522
N8890G3X65.314Y40.470I-0.999J0.000
N8900G2X64.495Y41.608I0.382J1.138
N8910G01Y47.776
N8920G2X66.349Y51.542I4.751J0.000
N8930G01X86.855Y67.316
N8940G3X87.245Y68.108I-0.609J0.792
N8950G01Y108.108
N8960G3X86.246Y109.107I-0.999J0.000
N8970G01X1.246
N8980G3X0.246Y108.108I0.000J-1.000
N8990G01Y68.108
N9000G3X0.636Y67.316I0.999J0.000
N9010G01X21.142Y51.542
N9020G2X22.996Y47.776I-2.896J-3.765
N9030G01Y41.608
N9040G2X22.178Y40.470I-1.200J0.000
N9050G3X21.496Y39.522I0.318J-0.948
N9060G01Y31.608
N9070G3X22.496Y30.608I1.000J0.000
N9080G01X23.996
N9090G2Y30.407I0.000J-0.101
N9100G3X22.996Y29.408I0.000J-1.000
N9110G01Y23.808
N9120G3X23.996Y22.808I1.000J0.000
N9130G2Y22.607I0.000J-0.101
N9140G01X22.496
N9150G3X21.496Y21.608I0.000J-1.000
N9160G01Y11.608
N9170G3X22.496Y10.608I1.000J0.000
N9180G01X23.996
N9190G2Y10.407I0.000J-0.101
N9200G3X22.996Y9.408I0.000J-0.999
N9210G01Y2.608
N9220G01Z-3.000F20.0
N9230G3X23.996Y1.608I1.000J0.000F500.0
N9240G01X63.496
N9250G3X64.495Y2.608I0.000J1.000
N9260G01Y9.408
N9270G3X63.496Y10.407I-0.999J0.000
N9280G01X63.395Y10.508
N9290X63.496Y10.608
N9300X64.996
N9310G3X65.995Y11.608I0.000J1.000
N9320G01Y21.608
N9330G3X64.996Y22.607I-0.999J0.000
N9340G01X63.496
N9350X63.395Y22.708
N9360X63.496Y22.808
N9370G3X64.495Y23.808I0.000J1.000
N9380G01Y29.408
N9390G3X63.496Y30.407I-0.999J0.000
N9400G01X63.395Y30.508
N9410X63.496Y30.608
N9420X64.996
N9430G3X65.995Y31.608I0.000J0.999
N9440G01Y39.522
N9450G3X65.314Y40.470I-0.999J0.000
N9460G2X64.495Y41.608I0.382J1.138
N9470G01Y47.776
N9480G2X66.349Y51.542I4.751J0.000
N9490G01X86.855Y67.316
N9500G3X87.245Y68.108I-0.609J0.792
N9510G01Y108.108
N9520G3X86.246Y109.107I-0.999J0.000
N9530G01X1.246
N9540G3X0.246Y108.108I0.000J-1.000
N9550G01Y68.108
N9560G3X0.636Y67.316I0.999J0.000
N9570G01X21.142Y51.542
N9580G2X22.996Y47.776I-2.896J-3.765
N9590G01Y41.608
N9600G2X22.178Y40.470I-1.200J0.000
N9610G3X21.496Y39.522I0.318J-0.948
N9620G01Y31.608
N9630G3X22.496Y30.608I1.000J0.000
N9640G01X23.996
N9650G2Y30.407I0.000J-0.101
N9660G3X22.996Y29.408I0.000J-1.000
N9670G01Y23.808
N9680G3X23.996Y22.808I1.000J0.000
N9690G2Y22.607I0.000J-0.101
N9700G01X22.496
N9710G3X21.496Y21.608I0.000J-1.000
N9720G01Y11.608
N9730G3X22.496Y10.608I1.000J0.000
N9740G01X23.996
N9750G2Y10.407I0.000J-0.101
N9760G3X22.996Y9.408I0.000J-0.999
N9770G01Y2.608
N9780G00Z6.000
N9790G00X87.092Y59.174
N9800G01Z-0.500F20.0
N9810G01X66.586Y43.400F500.0
N9820G3X66.196Y42.608I0.609J-0.792
N9830G01Y2.608
N9840G3X67.196Y1.608I0.999J0.000
N9850G01X152.196
N9860G3X153.195Y2.608I0.000J1.000
N9870G01Y42.608
N9880G3X152.805Y43.400I-0.999J0.000
N9890G01X132.299Y59.174
N9900G2X130.445Y62.939I2.896J3.765
N9910G01Y69.108
N9920G2X131.264Y70.246I1.201J0.000
N9930G3X131.945Y71.193I-0.318J0.948
N9940G01Y79.108
N9950G3X130.946Y80.107I-0.999J0.000
N9960G01X129.446
N9970G2Y80.308I0.000J0.101
N9980G3X130.445Y81.308I0.000J1.000
N9990G01Y86.908
N10000G3X129.446Y87.907I-0.999J0.000
N10010G01X129.345Y88.008
N10020X129.446Y88.108
N10030X130.946
N10040G3X131.945Y89.108I0.000J0.999
N10050G01Y99.108
N10060G3X130.946Y100.107I-0.999J0.000
N10070G01X129.446
N10080X129.345Y100.208
N10090X129.446Y100.308
N10100G3X130.445Y101.308I0.000J1.000
N10110G01Y108.108
N10120G3X129.446Y109.107I-0.999J0.000
N10130G01X89.946
N10140G3X88.946Y108.108I0.000J-1.000
N10150G01Y101.308
N10160G3X89.946Y100.308I0.999J0.000
N10170G01X90.046Y100.208
N10180X89.946Y100.107
N10190X88.446
N10200G3X87.446Y99.108I0.000J-1.000
N10210G01Y89.108
N10220G3X88.446Y88.108I0.999J0.000
N10230G01X89.946
N10240X90.046Y88.008
N10250X89.946Y87.907
N10260G3X88.946Y86.908I0.000J-0.999
N10270G01Y81.308
N10280G3X89.946Y80.308I0.999J0.000
N10290G01X90.046Y80.208
N10300X89.946Y80.107
N10310X88.446
N10320G3X87.446Y79.108I0.000J-1.000
N10330G01Y71.193
N10340G3X88.128Y70.246I0.999J0.000
N10350G2X88.946Y69.108I-0.382J-1.138
N10360G01Y62.939
N10370G2X87.092Y59.174I-4.751J0.000
N10380G01Z-1.000F20.0
N10390G01X66.586Y43.400F500.0
N10400G3X66.196Y42.608I0.609J-0.792
N10410G01Y2.608
N10420G3X67.196Y1.608I0.999J0.000
N10430G01X152.196
N10440G3X153.195Y2.608I0.000J1.000
N10450G01Y42.608
N10460G3X152.805Y43.400I-0.999J0.000
N10470G01X132.299Y59.174
N10480G2X130.445Y62.939I2.896J3.765
N10490G01Y69.108
N10500G2X131.264Y70.246I1.201J0.000
N10510G3X131.945Y71.193I-0.318J0.948
N10520G01Y79.108
N10530G3X130.946Y80.107I-0.999J0.000
N10540G01X129.446
N10550G2Y80.308I0.000J0.101
N10560G3X130.445Y81.308I0.000J1.000
N10570G01Y86.908
N10580G3X129.446Y87.907I-0.999J0.000
N10590G01X129.345Y88.008
N10600X129.446Y88.108
N10610X130.946
N10620G3X131.945Y89.108I0.000J0.999
N10630G01Y99.108
N10640G3X130.946Y100.107I-0.999J0.000
N10650G01X129.446
N10660X129.345Y100.208
N10670X129.446Y100.308
N10680G3X130.445Y101.308I0.000J1.000
N10690G01Y108.108
N10700G3X129.446Y109.107I-0.999J0.000
N10710G01X89.946
N10720G3X88.946Y108.108I0.000J-1.000
N10730G01Y101.308
N10740G3X89.946Y100.308I0.999J0.000
N10750G01X90.046Y100.208
N10760X89.946Y100.107
N10770X88.446
N10780G3X87.446Y99.108I0.000J-1.000
N10790G01Y89.108
N10800G3X88.446Y88.108I0.999J0.000
N10810G01X89.946
N10820X90.046Y88.008
N10830X89.946Y87.907
N10840G3X88.946Y86.908I0.000J-0.999
N10850G01Y81.308
N10860G3X89.946Y80.308I0.999J0.000
N10870G01X90.046Y80.208
N10880X89.946Y80.107
N10890X88.446
N10900G3X87.446Y79.108I0.000J-1.000
N10910G01Y71.193
N10920G3X88.128Y70.246I0.999J0.000
N10930G2X88.946Y69.108I-0.382J-1.138
N10940G01Y62.939
N10950G2X87.092Y59.174I-4.751J0.000
N10960G01Z-1.500F20.0
N10970G01X66.586Y43.400F500.0
N10980G3X66.196Y42.608I0.609J-0.792
N10990G01Y2.608
N11000G3X67.196Y1.608I0.999J0.000
N11010G01X152.196
N11020G3X153.195Y2.608I0.000J1.000
N11030G01Y42.608
N11040G3X152.805Y43.400I-0.999J0.000
N11050G01X132.299Y59.174
N11060G2X130.445Y62.939I2.896J3.765
N11070G01Y69.108
N11080G2X131.264Y70.246I1.201J0.000
N11090G3X131.945Y71.193I-0.318J0.948
N11100G01Y79.108
N11110G3X130.946Y80.107I-0.999J0.000
N11120G01X129.446
N11130G2Y80.308I0.000J0.101
N11140G3X130.445Y81.308I0.000J1.000
N11150G01Y86.908
N11160G3X129.446Y87.907I-0.999J0.000
N11170G01X129.345Y88.008
N11180X129.446Y88.108
N11190X130.946
N11200G3X131.945Y89.108I0.000J0.999
N11210G01Y99.108
N11220G3X130.946Y100.107I-0.999J0.000
N11230G01X129.446
N11240X129.345Y100.208
N11250X129.446Y100.308
N11260G3X130.445Y101.308I0.000J1.000
N11270G01Y108.108
N11280G3X129.446Y109.107I-0.999J0.000
N11290G01X89.946
N11300G3X88.946Y108.108I0.000J-1.000
N11310G01Y101.308
N11320G3X89.946Y100.308I0.999J0.000
N11330G01X90.046Y100.208
N11340X89.946Y100.107
N11350X88.446
N11360G3X87.446Y99.108I0.000J-1.000
N11370G01Y89.108
N11380G3X88.446Y88.108I0.999J0.000
N11390G01X89.946
N11400X90.046Y88.008
N11410X89.946Y87.907
N11420G3X88.946Y86.908I0.000J-0.999
N11430G01Y81.308
N11440G3X89.946Y80.308I0.999J0.000
N11450G01X90.046Y80.208
N11460X89.946Y80.107
N11470X88.446
N11480G3X87.446Y79.108I0.000J-1.000
N11490G01Y71.193
N11500G3X88.128Y70.246I0.999J0.000
N11510G2X88.946Y69.108I-0.382J-1.138
N11520G01Y62.939
N11530G2X87.092Y59.174I-4.751J0.000
N11540G01Z-2.000F20.0
N11550G01X66.586Y43.400F500.0
N11560G3X66.196Y42.608I0.609J-0.792
N11570G01Y2.608
N11580G3X67.196Y1.608I0.999J0.000
N11590G01X152.196
N11600G3X153.195Y2.608I0.000J1.000
N11610G01Y42.608
N11620G3X152.805Y43.400I-0.999J0.000
N11630G01X132.299Y59.174
N11640G2X130.445Y62.939I2.896J3.765
N11650G01Y69.108
N11660G2X131.264Y70.246I1.201J0.000
N11670G3X131.945Y71.193I-0.318J0.948
N11680G01Y79.108
N11690G3X130.946Y80.107I-0.999J0.000
N11700G01X129.446
N11710G2Y80.308I0.000J0.101
N11720G3X130.445Y81.308I0.000J1.000
N11730G01Y86.908
N11740G3X129.446Y87.907I-0.999J0.000
N11750G01X129.345Y88.008
N11760X129.446Y88.108
N11770X130.946
N11780G3X131.945Y89.108I0.000J0.999
N11790G01Y99.108
N11800G3X130.946Y100.107I-0.999J0.000
N11810G01X129.446
N11820X129.345Y100.208
N11830X129.446Y100.308
N11840G3X130.445Y101.308I0.000J1.000
N11850G01Y108.108
N11860G3X129.446Y109.107I-0.999J0.000
N11870G01X89.946
N11880G3X88.946Y108.108I0.000J-1.000
N11890G01Y101.308
N11900G3X89.946Y100.308I0.999J0.000
N11910G01X90.046Y100.208
N11920X89.946Y100.107
N11930X88.446
N11940G3X87.446Y99.108I0.000J-1.000
N11950G01Y89.108
N11960G3X88.446Y88.108I0.999J0.000
N11970G01X89.946
N11980X90.046Y88.008
N11990X89.946Y87.907
N12000G3X88.946Y86.908I0.000J-0.999
N12010G01Y81.308
N12020G3X89.946Y80.308I0.999J0.000
N12030G01X90.046Y80.208
N12040X89.946Y80.107
N12050X88.446
N12060G3X87.446Y79.108I0.000J-1.000
N12070G01Y71.193
N12080G3X88.128Y70.246I0.999J0.000
N12090G2X88.946Y69.108I-0.382J-1.138
N12100G01Y62.939
N12110G2X87.092Y59.174I-4.751J0.000
N12120G01Z-2.500F20.0
N12130G01X66.586Y43.400F500.0
N12140G3X66.196Y42.608I0.609J-0.792
N12150G01Y2.608
N12160G3X67.196Y1.608I0.999J0.000
N12170G01X152.196
N12180G3X153.195Y2.608I0.000J1.000
N12190G01Y42.608
N12200G3X152.805Y43.400I-0.999J0.000
N12210G01X132.299Y59.174
N12220G2X130.445Y62.939I2.896J3.765
N12230G01Y69.108
N12240G2X131.264Y70.246I1.201J0.000
N12250G3X131.945Y71.193I-0.318J0.948
N12260G01Y79.108
N12270G3X130.946Y80.107I-0.999J0.000
N12280G01X129.446
N12290G2Y80.308I0.000J0.101
N12300G3X130.445Y81.308I0.000J1.000
N12310G01Y86.908
N12320G3X129.446Y87.907I-0.999J0.000
N12330G01X129.345Y88.008
N12340X129.446Y88.108
N12350X130.946
N12360G3X131.945Y89.108I0.000J0.999
N12370G01Y99.108
N12380G3X130.946Y100.107I-0.999J0.000
N12390G01X129.446
N12400X129.345Y100.208
N12410X129.446Y100.308
N12420G3X130.445Y101.308I0.000J1.000
N12430G01Y108.108
N12440G3X129.446Y109.107I-0.999J0.000
N12450G01X89.946
N12460G3X88.946Y108.108I0.000J-1.000
N12470G01Y101.308
N12480G3X89.946Y100.308I0.999J0.000
N12490G01X90.046Y100.208
N12500X89.946Y100.107
N12510X88.446
N12520G3X87.446Y99.108I0.000J-1.000
N12530G01Y89.108
N12540G3X88.446Y88.108I0.999J0.000
N12550G01X89.946
N12560X90.046Y88.008
N12570X89.946Y87.907
N12580G3X88.946Y86.908I0.000J-0.999
N12590G01Y81.308
N12600G3X89.946Y80.308I0.999J0.000
N12610G01X90.046Y80.208
N12620X89.946Y80.107
N12630X88.446
N12640G3X87.446Y79.108I0.000J-1.000
N12650G01Y71.193
N12660G3X88.128Y70.246I0.999J0.000
N12670G2X88.946Y69.108I-0.382J-1.138
N12680G01Y62.939
N12690G2X87.092Y59.174I-4.751J0.000
N12700G01Z-3.000F20.0
N12710G01X66.586Y43.400F500.0
N12720G3X66.196Y42.608I0.609J-0.792
N12730G01Y2.608
N12740G3X67.196Y1.608I0.999J0.000
N12750G01X152.196
N12760G3X153.195Y2.608I0.000J1.000
N12770G01Y42.608
N12780G3X152.805Y43.400I-0.999J0.000
N12790G01X132.299Y59.174
N12800G2X130.445Y62.939I2.896J3.765
N12810G01Y69.108
N12820G2X131.264Y70.246I1.201J0.000
N12830G3X131.945Y71.193I-0.318J0.948
N12840G01Y79.108
N12850G3X130.946Y80.107I-0.999J0.000
N12860G01X129.446
N12870G2Y80.308I0.000J0.101
N12880G3X130.445Y81.308I0.000J1.000
N12890G01Y86.908
N12900G3X129.446Y87.907I-0.999J0.000
N12910G01X129.345Y88.008
N12920X129.446Y88.108
N12930X130.946
N12940G3X131.945Y89.108I0.000J0.999
N12950G01Y99.108
N12960G3X130.946Y100.107I-0.999J0.000
N12970G01X129.446
N12980X129.345Y100.208
N12990X129.446Y100.308
N13000G3X130.445Y101.308I0.000J1.000
N13010G01Y108.108
N13020G3X129.446Y109.107I-0.999J0.000
N13030G01X89.946
N13040G3X88.946Y108.108I0.000J-1.000
N13050G01Y101.308
N13060G3X89.946Y100.308I0.999J0.000
N13070G01X90.046Y100.208
N13080X89.946Y100.107
N13090X88.446
N13100G3X87.446Y99.108I0.000J-1.000
N13110G01Y89.108
N13120G3X88.446Y88.108I0.999J0.000
N13130G01X89.946
N13140X90.046Y88.008
N13150X89.946Y87.907
N13160G3X88.946Y86.908I0.000J-0.999
N13170G01Y81.308
N13180G3X89.946Y80.308I0.999J0.000
N13190G01X90.046Y80.208
N13200X89.946Y80.107
N13210X88.446
N13220G3X87.446Y79.108I0.000J-1.000
N13230G01Y71.193
N13240G3X88.128Y70.246I0.999J0.000
N13250G2X88.946Y69.108I-0.382J-1.138
N13260G01Y62.939
N13270G2X87.092Y59.174I-4.751J0.000
N13280G00Z6.000
N13290G00Z20.000
N13300G00X0.000Y0.000
N13310M09
N13320M30
%
