( Pocket 1 )
( USBCNC Postprocessor )
N20G00G21G17G90G40G49
N30G80
N40G00G43Z20.000H1
N50S1000M03
N60G94
N70X0.000Y0.000F500.0
N80G00X46.266Y10.388Z6.000
N90G01Z-0.450F20.0
N100G01X47.192Y12.361F500.0
N110X48.118Y10.388
N120X46.266
N130X44.692Y9.388
N140X47.192Y14.715
N150X49.692Y9.388
N160X44.692
N170X43.118Y8.388
N180X47.192Y17.069
N190X51.266Y8.388
N200X43.118
N210X41.544Y7.388
N220X47.192Y19.423
N230X52.839Y7.388
N240X41.544
N250X41.545Y6.388
N260G2X40.639Y7.813I0.000J1.001
N270G01X46.286Y19.847
N280G2X48.097I0.906J-0.425
N290G01X53.744Y7.813
N300G2X52.839Y6.388I-0.906J-0.425
N310G01X41.545
N320G00Z6.000
N330G00X46.266Y10.388
N340G01Z-0.900F20.0
N350G01X47.192Y12.361F500.0
N360X48.118Y10.388
N370X46.266
N380X44.692Y9.388
N390X47.192Y14.715
N400X49.692Y9.388
N410X44.692
N420X43.118Y8.388
N430X47.192Y17.069
N440X51.266Y8.388
N450X43.118
N460X41.544Y7.388
N470X47.192Y19.423
N480X52.839Y7.388
N490X41.544
N500X41.545Y6.388
N510G2X40.639Y7.813I0.000J1.001
N520G01X46.286Y19.847
N530G2X48.097I0.906J-0.425
N540G01X53.744Y7.813
N550G2X52.839Y6.388I-0.906J-0.425
N560G01X41.545
N570G00Z6.000
N580G00X46.266Y10.388
N590G01Z-1.350F20.0
N600G01X47.192Y12.361F500.0
N610X48.118Y10.388
N620X46.266
N630X44.692Y9.388
N640X47.192Y14.715
N650X49.692Y9.388
N660X44.692
N670X43.118Y8.388
N680X47.192Y17.069
N690X51.266Y8.388
N700X43.118
N710X41.544Y7.388
N720X47.192Y19.423
N730X52.839Y7.388
N740X41.544
N750X41.545Y6.388
N760G2X40.639Y7.813I0.000J1.001
N770G01X46.286Y19.847
N780G2X48.097I0.906J-0.425
N790G01X53.744Y7.813
N800G2X52.839Y6.388I-0.906J-0.425
N810G01X41.545
N820G00Z6.000
N830G00X46.266Y10.388
N840G01Z-1.800F20.0
N850G01X47.192Y12.361F500.0
N860X48.118Y10.388
N870X46.266
N880X44.692Y9.388
N890X47.192Y14.715
N900X49.692Y9.388
N910X44.692
N920X43.118Y8.388
N930X47.192Y17.069
N940X51.266Y8.388
N950X43.118
N960X41.544Y7.388
N970X47.192Y19.423
N980X52.839Y7.388
N990X41.544
N1000X41.545Y6.388
N1010G2X40.639Y7.813I0.000J1.001
N1020G01X46.286Y19.847
N1030G2X48.097I0.906J-0.425
N1040G01X53.744Y7.813
N1050G2X52.839Y6.388I-0.906J-0.425
N1060G01X41.545
N1070G00Z6.000
N1080G00X46.266Y10.388
N1090G01Z-2.250F20.0
N1100G01X47.192Y12.361F500.0
N1110X48.118Y10.388
N1120X46.266
N1130X44.692Y9.388
N1140X47.192Y14.715
N1150X49.692Y9.388
N1160X44.692
N1170X43.118Y8.388
N1180X47.192Y17.069
N1190X51.266Y8.388
N1200X43.118
N1210X41.544Y7.388
N1220X47.192Y19.423
N1230X52.839Y7.388
N1240X41.544
N1250X41.545Y6.388
N1260G2X40.639Y7.813I0.000J1.001
N1270G01X46.286Y19.847
N1280G2X48.097I0.906J-0.425
N1290G01X53.744Y7.813
N1300G2X52.839Y6.388I-0.906J-0.425
N1310G01X41.545
N1320G00Z6.000
N1330G00X46.266Y10.388
N1340G01Z-2.700F20.0
N1350G01X47.192Y12.361F500.0
N1360X48.118Y10.388
N1370X46.266
N1380X44.692Y9.388
N1390X47.192Y14.715
N1400X49.692Y9.388
N1410X44.692
N1420X43.118Y8.388
N1430X47.192Y17.069
N1440X51.266Y8.388
N1450X43.118
N1460X41.544Y7.388
N1470X47.192Y19.423
N1480X52.839Y7.388
N1490X41.544
N1500X41.545Y6.388
N1510G2X40.639Y7.813I0.000J1.001
N1520G01X46.286Y19.847
N1530G2X48.097I0.906J-0.425
N1540G01X53.744Y7.813
N1550G2X52.839Y6.388I-0.906J-0.425
N1560G01X41.545
N1570G00Z6.000
N1580G00X52.714Y26.484
N1590G01Z-0.450F20.0
N1600G01X53.091Y27.288F500.0
N1610Y25.680
N1620X52.714Y26.484
N1630X51.610
N1640X54.091Y31.773
N1650Y21.195
N1660X51.610Y26.484
N1670X50.505
N1680X55.091Y36.258
N1690Y16.710
N1700X50.505Y26.484
N1710X49.600Y26.909
N1720X54.185Y36.680
N1730G2X56.091Y36.255I0.906J-0.425
N1740G01Y16.713
N1750G2X54.185Y16.287I-1.000J0.000
N1760G01X49.600Y26.059
N1770G2Y26.909I0.906J0.425
N1780G00Z6.000
N1790G00X52.714Y26.484
N1800G01Z-0.900F20.0
N1810G01X53.091Y27.288F500.0
N1820Y25.680
N1830X52.714Y26.484
N1840X51.610
N1850X54.091Y31.773
N1860Y21.195
N1870X51.610Y26.484
N1880X50.505
N1890X55.091Y36.258
N1900Y16.710
N1910X50.505Y26.484
N1920X49.600Y26.909
N1930X54.185Y36.680
N1940G2X56.091Y36.255I0.906J-0.425
N1950G01Y16.713
N1960G2X54.185Y16.287I-1.000J0.000
N1970G01X49.600Y26.059
N1980G2Y26.909I0.906J0.425
N1990G00Z6.000
N2000G00X52.714Y26.484
N2010G01Z-1.350F20.0
N2020G01X53.091Y27.288F500.0
N2030Y25.680
N2040X52.714Y26.484
N2050X51.610
N2060X54.091Y31.773
N2070Y21.195
N2080X51.610Y26.484
N2090X50.505
N2100X55.091Y36.258
N2110Y16.710
N2120X50.505Y26.484
N2130X49.600Y26.909
N2140X54.185Y36.680
N2150G2X56.091Y36.255I0.906J-0.425
N2160G01Y16.713
N2170G2X54.185Y16.287I-1.000J0.000
N2180G01X49.600Y26.059
N2190G2Y26.909I0.906J0.425
N2200G00Z6.000
N2210G00X52.714Y26.484
N2220G01Z-1.800F20.0
N2230G01X53.091Y27.288F500.0
N2240Y25.680
N2250X52.714Y26.484
N2260X51.610
N2270X54.091Y31.773
N2280Y21.195
N2290X51.610Y26.484
N2300X50.505
N2310X55.091Y36.258
N2320Y16.710
N2330X50.505Y26.484
N2340X49.600Y26.909
N2350X54.185Y36.680
N2360G2X56.091Y36.255I0.906J-0.425
N2370G01Y16.713
N2380G2X54.185Y16.287I-1.000J0.000
N2390G01X49.600Y26.059
N2400G2Y26.909I0.906J0.425
N2410G00Z6.000
N2420G00X52.714Y26.484
N2430G01Z-2.250F20.0
N2440G01X53.091Y27.288F500.0
N2450Y25.680
N2460X52.714Y26.484
N2470X51.610
N2480X54.091Y31.773
N2490Y21.195
N2500X51.610Y26.484
N2510X50.505
N2520X55.091Y36.258
N2530Y16.710
N2540X50.505Y26.484
N2550X49.600Y26.909
N2560X54.185Y36.680
N2570G2X56.091Y36.255I0.906J-0.425
N2580G01Y16.713
N2590G2X54.185Y16.287I-1.000J0.000
N2600G01X49.600Y26.059
N2610G2Y26.909I0.906J0.425
N2620G00Z6.000
N2630G00X52.714Y26.484
N2640G01Z-2.700F20.0
N2650G01X53.091Y27.288F500.0
N2660Y25.680
N2670X52.714Y26.484
N2680X51.610
N2690X54.091Y31.773
N2700Y21.195
N2710X51.610Y26.484
N2720X50.505
N2730X55.091Y36.258
N2740Y16.710
N2750X50.505Y26.484
N2760X49.600Y26.909
N2770X54.185Y36.680
N2780G2X56.091Y36.255I0.906J-0.425
N2790G01Y16.713
N2800G2X54.185Y16.287I-1.000J0.000
N2810G01X49.600Y26.059
N2820G2Y26.909I0.906J0.425
N2830G00Z6.000
N2840G00X48.119Y42.583
N2850G01Z-0.450F20.0
N2860G01X47.192Y40.607F500.0
N2870X46.264Y42.583
N2880X48.119
N2890X49.693Y43.583
N2900X47.192Y38.253
N2910X44.690Y43.583
N2920X49.693
N2930X51.267Y44.583
N2940X47.192Y35.899
N2950X43.117Y44.583
N2960X51.267
N2970X52.841Y45.583
N2980X47.192Y33.545
N2990X41.543Y45.583
N3000X52.841
N3010X52.840Y46.583
N3020G2X53.746Y45.157I0.000J-1.000
N3030G01X48.097Y33.121
N3040G2X46.286I-0.906J0.425
N3050G01X40.638Y45.157
N3060G2X41.543Y46.583I0.906J0.425
N3070G01X52.840
N3080G00Z6.000
N3090G00X48.119Y42.583
N3100G01Z-0.900F20.0
N3110G01X47.192Y40.607F500.0
N3120X46.264Y42.583
N3130X48.119
N3140X49.693Y43.583
N3150X47.192Y38.253
N3160X44.690Y43.583
N3170X49.693
N3180X51.267Y44.583
N3190X47.192Y35.899
N3200X43.117Y44.583
N3210X51.267
N3220X52.841Y45.583
N3230X47.192Y33.545
N3240X41.543Y45.583
N3250X52.841
N3260X52.840Y46.583
N3270G2X53.746Y45.157I0.000J-1.000
N3280G01X48.097Y33.121
N3290G2X46.286I-0.906J0.425
N3300G01X40.638Y45.157
N3310G2X41.543Y46.583I0.906J0.425
N3320G01X52.840
N3330G00Z6.000
N3340G00X48.119Y42.583
N3350G01Z-1.350F20.0
N3360G01X47.192Y40.607F500.0
N3370X46.264Y42.583
N3380X48.119
N3390X49.693Y43.583
N3400X47.192Y38.253
N3410X44.690Y43.583
N3420X49.693
N3430X51.267Y44.583
N3440X47.192Y35.899
N3450X43.117Y44.583
N3460X51.267
N3470X52.841Y45.583
N3480X47.192Y33.545
N3490X41.543Y45.583
N3500X52.841
N3510X52.840Y46.583
N3520G2X53.746Y45.157I0.000J-1.000
N3530G01X48.097Y33.121
N3540G2X46.286I-0.906J0.425
N3550G01X40.638Y45.157
N3560G2X41.543Y46.583I0.906J0.425
N3570G01X52.840
N3580G00Z6.000
N3590G00X48.119Y42.583
N3600G01Z-1.800F20.0
N3610G01X47.192Y40.607F500.0
N3620X46.264Y42.583
N3630X48.119
N3640X49.693Y43.583
N3650X47.192Y38.253
N3660X44.690Y43.583
N3670X49.693
N3680X51.267Y44.583
N3690X47.192Y35.899
N3700X43.117Y44.583
N3710X51.267
N3720X52.841Y45.583
N3730X47.192Y33.545
N3740X41.543Y45.583
N3750X52.841
N3760X52.840Y46.583
N3770G2X53.746Y45.157I0.000J-1.000
N3780G01X48.097Y33.121
N3790G2X46.286I-0.906J0.425
N3800G01X40.638Y45.157
N3810G2X41.543Y46.583I0.906J0.425
N3820G01X52.840
N3830G00Z6.000
N3840G00X48.119Y42.583
N3850G01Z-2.250F20.0
N3860G01X47.192Y40.607F500.0
N3870X46.264Y42.583
N3880X48.119
N3890X49.693Y43.583
N3900X47.192Y38.253
N3910X44.690Y43.583
N3920X49.693
N3930X51.267Y44.583
N3940X47.192Y35.899
N3950X43.117Y44.583
N3960X51.267
N3970X52.841Y45.583
N3980X47.192Y33.545
N3990X41.543Y45.583
N4000X52.841
N4010X52.840Y46.583
N4020G2X53.746Y45.157I0.000J-1.000
N4030G01X48.097Y33.121
N4040G2X46.286I-0.906J0.425
N4050G01X40.638Y45.157
N4060G2X41.543Y46.583I0.906J0.425
N4070G01X52.840
N4080G00Z6.000
N4090G00X48.119Y42.583
N4100G01Z-2.700F20.0
N4110G01X47.192Y40.607F500.0
N4120X46.264Y42.583
N4130X48.119
N4140X49.693Y43.583
N4150X47.192Y38.253
N4160X44.690Y43.583
N4170X49.693
N4180X51.267Y44.583
N4190X47.192Y35.899
N4200X43.117Y44.583
N4210X51.267
N4220X52.841Y45.583
N4230X47.192Y33.545
N4240X41.543Y45.583
N4250X52.841
N4260X52.840Y46.583
N4270G2X53.746Y45.157I0.000J-1.000
N4280G01X48.097Y33.121
N4290G2X46.286I-0.906J0.425
N4300G01X40.638Y45.157
N4310G2X41.543Y46.583I0.906J0.425
N4320G01X52.840
N4330G00Z6.000
N4340G00X41.669Y26.484
N4350G01Z-0.450F20.0
N4360G01X41.290Y25.677F500.0
N4370Y27.291
N4380X41.669Y26.484
N4390X42.774
N4400X40.290Y21.192
N4410Y31.776
N4420X42.774Y26.484
N4430X43.878
N4440X39.290Y16.707
N4450Y36.261
N4460X43.878Y26.484
N4470X44.784Y26.909
N4480G2Y26.059I-0.906J-0.425
N4490G01X40.197Y16.284
N4500G2X38.290Y16.709I-0.906J0.425
N4510G01Y36.259
N4520G2X40.197Y36.684I1.000J0.000
N4530G01X44.784Y26.909
N4540G00Z6.000
N4550G00X41.669Y26.484
N4560G01Z-0.900F20.0
N4570G01X41.290Y25.677F500.0
N4580Y27.291
N4590X41.669Y26.484
N4600X42.774
N4610X40.290Y21.192
N4620Y31.776
N4630X42.774Y26.484
N4640X43.878
N4650X39.290Y16.707
N4660Y36.261
N4670X43.878Y26.484
N4680X44.784Y26.909
N4690G2Y26.059I-0.906J-0.425
N4700G01X40.197Y16.284
N4710G2X38.290Y16.709I-0.906J0.425
N4720G01Y36.259
N4730G2X40.197Y36.684I1.000J0.000
N4740G01X44.784Y26.909
N4750G00Z6.000
N4760G00X41.669Y26.484
N4770G01Z-1.350F20.0
N4780G01X41.290Y25.677F500.0
N4790Y27.291
N4800X41.669Y26.484
N4810X42.774
N4820X40.290Y21.192
N4830Y31.776
N4840X42.774Y26.484
N4850X43.878
N4860X39.290Y16.707
N4870Y36.261
N4880X43.878Y26.484
N4890X44.784Y26.909
N4900G2Y26.059I-0.906J-0.425
N4910G01X40.197Y16.284
N4920G2X38.290Y16.709I-0.906J0.425
N4930G01Y36.259
N4940G2X40.197Y36.684I1.000J0.000
N4950G01X44.784Y26.909
N4960G00Z6.000
N4970G00X41.669Y26.484
N4980G01Z-1.800F20.0
N4990G01X41.290Y25.677F500.0
N5000Y27.291
N5010X41.669Y26.484
N5020X42.774
N5030X40.290Y21.192
N5040Y31.776
N5050X42.774Y26.484
N5060X43.878
N5070X39.290Y16.707
N5080Y36.261
N5090X43.878Y26.484
N5100X44.784Y26.909
N5110G2Y26.059I-0.906J-0.425
N5120G01X40.197Y16.284
N5130G2X38.290Y16.709I-0.906J0.425
N5140G01Y36.259
N5150G2X40.197Y36.684I1.000J0.000
N5160G01X44.784Y26.909
N5170G00Z6.000
N5180G00X41.669Y26.484
N5190G01Z-2.250F20.0
N5200G01X41.290Y25.677F500.0
N5210Y27.291
N5220X41.669Y26.484
N5230X42.774
N5240X40.290Y21.192
N5250Y31.776
N5260X42.774Y26.484
N5270X43.878
N5280X39.290Y16.707
N5290Y36.261
N5300X43.878Y26.484
N5310X44.784Y26.909
N5320G2Y26.059I-0.906J-0.425
N5330G01X40.197Y16.284
N5340G2X38.290Y16.709I-0.906J0.425
N5350G01Y36.259
N5360G2X40.197Y36.684I1.000J0.000
N5370G01X44.784Y26.909
N5380G00Z6.000
N5390G00X41.669Y26.484
N5400G01Z-2.700F20.0
N5410G01X41.290Y25.677F500.0
N5420Y27.291
N5430X41.669Y26.484
N5440X42.774
N5450X40.290Y21.192
N5460Y31.776
N5470X42.774Y26.484
N5480X43.878
N5490X39.290Y16.707
N5500Y36.261
N5510X43.878Y26.484
N5520X44.784Y26.909
N5530G2Y26.059I-0.906J-0.425
N5540G01X40.197Y16.284
N5550G2X38.290Y16.709I-0.906J0.425
N5560G01Y36.259
N5570G2X40.197Y36.684I1.000J0.000
N5580G01X44.784Y26.909
N5590G00Z6.000
N5600G00X80.970Y21.915
N5610G01Z-0.450F20.0
N5620G01X80.890Y21.880F500.0
N5630Y22.049
N5640X80.970Y21.915
N5650X82.427Y21.426
N5660G3X79.890Y20.244I5.464J-15.039
N5670G01Y25.671
N5680X82.427Y21.426
N5690X83.933Y20.856
N5700G3X78.891Y18.388I3.958J-14.468
N5710G01X78.890
N5720Y29.293
N5730X83.933Y20.856
N5740X85.501Y20.182
N5750G3X79.231Y17.388I2.390J-13.794
N5760G01X77.890
N5770Y32.915
N5780X85.501Y20.182
N5790X87.153Y19.367
N5800G3X79.584Y16.388I0.738J-12.979
N5810G01X76.890
N5820Y36.443
N5830X76.930Y36.470
N5840X87.153Y19.367
N5850G00Z6.000
N5860G00X88.931Y18.343
N5870G01Z-0.450F20.0
N5880G3X79.954Y15.388I-1.040J-11.954F500.0
N5890G01X76.428
N5900X75.890Y15.835
N5910Y36.978
N5920X77.249Y37.886
N5930X88.931Y18.343
N5940G00Z6.000
N5950G00X90.921Y16.962
N5960G01Z-0.450F20.0
N5970G3X80.341Y14.388I-3.030J-10.574F500.0
N5980G01X76.041
N5990G3X74.890Y15.335I-7.542J-7.989
N6000G01Y37.512
N6010X77.567Y39.302
N6020X90.921Y16.962
N6030G00Z6.000
N6040G00X93.430Y14.714
N6050G01Z-0.450F20.0
N6060G3X80.750Y13.388I-5.539J-8.325F500.0
N6070G01X75.632
N6080G3X73.890Y14.805I-7.139J-6.996
N6090G01Y38.046
N6100X77.886Y40.718
N6110X93.430Y14.714
N6120G00Z6.000
N6130G00X94.599Y12.388
N6140G01Z-0.450F20.0
N6150G3X81.183I-6.708J-6.000F500.0
N6160G01X75.199
N6170G3X72.890Y14.239I-6.709J-6.001
N6180G01Y38.580
N6190X78.205Y42.134
N6200X95.985Y12.388
N6210X94.599
N6220X94.136Y11.388
N6230G3X81.646I-6.245J-5.000
N6240G01X74.736
N6250G3X71.890Y13.630I-6.245J-4.999
N6260G01Y39.115
N6270X78.523Y43.550
N6280X97.748Y11.388
N6290X94.136
N6300X93.635Y10.388
N6310G3X82.147I-5.744J-4.000
N6320G01X74.235
N6330G3X70.890Y12.964I-5.744J-3.999
N6340G01Y39.649
N6350X78.842Y44.966
N6360X99.511Y10.388
N6370X93.635
N6380X93.087Y9.388
N6390G3X82.695I-5.196J-3.000
N6400G01X73.687
N6410G3X69.890Y12.222I-5.196J-3.000
N6420G01Y40.183
N6430X79.160Y46.382
N6440X101.273Y9.388
N6450X93.087
N6460X92.473Y8.388
N6470G3X83.309I-4.582J-2.000
N6480G01X73.073
N6490G3X68.891Y11.372I-4.582J-2.000
N6500G01X68.890Y11.372
N6510Y40.717
N6520X79.479Y47.799
N6530X103.036Y8.388
N6540X92.473Y8.388
N6550X91.557Y7.988
N6560G3X84.225I-3.666J-1.600
N6570G2X83.308Y7.388I-0.917J0.400
N6580G01X73.074
N6590G2X72.157Y7.988I0.000J1.001
N6600G3X68.811Y10.375I-3.666J-1.600
N6610G2X67.890Y11.372I0.080J0.997
N6620G01Y40.717
N6630G2X68.335Y41.549I1.001J0.000
N6640G01X78.923Y48.629
N6650G2X80.338Y48.311I0.556J-0.832
N6660G01X103.894Y8.902
N6670G2X103.035Y7.388I-0.859J-0.513
N6680G01X92.474
N6690G2X91.557Y7.988I0.000J1.001
N6700G00Z6.000
N6710G00X80.970Y21.915
N6720G01Z-0.900F20.0
N6730G01X80.890Y21.880F500.0
N6740Y22.049
N6750X80.970Y21.915
N6760X82.427Y21.426
N6770G3X79.890Y20.244I5.464J-15.039
N6780G01Y25.671
N6790X82.427Y21.426
N6800X83.933Y20.856
N6810G3X78.891Y18.388I3.958J-14.468
N6820G01X78.890
N6830Y29.293
N6840X83.933Y20.856
N6850X85.501Y20.182
N6860G3X79.231Y17.388I2.390J-13.794
N6870G01X77.890
N6880Y32.915
N6890X85.501Y20.182
N6900X87.153Y19.367
N6910G3X79.584Y16.388I0.738J-12.979
N6920G01X76.890
N6930Y36.443
N6940X76.930Y36.470
N6950X87.153Y19.367
N6960G00Z6.000
N6970G00X88.931Y18.343
N6980G01Z-0.900F20.0
N6990G3X79.954Y15.388I-1.040J-11.954F500.0
N7000G01X76.428
N7010X75.890Y15.835
N7020Y36.978
N7030X77.249Y37.886
N7040X88.931Y18.343
N7050G00Z6.000
N7060G00X90.921Y16.962
N7070G01Z-0.900F20.0
N7080G3X80.341Y14.388I-3.030J-10.574F500.0
N7090G01X76.041
N7100G3X74.890Y15.335I-7.542J-7.989
N7110G01Y37.512
N7120X77.567Y39.302
N7130X90.921Y16.962
N7140G00Z6.000
N7150G00X93.430Y14.714
N7160G01Z-0.900F20.0
N7170G3X80.750Y13.388I-5.539J-8.325F500.0
N7180G01X75.632
N7190G3X73.890Y14.805I-7.139J-6.996
N7200G01Y38.046
N7210X77.886Y40.718
N7220X93.430Y14.714
N7230G00Z6.000
N7240G00X94.599Y12.388
N7250G01Z-0.900F20.0
N7260G3X81.183I-6.708J-6.000F500.0
N7270G01X75.199
N7280G3X72.890Y14.239I-6.709J-6.001
N7290G01Y38.580
N7300X78.205Y42.134
N7310X95.985Y12.388
N7320X94.599
N7330X94.136Y11.388
N7340G3X81.646I-6.245J-5.000
N7350G01X74.736
N7360G3X71.890Y13.630I-6.245J-4.999
N7370G01Y39.115
N7380X78.523Y43.550
N7390X97.748Y11.388
N7400X94.136
N7410X93.635Y10.388
N7420G3X82.147I-5.744J-4.000
N7430G01X74.235
N7440G3X70.890Y12.964I-5.744J-3.999
N7450G01Y39.649
N7460X78.842Y44.966
N7470X99.511Y10.388
N7480X93.635
N7490X93.087Y9.388
N7500G3X82.695I-5.196J-3.000
N7510G01X73.687
N7520G3X69.890Y12.222I-5.196J-3.000
N7530G01Y40.183
N7540X79.160Y46.382
N7550X101.273Y9.388
N7560X93.087
N7570X92.473Y8.388
N7580G3X83.309I-4.582J-2.000
N7590G01X73.073
N7600G3X68.891Y11.372I-4.582J-2.000
N7610G01X68.890Y11.372
N7620Y40.717
N7630X79.479Y47.799
N7640X103.036Y8.388
N7650X92.473Y8.388
N7660X91.557Y7.988
N7670G3X84.225I-3.666J-1.600
N7680G2X83.308Y7.388I-0.917J0.400
N7690G01X73.074
N7700G2X72.157Y7.988I0.000J1.001
N7710G3X68.811Y10.375I-3.666J-1.600
N7720G2X67.890Y11.372I0.080J0.997
N7730G01Y40.717
N7740G2X68.335Y41.549I1.001J0.000
N7750G01X78.923Y48.629
N7760G2X80.338Y48.311I0.556J-0.832
N7770G01X103.894Y8.902
N7780G2X103.035Y7.388I-0.859J-0.513
N7790G01X92.474
N7800G2X91.557Y7.988I0.000J1.001
N7810G00Z6.000
N7820G00X80.970Y21.915
N7830G01Z-1.350F20.0
N7840G01X80.890Y21.880F500.0
N7850Y22.049
N7860X80.970Y21.915
N7870X82.427Y21.426
N7880G3X79.890Y20.244I5.464J-15.039
N7890G01Y25.671
N7900X82.427Y21.426
N7910X83.933Y20.856
N7920G3X78.891Y18.388I3.958J-14.468
N7930G01X78.890
N7940Y29.293
N7950X83.933Y20.856
N7960X85.501Y20.182
N7970G3X79.231Y17.388I2.390J-13.794
N7980G01X77.890
N7990Y32.915
N8000X85.501Y20.182
N8010X87.153Y19.367
N8020G3X79.584Y16.388I0.738J-12.979
N8030G01X76.890
N8040Y36.443
N8050X76.930Y36.470
N8060X87.153Y19.367
N8070G00Z6.000
N8080G00X88.931Y18.343
N8090G01Z-1.350F20.0
N8100G3X79.954Y15.388I-1.040J-11.954F500.0
N8110G01X76.428
N8120X75.890Y15.835
N8130Y36.978
N8140X77.249Y37.886
N8150X88.931Y18.343
N8160G00Z6.000
N8170G00X90.921Y16.962
N8180G01Z-1.350F20.0
N8190G3X80.341Y14.388I-3.030J-10.574F500.0
N8200G01X76.041
N8210G3X74.890Y15.335I-7.542J-7.989
N8220G01Y37.512
N8230X77.567Y39.302
N8240X90.921Y16.962
N8250G00Z6.000
N8260G00X93.430Y14.714
N8270G01Z-1.350F20.0
N8280G3X80.750Y13.388I-5.539J-8.325F500.0
N8290G01X75.632
N8300G3X73.890Y14.805I-7.139J-6.996
N8310G01Y38.046
N8320X77.886Y40.718
N8330X93.430Y14.714
N8340G00Z6.000
N8350G00X94.599Y12.388
N8360G01Z-1.350F20.0
N8370G3X81.183I-6.708J-6.000F500.0
N8380G01X75.199
N8390G3X72.890Y14.239I-6.709J-6.001
N8400G01Y38.580
N8410X78.205Y42.134
N8420X95.985Y12.388
N8430X94.599
N8440X94.136Y11.388
N8450G3X81.646I-6.245J-5.000
N8460G01X74.736
N8470G3X71.890Y13.630I-6.245J-4.999
N8480G01Y39.115
N8490X78.523Y43.550
N8500X97.748Y11.388
N8510X94.136
N8520X93.635Y10.388
N8530G3X82.147I-5.744J-4.000
N8540G01X74.235
N8550G3X70.890Y12.964I-5.744J-3.999
N8560G01Y39.649
N8570X78.842Y44.966
N8580X99.511Y10.388
N8590X93.635
N8600X93.087Y9.388
N8610G3X82.695I-5.196J-3.000
N8620G01X73.687
N8630G3X69.890Y12.222I-5.196J-3.000
N8640G01Y40.183
N8650X79.160Y46.382
N8660X101.273Y9.388
N8670X93.087
N8680X92.473Y8.388
N8690G3X83.309I-4.582J-2.000
N8700G01X73.073
N8710G3X68.891Y11.372I-4.582J-2.000
N8720G01X68.890Y11.372
N8730Y40.717
N8740X79.479Y47.799
N8750X103.036Y8.388
N8760X92.473Y8.388
N8770X91.557Y7.988
N8780G3X84.225I-3.666J-1.600
N8790G2X83.308Y7.388I-0.917J0.400
N8800G01X73.074
N8810G2X72.157Y7.988I0.000J1.001
N8820G3X68.811Y10.375I-3.666J-1.600
N8830G2X67.890Y11.372I0.080J0.997
N8840G01Y40.717
N8850G2X68.335Y41.549I1.001J0.000
N8860G01X78.923Y48.629
N8870G2X80.338Y48.311I0.556J-0.832
N8880G01X103.894Y8.902
N8890G2X103.035Y7.388I-0.859J-0.513
N8900G01X92.474
N8910G2X91.557Y7.988I0.000J1.001
N8920G00Z6.000
N8930G00X80.970Y21.915
N8940G01Z-1.800F20.0
N8950G01X80.890Y21.880F500.0
N8960Y22.049
N8970X80.970Y21.915
N8980X82.427Y21.426
N8990G3X79.890Y20.244I5.464J-15.039
N9000G01Y25.671
N9010X82.427Y21.426
N9020X83.933Y20.856
N9030G3X78.891Y18.388I3.958J-14.468
N9040G01X78.890
N9050Y29.293
N9060X83.933Y20.856
N9070X85.501Y20.182
N9080G3X79.231Y17.388I2.390J-13.794
N9090G01X77.890
N9100Y32.915
N9110X85.501Y20.182
N9120X87.153Y19.367
N9130G3X79.584Y16.388I0.738J-12.979
N9140G01X76.890
N9150Y36.443
N9160X76.930Y36.470
N9170X87.153Y19.367
N9180G00Z6.000
N9190G00X88.931Y18.343
N9200G01Z-1.800F20.0
N9210G3X79.954Y15.388I-1.040J-11.954F500.0
N9220G01X76.428
N9230X75.890Y15.835
N9240Y36.978
N9250X77.249Y37.886
N9260X88.931Y18.343
N9270G00Z6.000
N9280G00X90.921Y16.962
N9290G01Z-1.800F20.0
N9300G3X80.341Y14.388I-3.030J-10.574F500.0
N9310G01X76.041
N9320G3X74.890Y15.335I-7.542J-7.989
N9330G01Y37.512
N9340X77.567Y39.302
N9350X90.921Y16.962
N9360G00Z6.000
N9370G00X93.430Y14.714
N9380G01Z-1.800F20.0
N9390G3X80.750Y13.388I-5.539J-8.325F500.0
N9400G01X75.632
N9410G3X73.890Y14.805I-7.139J-6.996
N9420G01Y38.046
N9430X77.886Y40.718
N9440X93.430Y14.714
N9450G00Z6.000
N9460G00X94.599Y12.388
N9470G01Z-1.800F20.0
N9480G3X81.183I-6.708J-6.000F500.0
N9490G01X75.199
N9500G3X72.890Y14.239I-6.709J-6.001
N9510G01Y38.580
N9520X78.205Y42.134
N9530X95.985Y12.388
N9540X94.599
N9550X94.136Y11.388
N9560G3X81.646I-6.245J-5.000
N9570G01X74.736
N9580G3X71.890Y13.630I-6.245J-4.999
N9590G01Y39.115
N9600X78.523Y43.550
N9610X97.748Y11.388
N9620X94.136
N9630X93.635Y10.388
N9640G3X82.147I-5.744J-4.000
N9650G01X74.235
N9660G3X70.890Y12.964I-5.744J-3.999
N9670G01Y39.649
N9680X78.842Y44.966
N9690X99.511Y10.388
N9700X93.635
N9710X93.087Y9.388
N9720G3X82.695I-5.196J-3.000
N9730G01X73.687
N9740G3X69.890Y12.222I-5.196J-3.000
N9750G01Y40.183
N9760X79.160Y46.382
N9770X101.273Y9.388
N9780X93.087
N9790X92.473Y8.388
N9800G3X83.309I-4.582J-2.000
N9810G01X73.073
N9820G3X68.891Y11.372I-4.582J-2.000
N9830G01X68.890Y11.372
N9840Y40.717
N9850X79.479Y47.799
N9860X103.036Y8.388
N9870X92.473Y8.388
N9880X91.557Y7.988
N9890G3X84.225I-3.666J-1.600
N9900G2X83.308Y7.388I-0.917J0.400
N9910G01X73.074
N9920G2X72.157Y7.988I0.000J1.001
N9930G3X68.811Y10.375I-3.666J-1.600
N9940G2X67.890Y11.372I0.080J0.997
N9950G01Y40.717
N9960G2X68.335Y41.549I1.001J0.000
N9970G01X78.923Y48.629
N9980G2X80.338Y48.311I0.556J-0.832
N9990G01X103.894Y8.902
N10000G2X103.035Y7.388I-0.859J-0.513
N10010G01X92.474
N10020G2X91.557Y7.988I0.000J1.001
N10030G00Z6.000
N10040G00X80.970Y21.915
N10050G01Z-2.250F20.0
N10060G01X80.890Y21.880F500.0
N10070Y22.049
N10080X80.970Y21.915
N10090X82.427Y21.426
N10100G3X79.890Y20.244I5.464J-15.039
N10110G01Y25.671
N10120X82.427Y21.426
N10130X83.933Y20.856
N10140G3X78.891Y18.388I3.958J-14.468
N10150G01X78.890
N10160Y29.293
N10170X83.933Y20.856
N10180X85.501Y20.182
N10190G3X79.231Y17.388I2.390J-13.794
N10200G01X77.890
N10210Y32.915
N10220X85.501Y20.182
N10230X87.153Y19.367
N10240G3X79.584Y16.388I0.738J-12.979
N10250G01X76.890
N10260Y36.443
N10270X76.930Y36.470
N10280X87.153Y19.367
N10290G00Z6.000
N10300G00X88.931Y18.343
N10310G01Z-2.250F20.0
N10320G3X79.954Y15.388I-1.040J-11.954F500.0
N10330G01X76.428
N10340X75.890Y15.835
N10350Y36.978
N10360X77.249Y37.886
N10370X88.931Y18.343
N10380G00Z6.000
N10390G00X90.921Y16.962
N10400G01Z-2.250F20.0
N10410G3X80.341Y14.388I-3.030J-10.574F500.0
N10420G01X76.041
N10430G3X74.890Y15.335I-7.542J-7.989
N10440G01Y37.512
N10450X77.567Y39.302
N10460X90.921Y16.962
N10470G00Z6.000
N10480G00X93.430Y14.714
N10490G01Z-2.250F20.0
N10500G3X80.750Y13.388I-5.539J-8.325F500.0
N10510G01X75.632
N10520G3X73.890Y14.805I-7.139J-6.996
N10530G01Y38.046
N10540X77.886Y40.718
N10550X93.430Y14.714
N10560G00Z6.000
N10570G00X94.599Y12.388
N10580G01Z-2.250F20.0
N10590G3X81.183I-6.708J-6.000F500.0
N10600G01X75.199
N10610G3X72.890Y14.239I-6.709J-6.001
N10620G01Y38.580
N10630X78.205Y42.134
N10640X95.985Y12.388
N10650X94.599
N10660X94.136Y11.388
N10670G3X81.646I-6.245J-5.000
N10680G01X74.736
N10690G3X71.890Y13.630I-6.245J-4.999
N10700G01Y39.115
N10710X78.523Y43.550
N10720X97.748Y11.388
N10730X94.136
N10740X93.635Y10.388
N10750G3X82.147I-5.744J-4.000
N10760G01X74.235
N10770G3X70.890Y12.964I-5.744J-3.999
N10780G01Y39.649
N10790X78.842Y44.966
N10800X99.511Y10.388
N10810X93.635
N10820X93.087Y9.388
N10830G3X82.695I-5.196J-3.000
N10840G01X73.687
N10850G3X69.890Y12.222I-5.196J-3.000
N10860G01Y40.183
N10870X79.160Y46.382
N10880X101.273Y9.388
N10890X93.087
N10900X92.473Y8.388
N10910G3X83.309I-4.582J-2.000
N10920G01X73.073
N10930G3X68.891Y11.372I-4.582J-2.000
N10940G01X68.890Y11.372
N10950Y40.717
N10960X79.479Y47.799
N10970X103.036Y8.388
N10980X92.473Y8.388
N10990X91.557Y7.988
N11000G3X84.225I-3.666J-1.600
N11010G2X83.308Y7.388I-0.917J0.400
N11020G01X73.074
N11030G2X72.157Y7.988I0.000J1.001
N11040G3X68.811Y10.375I-3.666J-1.600
N11050G2X67.890Y11.372I0.080J0.997
N11060G01Y40.717
N11070G2X68.335Y41.549I1.001J0.000
N11080G01X78.923Y48.629
N11090G2X80.338Y48.311I0.556J-0.832
N11100G01X103.894Y8.902
N11110G2X103.035Y7.388I-0.859J-0.513
N11120G01X92.474
N11130G2X91.557Y7.988I0.000J1.001
N11140G00Z6.000
N11150G00X80.970Y21.915
N11160G01Z-2.700F20.0
N11170G01X80.890Y21.880F500.0
N11180Y22.049
N11190X80.970Y21.915
N11200X82.427Y21.426
N11210G3X79.890Y20.244I5.464J-15.039
N11220G01Y25.671
N11230X82.427Y21.426
N11240X83.933Y20.856
N11250G3X78.891Y18.388I3.958J-14.468
N11260G01X78.890
N11270Y29.293
N11280X83.933Y20.856
N11290X85.501Y20.182
N11300G3X79.231Y17.388I2.390J-13.794
N11310G01X77.890
N11320Y32.915
N11330X85.501Y20.182
N11340X87.153Y19.367
N11350G3X79.584Y16.388I0.738J-12.979
N11360G01X76.890
N11370Y36.443
N11380X76.930Y36.470
N11390X87.153Y19.367
N11400G00Z6.000
N11410G00X88.931Y18.343
N11420G01Z-2.700F20.0
N11430G3X79.954Y15.388I-1.040J-11.954F500.0
N11440G01X76.428
N11450X75.890Y15.835
N11460Y36.978
N11470X77.249Y37.886
N11480X88.931Y18.343
N11490G00Z6.000
N11500G00X90.921Y16.962
N11510G01Z-2.700F20.0
N11520G3X80.341Y14.388I-3.030J-10.574F500.0
N11530G01X76.041
N11540G3X74.890Y15.335I-7.542J-7.989
N11550G01Y37.512
N11560X77.567Y39.302
N11570X90.921Y16.962
N11580G00Z6.000
N11590G00X93.430Y14.714
N11600G01Z-2.700F20.0
N11610G3X80.750Y13.388I-5.539J-8.325F500.0
N11620G01X75.632
N11630G3X73.890Y14.805I-7.139J-6.996
N11640G01Y38.046
N11650X77.886Y40.718
N11660X93.430Y14.714
N11670G00Z6.000
N11680G00X94.599Y12.388
N11690G01Z-2.700F20.0
N11700G3X81.183I-6.708J-6.000F500.0
N11710G01X75.199
N11720G3X72.890Y14.239I-6.709J-6.001
N11730G01Y38.580
N11740X78.205Y42.134
N11750X95.985Y12.388
N11760X94.599
N11770X94.136Y11.388
N11780G3X81.646I-6.245J-5.000
N11790G01X74.736
N11800G3X71.890Y13.630I-6.245J-4.999
N11810G01Y39.115
N11820X78.523Y43.550
N11830X97.748Y11.388
N11840X94.136
N11850X93.635Y10.388
N11860G3X82.147I-5.744J-4.000
N11870G01X74.235
N11880G3X70.890Y12.964I-5.744J-3.999
N11890G01Y39.649
N11900X78.842Y44.966
N11910X99.511Y10.388
N11920X93.635
N11930X93.087Y9.388
N11940G3X82.695I-5.196J-3.000
N11950G01X73.687
N11960G3X69.890Y12.222I-5.196J-3.000
N11970G01Y40.183
N11980X79.160Y46.382
N11990X101.273Y9.388
N12000X93.087
N12010X92.473Y8.388
N12020G3X83.309I-4.582J-2.000
N12030G01X73.073
N12040G3X68.891Y11.372I-4.582J-2.000
N12050G01X68.890Y11.372
N12060Y40.717
N12070X79.479Y47.799
N12080X103.036Y8.388
N12090X92.473Y8.388
N12100X91.557Y7.988
N12110G3X84.225I-3.666J-1.600
N12120G2X83.308Y7.388I-0.917J0.400
N12130G01X73.074
N12140G2X72.157Y7.988I0.000J1.001
N12150G3X68.811Y10.375I-3.666J-1.600
N12160G2X67.890Y11.372I0.080J0.997
N12170G01Y40.717
N12180G2X68.335Y41.549I1.001J0.000
N12190G01X78.923Y48.629
N12200G2X80.338Y48.311I0.556J-0.832
N12210G01X103.894Y8.902
N12220G2X103.035Y7.388I-0.859J-0.513
N12230G01X92.474
N12240G2X91.557Y7.988I0.000J1.001
N12250G00Z6.000
N12260G00X108.891Y41.471
N12270G01Z-0.450F20.0
N12280G01X107.860Y43.195F500.0
N12290X109.922
N12300X108.891Y41.471
N12310Y39.521
N12320X106.097Y44.195
N12330X111.684
N12340X108.891Y39.521
N12350Y37.572
N12360X104.335Y45.195
N12370X113.447
N12380X108.891Y37.572
N12390Y35.623
N12400X102.572Y46.195
N12410X115.210
N12420X108.891Y35.623
N12430Y33.674
N12440X100.809Y47.195
N12450X116.973
N12460X108.891Y33.674
N12470Y31.725
N12480X99.046Y48.195
N12490X118.736
N12500X108.891Y31.725
N12510Y29.776
N12520X97.284Y49.195
N12530X120.498
N12540X108.891Y29.776
N12550Y27.827
N12560X95.559Y50.131
N12570X95.655Y50.195
N12580X122.127
N12590X122.223Y50.131
N12600X108.891Y27.827
N12610Y25.878
N12620X94.213Y50.434
N12630X95.351Y51.195
N12640X122.431
N12650X123.569Y50.434
N12660X108.891Y25.878
N12670Y23.929
N12680X92.867Y50.737
N12690X95.048Y52.195
N12700X122.734
N12710X124.915Y50.737
N12720X108.891Y23.929
N12730Y21.980
N12740X91.521Y51.040
N12750X94.744Y53.195
N12760X123.038
N12770X126.261Y51.040
N12780X108.891Y21.980
N12790Y20.031
N12800X90.175Y51.342
N12810X94.440Y54.195
N12820X123.341
N12830X127.607Y51.342
N12840X108.891Y20.031
N12850Y18.082
N12860X88.829Y51.645
N12870X94.137Y55.195
N12880X123.645
N12890X128.953Y51.645
N12900X108.891Y18.082
N12910Y16.133
N12920X87.483Y51.948
N12930X93.833Y56.195
N12940X123.949
N12950X130.299Y51.948
N12960X108.891Y16.133
N12970Y14.184
N12980X86.137Y52.251
N12990X93.530Y57.195
N13000X124.252
N13010X131.645Y52.251
N13020X108.891Y14.184
N13030X108.032Y13.671
N13040X85.279Y51.737
N13050G2X85.581Y53.082I0.859J0.513
N13060G01X92.974Y58.026
N13070G2X93.530Y58.195I0.556J-0.832
N13080G01X124.252
N13090G2X124.808Y58.026I0.000J-1.000
N13100G01X132.201Y53.082
N13110G2X132.503Y51.737I-0.556J-0.832
N13120G01X109.750Y13.671
N13130G2X108.032I-0.859J0.513
N13140G00Z6.000
N13150G00X108.891Y41.471
N13160G01Z-0.900F20.0
N13170G01X107.860Y43.195F500.0
N13180X109.922
N13190X108.891Y41.471
N13200Y39.521
N13210X106.097Y44.195
N13220X111.684
N13230X108.891Y39.521
N13240Y37.572
N13250X104.335Y45.195
N13260X113.447
N13270X108.891Y37.572
N13280Y35.623
N13290X102.572Y46.195
N13300X115.210
N13310X108.891Y35.623
N13320Y33.674
N13330X100.809Y47.195
N13340X116.973
N13350X108.891Y33.674
N13360Y31.725
N13370X99.046Y48.195
N13380X118.736
N13390X108.891Y31.725
N13400Y29.776
N13410X97.284Y49.195
N13420X120.498
N13430X108.891Y29.776
N13440Y27.827
N13450X95.559Y50.131
N13460X95.655Y50.195
N13470X122.127
N13480X122.223Y50.131
N13490X108.891Y27.827
N13500Y25.878
N13510X94.213Y50.434
N13520X95.351Y51.195
N13530X122.431
N13540X123.569Y50.434
N13550X108.891Y25.878
N13560Y23.929
N13570X92.867Y50.737
N13580X95.048Y52.195
N13590X122.734
N13600X124.915Y50.737
N13610X108.891Y23.929
N13620Y21.980
N13630X91.521Y51.040
N13640X94.744Y53.195
N13650X123.038
N13660X126.261Y51.040
N13670X108.891Y21.980
N13680Y20.031
N13690X90.175Y51.342
N13700X94.440Y54.195
N13710X123.341
N13720X127.607Y51.342
N13730X108.891Y20.031
N13740Y18.082
N13750X88.829Y51.645
N13760X94.137Y55.195
N13770X123.645
N13780X128.953Y51.645
N13790X108.891Y18.082
N13800Y16.133
N13810X87.483Y51.948
N13820X93.833Y56.195
N13830X123.949
N13840X130.299Y51.948
N13850X108.891Y16.133
N13860Y14.184
N13870X86.137Y52.251
N13880X93.530Y57.195
N13890X124.252
N13900X131.645Y52.251
N13910X108.891Y14.184
N13920X108.032Y13.671
N13930X85.279Y51.737
N13940G2X85.581Y53.082I0.859J0.513
N13950G01X92.974Y58.026
N13960G2X93.530Y58.195I0.556J-0.832
N13970G01X124.252
N13980G2X124.808Y58.026I0.000J-1.000
N13990G01X132.201Y53.082
N14000G2X132.503Y51.737I-0.556J-0.832
N14010G01X109.750Y13.671
N14020G2X108.032I-0.859J0.513
N14030G00Z6.000
N14040G00X108.891Y41.471
N14050G01Z-1.350F20.0
N14060G01X107.860Y43.195F500.0
N14070X109.922
N14080X108.891Y41.471
N14090Y39.521
N14100X106.097Y44.195
N14110X111.684
N14120X108.891Y39.521
N14130Y37.572
N14140X104.335Y45.195
N14150X113.447
N14160X108.891Y37.572
N14170Y35.623
N14180X102.572Y46.195
N14190X115.210
N14200X108.891Y35.623
N14210Y33.674
N14220X100.809Y47.195
N14230X116.973
N14240X108.891Y33.674
N14250Y31.725
N14260X99.046Y48.195
N14270X118.736
N14280X108.891Y31.725
N14290Y29.776
N14300X97.284Y49.195
N14310X120.498
N14320X108.891Y29.776
N14330Y27.827
N14340X95.559Y50.131
N14350X95.655Y50.195
N14360X122.127
N14370X122.223Y50.131
N14380X108.891Y27.827
N14390Y25.878
N14400X94.213Y50.434
N14410X95.351Y51.195
N14420X122.431
N14430X123.569Y50.434
N14440X108.891Y25.878
N14450Y23.929
N14460X92.867Y50.737
N14470X95.048Y52.195
N14480X122.734
N14490X124.915Y50.737
N14500X108.891Y23.929
N14510Y21.980
N14520X91.521Y51.040
N14530X94.744Y53.195
N14540X123.038
N14550X126.261Y51.040
N14560X108.891Y21.980
N14570Y20.031
N14580X90.175Y51.342
N14590X94.440Y54.195
N14600X123.341
N14610X127.607Y51.342
N14620X108.891Y20.031
N14630Y18.082
N14640X88.829Y51.645
N14650X94.137Y55.195
N14660X123.645
N14670X128.953Y51.645
N14680X108.891Y18.082
N14690Y16.133
N14700X87.483Y51.948
N14710X93.833Y56.195
N14720X123.949
N14730X130.299Y51.948
N14740X108.891Y16.133
N14750Y14.184
N14760X86.137Y52.251
N14770X93.530Y57.195
N14780X124.252
N14790X131.645Y52.251
N14800X108.891Y14.184
N14810X108.032Y13.671
N14820X85.279Y51.737
N14830G2X85.581Y53.082I0.859J0.513
N14840G01X92.974Y58.026
N14850G2X93.530Y58.195I0.556J-0.832
N14860G01X124.252
N14870G2X124.808Y58.026I0.000J-1.000
N14880G01X132.201Y53.082
N14890G2X132.503Y51.737I-0.556J-0.832
N14900G01X109.750Y13.671
N14910G2X108.032I-0.859J0.513
N14920G00Z6.000
N14930G00X108.891Y41.471
N14940G01Z-1.800F20.0
N14950G01X107.860Y43.195F500.0
N14960X109.922
N14970X108.891Y41.471
N14980Y39.521
N14990X106.097Y44.195
N15000X111.684
N15010X108.891Y39.521
N15020Y37.572
N15030X104.335Y45.195
N15040X113.447
N15050X108.891Y37.572
N15060Y35.623
N15070X102.572Y46.195
N15080X115.210
N15090X108.891Y35.623
N15100Y33.674
N15110X100.809Y47.195
N15120X116.973
N15130X108.891Y33.674
N15140Y31.725
N15150X99.046Y48.195
N15160X118.736
N15170X108.891Y31.725
N15180Y29.776
N15190X97.284Y49.195
N15200X120.498
N15210X108.891Y29.776
N15220Y27.827
N15230X95.559Y50.131
N15240X95.655Y50.195
N15250X122.127
N15260X122.223Y50.131
N15270X108.891Y27.827
N15280Y25.878
N15290X94.213Y50.434
N15300X95.351Y51.195
N15310X122.431
N15320X123.569Y50.434
N15330X108.891Y25.878
N15340Y23.929
N15350X92.867Y50.737
N15360X95.048Y52.195
N15370X122.734
N15380X124.915Y50.737
N15390X108.891Y23.929
N15400Y21.980
N15410X91.521Y51.040
N15420X94.744Y53.195
N15430X123.038
N15440X126.261Y51.040
N15450X108.891Y21.980
N15460Y20.031
N15470X90.175Y51.342
N15480X94.440Y54.195
N15490X123.341
N15500X127.607Y51.342
N15510X108.891Y20.031
N15520Y18.082
N15530X88.829Y51.645
N15540X94.137Y55.195
N15550X123.645
N15560X128.953Y51.645
N15570X108.891Y18.082
N15580Y16.133
N15590X87.483Y51.948
N15600X93.833Y56.195
N15610X123.949
N15620X130.299Y51.948
N15630X108.891Y16.133
N15640Y14.184
N15650X86.137Y52.251
N15660X93.530Y57.195
N15670X124.252
N15680X131.645Y52.251
N15690X108.891Y14.184
N15700X108.032Y13.671
N15710X85.279Y51.737
N15720G2X85.581Y53.082I0.859J0.513
N15730G01X92.974Y58.026
N15740G2X93.530Y58.195I0.556J-0.832
N15750G01X124.252
N15760G2X124.808Y58.026I0.000J-1.000
N15770G01X132.201Y53.082
N15780G2X132.503Y51.737I-0.556J-0.832
N15790G01X109.750Y13.671
N15800G2X108.032I-0.859J0.513
N15810G00Z6.000
N15820G00X108.891Y41.471
N15830G01Z-2.250F20.0
N15840G01X107.860Y43.195F500.0
N15850X109.922
N15860X108.891Y41.471
N15870Y39.521
N15880X106.097Y44.195
N15890X111.684
N15900X108.891Y39.521
N15910Y37.572
N15920X104.335Y45.195
N15930X113.447
N15940X108.891Y37.572
N15950Y35.623
N15960X102.572Y46.195
N15970X115.210
N15980X108.891Y35.623
N15990Y33.674
N16000X100.809Y47.195
N16010X116.973
N16020X108.891Y33.674
N16030Y31.725
N16040X99.046Y48.195
N16050X118.736
N16060X108.891Y31.725
N16070Y29.776
N16080X97.284Y49.195
N16090X120.498
N16100X108.891Y29.776
N16110Y27.827
N16120X95.559Y50.131
N16130X95.655Y50.195
N16140X122.127
N16150X122.223Y50.131
N16160X108.891Y27.827
N16170Y25.878
N16180X94.213Y50.434
N16190X95.351Y51.195
N16200X122.431
N16210X123.569Y50.434
N16220X108.891Y25.878
N16230Y23.929
N16240X92.867Y50.737
N16250X95.048Y52.195
N16260X122.734
N16270X124.915Y50.737
N16280X108.891Y23.929
N16290Y21.980
N16300X91.521Y51.040
N16310X94.744Y53.195
N16320X123.038
N16330X126.261Y51.040
N16340X108.891Y21.980
N16350Y20.031
N16360X90.175Y51.342
N16370X94.440Y54.195
N16380X123.341
N16390X127.607Y51.342
N16400X108.891Y20.031
N16410Y18.082
N16420X88.829Y51.645
N16430X94.137Y55.195
N16440X123.645
N16450X128.953Y51.645
N16460X108.891Y18.082
N16470Y16.133
N16480X87.483Y51.948
N16490X93.833Y56.195
N16500X123.949
N16510X130.299Y51.948
N16520X108.891Y16.133
N16530Y14.184
N16540X86.137Y52.251
N16550X93.530Y57.195
N16560X124.252
N16570X131.645Y52.251
N16580X108.891Y14.184
N16590X108.032Y13.671
N16600X85.279Y51.737
N16610G2X85.581Y53.082I0.859J0.513
N16620G01X92.974Y58.026
N16630G2X93.530Y58.195I0.556J-0.832
N16640G01X124.252
N16650G2X124.808Y58.026I0.000J-1.000
N16660G01X132.201Y53.082
N16670G2X132.503Y51.737I-0.556J-0.832
N16680G01X109.750Y13.671
N16690G2X108.032I-0.859J0.513
N16700G00Z6.000
N16710G00X108.891Y41.471
N16720G01Z-2.700F20.0
N16730G01X107.860Y43.195F500.0
N16740X109.922
N16750X108.891Y41.471
N16760Y39.521
N16770X106.097Y44.195
N16780X111.684
N16790X108.891Y39.521
N16800Y37.572
N16810X104.335Y45.195
N16820X113.447
N16830X108.891Y37.572
N16840Y35.623
N16850X102.572Y46.195
N16860X115.210
N16870X108.891Y35.623
N16880Y33.674
N16890X100.809Y47.195
N16900X116.973
N16910X108.891Y33.674
N16920Y31.725
N16930X99.046Y48.195
N16940X118.736
N16950X108.891Y31.725
N16960Y29.776
N16970X97.284Y49.195
N16980X120.498
N16990X108.891Y29.776
N17000Y27.827
N17010X95.559Y50.131
N17020X95.655Y50.195
N17030X122.127
N17040X122.223Y50.131
N17050X108.891Y27.827
N17060Y25.878
N17070X94.213Y50.434
N17080X95.351Y51.195
N17090X122.431
N17100X123.569Y50.434
N17110X108.891Y25.878
N17120Y23.929
N17130X92.867Y50.737
N17140X95.048Y52.195
N17150X122.734
N17160X124.915Y50.737
N17170X108.891Y23.929
N17180Y21.980
N17190X91.521Y51.040
N17200X94.744Y53.195
N17210X123.038
N17220X126.261Y51.040
N17230X108.891Y21.980
N17240Y20.031
N17250X90.175Y51.342
N17260X94.440Y54.195
N17270X123.341
N17280X127.607Y51.342
N17290X108.891Y20.031
N17300Y18.082
N17310X88.829Y51.645
N17320X94.137Y55.195
N17330X123.645
N17340X128.953Y51.645
N17350X108.891Y18.082
N17360Y16.133
N17370X87.483Y51.948
N17380X93.833Y56.195
N17390X123.949
N17400X130.299Y51.948
N17410X108.891Y16.133
N17420Y14.184
N17430X86.137Y52.251
N17440X93.530Y57.195
N17450X124.252
N17460X131.645Y52.251
N17470X108.891Y14.184
N17480X108.032Y13.671
N17490X85.279Y51.737
N17500G2X85.581Y53.082I0.859J0.513
N17510G01X92.974Y58.026
N17520G2X93.530Y58.195I0.556J-0.832
N17530G01X124.252
N17540G2X124.808Y58.026I0.000J-1.000
N17550G01X132.201Y53.082
N17560G2X132.503Y51.737I-0.556J-0.832
N17570G01X109.750Y13.671
N17580G2X108.032I-0.859J0.513
N17590G00Z6.000
N17600G00X123.183Y12.388
N17610G01Z-0.450F20.0
N17620G01X121.797F500.0
N17630X139.577Y42.134
N17640X144.891Y38.580
N17650Y14.239
N17660G3X142.583Y12.388I4.398J-7.849
N17670G01X136.599
N17680G3X123.183I-6.708J-6.000
N17690G01X123.646Y11.388
N17700X120.034
N17710X139.259Y43.550
N17720X145.891Y39.115
N17730Y13.630
N17740G3X143.046Y11.388I3.400J-7.242
N17750G01X136.136
N17760G3X123.646I-6.245J-5.000
N17770G01X124.147Y10.388
N17780X118.271
N17790X138.940Y44.966
N17800X146.891Y39.649
N17810Y12.964
N17820G3X143.547Y10.388I2.400J-6.576
N17830G01X135.635
N17840G3X124.147I-5.744J-4.000
N17850G01X124.695Y9.388
N17860X116.508
N17870X138.621Y46.382
N17880X147.891Y40.183
N17890Y12.222
N17900G3X144.095Y9.388I1.399J-5.834
N17910G01X135.087
N17920G3X124.695I-5.196J-3.000
N17930G01X125.309Y8.388
N17940X114.746Y8.388
N17950X138.303Y47.799
N17960X148.891Y40.717
N17970Y11.372
N17980G3X144.709Y8.388I0.400J-4.983
N17990G01X134.473
N18000G3X125.309I-4.582J-2.000
N18010G01X126.225Y7.988
N18020G2X125.308Y7.388I-0.917J0.400
N18030G01X114.747
N18040G2X113.888Y8.902I0.000J1.001
N18050G01X137.444Y48.311
N18060G2X138.859Y48.629I0.859J-0.513
N18070G01X149.447Y41.549
N18080G2X149.891Y40.717I-0.556J-0.832
N18090G01Y11.372
N18100G2X148.971Y10.375I-1.001J0.000
N18110G3X145.625Y7.988I0.320J-3.987
N18120G2X144.708Y7.388I-0.917J0.400
N18130G01X134.474
N18140G2X133.557Y7.988I0.000J1.001
N18150G3X126.225I-3.666J-1.600
N18160G00Z6.000
N18170G00X124.352Y14.714
N18180G01Z-0.450F20.0
N18190G01X139.896Y40.718F500.0
N18200X143.891Y38.046
N18210Y14.805
N18220G3X142.150Y13.388I5.402J-8.419
N18230G01X137.032
N18240G3X124.352Y14.714I-7.141J-6.999
N18250G00Z6.000
N18260G00X126.861Y16.962
N18270G01Z-0.450F20.0
N18280G01X140.214Y39.302F500.0
N18290X142.891Y37.512
N18300Y15.335
N18310G3X141.741Y14.388I6.408J-8.956
N18320G01X137.441
N18330G3X126.861Y16.962I-7.550J-7.999
N18340G00Z6.000
N18350G00X128.851Y18.343
N18360G01Z-0.450F20.0
N18370G01X140.533Y37.886F500.0
N18380X141.891Y36.978
N18390Y15.835
N18400X141.354Y15.388
N18410X137.828
N18420G3X128.851Y18.343I-7.937J-9.000
N18430G00Z6.000
N18440G00X136.812Y21.915
N18450G01Z-0.450F20.0
N18460G01X136.891Y22.049F500.0
N18470Y21.880
N18480X136.812Y21.915
N18490X135.354Y21.426
N18500X137.891Y25.671
N18510Y20.244
N18520G3X135.354Y21.426I-8.000J-13.855
N18530G01X133.849Y20.856
N18540X138.891Y29.293
N18550Y18.388
N18560G3X133.849Y20.856I-9.000J-11.999
N18570G01X132.281Y20.182
N18580X139.891Y32.915
N18590Y17.388
N18600X138.551
N18610G3X132.281Y20.182I-8.660J-11.000
N18620G01X130.629Y19.367
N18630X140.852Y36.470
N18640X140.891Y36.443
N18650Y16.388
N18660X138.197
N18670G3X130.629Y19.367I-8.306J-9.999
N18680G00Z6.000
N18690G00X123.183Y12.388
N18700G01Z-0.900F20.0
N18710G01X121.797F500.0
N18720X139.577Y42.134
N18730X144.891Y38.580
N18740Y14.239
N18750G3X142.583Y12.388I4.398J-7.849
N18760G01X136.599
N18770G3X123.183I-6.708J-6.000
N18780G01X123.646Y11.388
N18790X120.034
N18800X139.259Y43.550
N18810X145.891Y39.115
N18820Y13.630
N18830G3X143.046Y11.388I3.400J-7.242
N18840G01X136.136
N18850G3X123.646I-6.245J-5.000
N18860G01X124.147Y10.388
N18870X118.271
N18880X138.940Y44.966
N18890X146.891Y39.649
N18900Y12.964
N18910G3X143.547Y10.388I2.400J-6.576
N18920G01X135.635
N18930G3X124.147I-5.744J-4.000
N18940G01X124.695Y9.388
N18950X116.508
N18960X138.621Y46.382
N18970X147.891Y40.183
N18980Y12.222
N18990G3X144.095Y9.388I1.399J-5.834
N19000G01X135.087
N19010G3X124.695I-5.196J-3.000
N19020G01X125.309Y8.388
N19030X114.746Y8.388
N19040X138.303Y47.799
N19050X148.891Y40.717
N19060Y11.372
N19070G3X144.709Y8.388I0.400J-4.983
N19080G01X134.473
N19090G3X125.309I-4.582J-2.000
N19100G01X126.225Y7.988
N19110G2X125.308Y7.388I-0.917J0.400
N19120G01X114.747
N19130G2X113.888Y8.902I0.000J1.001
N19140G01X137.444Y48.311
N19150G2X138.859Y48.629I0.859J-0.513
N19160G01X149.447Y41.549
N19170G2X149.891Y40.717I-0.556J-0.832
N19180G01Y11.372
N19190G2X148.971Y10.375I-1.001J0.000
N19200G3X145.625Y7.988I0.320J-3.987
N19210G2X144.708Y7.388I-0.917J0.400
N19220G01X134.474
N19230G2X133.557Y7.988I0.000J1.001
N19240G3X126.225I-3.666J-1.600
N19250G00Z6.000
N19260G00X124.352Y14.714
N19270G01Z-0.900F20.0
N19280G01X139.896Y40.718F500.0
N19290X143.891Y38.046
N19300Y14.805
N19310G3X142.150Y13.388I5.402J-8.419
N19320G01X137.032
N19330G3X124.352Y14.714I-7.141J-6.999
N19340G00Z6.000
N19350G00X126.861Y16.962
N19360G01Z-0.900F20.0
N19370G01X140.214Y39.302F500.0
N19380X142.891Y37.512
N19390Y15.335
N19400G3X141.741Y14.388I6.408J-8.956
N19410G01X137.441
N19420G3X126.861Y16.962I-7.550J-7.999
N19430G00Z6.000
N19440G00X128.851Y18.343
N19450G01Z-0.900F20.0
N19460G01X140.533Y37.886F500.0
N19470X141.891Y36.978
N19480Y15.835
N19490X141.354Y15.388
N19500X137.828
N19510G3X128.851Y18.343I-7.937J-9.000
N19520G00Z6.000
N19530G00X136.812Y21.915
N19540G01Z-0.900F20.0
N19550G01X136.891Y22.049F500.0
N19560Y21.880
N19570X136.812Y21.915
N19580X135.354Y21.426
N19590X137.891Y25.671
N19600Y20.244
N19610G3X135.354Y21.426I-8.000J-13.855
N19620G01X133.849Y20.856
N19630X138.891Y29.293
N19640Y18.388
N19650G3X133.849Y20.856I-9.000J-11.999
N19660G01X132.281Y20.182
N19670X139.891Y32.915
N19680Y17.388
N19690X138.551
N19700G3X132.281Y20.182I-8.660J-11.000
N19710G01X130.629Y19.367
N19720X140.852Y36.470
N19730X140.891Y36.443
N19740Y16.388
N19750X138.197
N19760G3X130.629Y19.367I-8.306J-9.999
N19770G00Z6.000
N19780G00X123.183Y12.388
N19790G01Z-1.350F20.0
N19800G01X121.797F500.0
N19810X139.577Y42.134
N19820X144.891Y38.580
N19830Y14.239
N19840G3X142.583Y12.388I4.398J-7.849
N19850G01X136.599
N19860G3X123.183I-6.708J-6.000
N19870G01X123.646Y11.388
N19880X120.034
N19890X139.259Y43.550
N19900X145.891Y39.115
N19910Y13.630
N19920G3X143.046Y11.388I3.400J-7.242
N19930G01X136.136
N19940G3X123.646I-6.245J-5.000
N19950G01X124.147Y10.388
N19960X118.271
N19970X138.940Y44.966
N19980X146.891Y39.649
N19990Y12.964
N20000G3X143.547Y10.388I2.400J-6.576
N20010G01X135.635
N20020G3X124.147I-5.744J-4.000
N20030G01X124.695Y9.388
N20040X116.508
N20050X138.621Y46.382
N20060X147.891Y40.183
N20070Y12.222
N20080G3X144.095Y9.388I1.399J-5.834
N20090G01X135.087
N20100G3X124.695I-5.196J-3.000
N20110G01X125.309Y8.388
N20120X114.746Y8.388
N20130X138.303Y47.799
N20140X148.891Y40.717
N20150Y11.372
N20160G3X144.709Y8.388I0.400J-4.983
N20170G01X134.473
N20180G3X125.309I-4.582J-2.000
N20190G01X126.225Y7.988
N20200G2X125.308Y7.388I-0.917J0.400
N20210G01X114.747
N20220G2X113.888Y8.902I0.000J1.001
N20230G01X137.444Y48.311
N20240G2X138.859Y48.629I0.859J-0.513
N20250G01X149.447Y41.549
N20260G2X149.891Y40.717I-0.556J-0.832
N20270G01Y11.372
N20280G2X148.971Y10.375I-1.001J0.000
N20290G3X145.625Y7.988I0.320J-3.987
N20300G2X144.708Y7.388I-0.917J0.400
N20310G01X134.474
N20320G2X133.557Y7.988I0.000J1.001
N20330G3X126.225I-3.666J-1.600
N20340G00Z6.000
N20350G00X124.352Y14.714
N20360G01Z-1.350F20.0
N20370G01X139.896Y40.718F500.0
N20380X143.891Y38.046
N20390Y14.805
N20400G3X142.150Y13.388I5.402J-8.419
N20410G01X137.032
N20420G3X124.352Y14.714I-7.141J-6.999
N20430G00Z6.000
N20440G00X126.861Y16.962
N20450G01Z-1.350F20.0
N20460G01X140.214Y39.302F500.0
N20470X142.891Y37.512
N20480Y15.335
N20490G3X141.741Y14.388I6.408J-8.956
N20500G01X137.441
N20510G3X126.861Y16.962I-7.550J-7.999
N20520G00Z6.000
N20530G00X128.851Y18.343
N20540G01Z-1.350F20.0
N20550G01X140.533Y37.886F500.0
N20560X141.891Y36.978
N20570Y15.835
N20580X141.354Y15.388
N20590X137.828
N20600G3X128.851Y18.343I-7.937J-9.000
N20610G00Z6.000
N20620G00X136.812Y21.915
N20630G01Z-1.350F20.0
N20640G01X136.891Y22.049F500.0
N20650Y21.880
N20660X136.812Y21.915
N20670X135.354Y21.426
N20680X137.891Y25.671
N20690Y20.244
N20700G3X135.354Y21.426I-8.000J-13.855
N20710G01X133.849Y20.856
N20720X138.891Y29.293
N20730Y18.388
N20740G3X133.849Y20.856I-9.000J-11.999
N20750G01X132.281Y20.182
N20760X139.891Y32.915
N20770Y17.388
N20780X138.551
N20790G3X132.281Y20.182I-8.660J-11.000
N20800G01X130.629Y19.367
N20810X140.852Y36.470
N20820X140.891Y36.443
N20830Y16.388
N20840X138.197
N20850G3X130.629Y19.367I-8.306J-9.999
N20860G00Z6.000
N20870G00X123.183Y12.388
N20880G01Z-1.800F20.0
N20890G01X121.797F500.0
N20900X139.577Y42.134
N20910X144.891Y38.580
N20920Y14.239
N20930G3X142.583Y12.388I4.398J-7.849
N20940G01X136.599
N20950G3X123.183I-6.708J-6.000
N20960G01X123.646Y11.388
N20970X120.034
N20980X139.259Y43.550
N20990X145.891Y39.115
N21000Y13.630
N21010G3X143.046Y11.388I3.400J-7.242
N21020G01X136.136
N21030G3X123.646I-6.245J-5.000
N21040G01X124.147Y10.388
N21050X118.271
N21060X138.940Y44.966
N21070X146.891Y39.649
N21080Y12.964
N21090G3X143.547Y10.388I2.400J-6.576
N21100G01X135.635
N21110G3X124.147I-5.744J-4.000
N21120G01X124.695Y9.388
N21130X116.508
N21140X138.621Y46.382
N21150X147.891Y40.183
N21160Y12.222
N21170G3X144.095Y9.388I1.399J-5.834
N21180G01X135.087
N21190G3X124.695I-5.196J-3.000
N21200G01X125.309Y8.388
N21210X114.746Y8.388
N21220X138.303Y47.799
N21230X148.891Y40.717
N21240Y11.372
N21250G3X144.709Y8.388I0.400J-4.983
N21260G01X134.473
N21270G3X125.309I-4.582J-2.000
N21280G01X126.225Y7.988
N21290G2X125.308Y7.388I-0.917J0.400
N21300G01X114.747
N21310G2X113.888Y8.902I0.000J1.001
N21320G01X137.444Y48.311
N21330G2X138.859Y48.629I0.859J-0.513
N21340G01X149.447Y41.549
N21350G2X149.891Y40.717I-0.556J-0.832
N21360G01Y11.372
N21370G2X148.971Y10.375I-1.001J0.000
N21380G3X145.625Y7.988I0.320J-3.987
N21390G2X144.708Y7.388I-0.917J0.400
N21400G01X134.474
N21410G2X133.557Y7.988I0.000J1.001
N21420G3X126.225I-3.666J-1.600
N21430G00Z6.000
N21440G00X124.352Y14.714
N21450G01Z-1.800F20.0
N21460G01X139.896Y40.718F500.0
N21470X143.891Y38.046
N21480Y14.805
N21490G3X142.150Y13.388I5.402J-8.419
N21500G01X137.032
N21510G3X124.352Y14.714I-7.141J-6.999
N21520G00Z6.000
N21530G00X126.861Y16.962
N21540G01Z-1.800F20.0
N21550G01X140.214Y39.302F500.0
N21560X142.891Y37.512
N21570Y15.335
N21580G3X141.741Y14.388I6.408J-8.956
N21590G01X137.441
N21600G3X126.861Y16.962I-7.550J-7.999
N21610G00Z6.000
N21620G00X128.851Y18.343
N21630G01Z-1.800F20.0
N21640G01X140.533Y37.886F500.0
N21650X141.891Y36.978
N21660Y15.835
N21670X141.354Y15.388
N21680X137.828
N21690G3X128.851Y18.343I-7.937J-9.000
N21700G00Z6.000
N21710G00X136.812Y21.915
N21720G01Z-1.800F20.0
N21730G01X136.891Y22.049F500.0
N21740Y21.880
N21750X136.812Y21.915
N21760X135.354Y21.426
N21770X137.891Y25.671
N21780Y20.244
N21790G3X135.354Y21.426I-8.000J-13.855
N21800G01X133.849Y20.856
N21810X138.891Y29.293
N21820Y18.388
N21830G3X133.849Y20.856I-9.000J-11.999
N21840G01X132.281Y20.182
N21850X139.891Y32.915
N21860Y17.388
N21870X138.551
N21880G3X132.281Y20.182I-8.660J-11.000
N21890G01X130.629Y19.367
N21900X140.852Y36.470
N21910X140.891Y36.443
N21920Y16.388
N21930X138.197
N21940G3X130.629Y19.367I-8.306J-9.999
N21950G00Z6.000
N21960G00X123.183Y12.388
N21970G01Z-2.250F20.0
N21980G01X121.797F500.0
N21990X139.577Y42.134
N22000X144.891Y38.580
N22010Y14.239
N22020G3X142.583Y12.388I4.398J-7.849
N22030G01X136.599
N22040G3X123.183I-6.708J-6.000
N22050G01X123.646Y11.388
N22060X120.034
N22070X139.259Y43.550
N22080X145.891Y39.115
N22090Y13.630
N22100G3X143.046Y11.388I3.400J-7.242
N22110G01X136.136
N22120G3X123.646I-6.245J-5.000
N22130G01X124.147Y10.388
N22140X118.271
N22150X138.940Y44.966
N22160X146.891Y39.649
N22170Y12.964
N22180G3X143.547Y10.388I2.400J-6.576
N22190G01X135.635
N22200G3X124.147I-5.744J-4.000
N22210G01X124.695Y9.388
N22220X116.508
N22230X138.621Y46.382
N22240X147.891Y40.183
N22250Y12.222
N22260G3X144.095Y9.388I1.399J-5.834
N22270G01X135.087
N22280G3X124.695I-5.196J-3.000
N22290G01X125.309Y8.388
N22300X114.746Y8.388
N22310X138.303Y47.799
N22320X148.891Y40.717
N22330Y11.372
N22340G3X144.709Y8.388I0.400J-4.983
N22350G01X134.473
N22360G3X125.309I-4.582J-2.000
N22370G01X126.225Y7.988
N22380G2X125.308Y7.388I-0.917J0.400
N22390G01X114.747
N22400G2X113.888Y8.902I0.000J1.001
N22410G01X137.444Y48.311
N22420G2X138.859Y48.629I0.859J-0.513
N22430G01X149.447Y41.549
N22440G2X149.891Y40.717I-0.556J-0.832
N22450G01Y11.372
N22460G2X148.971Y10.375I-1.001J0.000
N22470G3X145.625Y7.988I0.320J-3.987
N22480G2X144.708Y7.388I-0.917J0.400
N22490G01X134.474
N22500G2X133.557Y7.988I0.000J1.001
N22510G3X126.225I-3.666J-1.600
N22520G00Z6.000
N22530G00X124.352Y14.714
N22540G01Z-2.250F20.0
N22550G01X139.896Y40.718F500.0
N22560X143.891Y38.046
N22570Y14.805
N22580G3X142.150Y13.388I5.402J-8.419
N22590G01X137.032
N22600G3X124.352Y14.714I-7.141J-6.999
N22610G00Z6.000
N22620G00X126.861Y16.962
N22630G01Z-2.250F20.0
N22640G01X140.214Y39.302F500.0
N22650X142.891Y37.512
N22660Y15.335
N22670G3X141.741Y14.388I6.408J-8.956
N22680G01X137.441
N22690G3X126.861Y16.962I-7.550J-7.999
N22700G00Z6.000
N22710G00X128.851Y18.343
N22720G01Z-2.250F20.0
N22730G01X140.533Y37.886F500.0
N22740X141.891Y36.978
N22750Y15.835
N22760X141.354Y15.388
N22770X137.828
N22780G3X128.851Y18.343I-7.937J-9.000
N22790G00Z6.000
N22800G00X136.812Y21.915
N22810G01Z-2.250F20.0
N22820G01X136.891Y22.049F500.0
N22830Y21.880
N22840X136.812Y21.915
N22850X135.354Y21.426
N22860X137.891Y25.671
N22870Y20.244
N22880G3X135.354Y21.426I-8.000J-13.855
N22890G01X133.849Y20.856
N22900X138.891Y29.293
N22910Y18.388
N22920G3X133.849Y20.856I-9.000J-11.999
N22930G01X132.281Y20.182
N22940X139.891Y32.915
N22950Y17.388
N22960X138.551
N22970G3X132.281Y20.182I-8.660J-11.000
N22980G01X130.629Y19.367
N22990X140.852Y36.470
N23000X140.891Y36.443
N23010Y16.388
N23020X138.197
N23030G3X130.629Y19.367I-8.306J-9.999
N23040G00Z6.000
N23050G00X123.183Y12.388
N23060G01Z-2.700F20.0
N23070G01X121.797F500.0
N23080X139.577Y42.134
N23090X144.891Y38.580
N23100Y14.239
N23110G3X142.583Y12.388I4.398J-7.849
N23120G01X136.599
N23130G3X123.183I-6.708J-6.000
N23140G01X123.646Y11.388
N23150X120.034
N23160X139.259Y43.550
N23170X145.891Y39.115
N23180Y13.630
N23190G3X143.046Y11.388I3.400J-7.242
N23200G01X136.136
N23210G3X123.646I-6.245J-5.000
N23220G01X124.147Y10.388
N23230X118.271
N23240X138.940Y44.966
N23250X146.891Y39.649
N23260Y12.964
N23270G3X143.547Y10.388I2.400J-6.576
N23280G01X135.635
N23290G3X124.147I-5.744J-4.000
N23300G01X124.695Y9.388
N23310X116.508
N23320X138.621Y46.382
N23330X147.891Y40.183
N23340Y12.222
N23350G3X144.095Y9.388I1.399J-5.834
N23360G01X135.087
N23370G3X124.695I-5.196J-3.000
N23380G01X125.309Y8.388
N23390X114.746Y8.388
N23400X138.303Y47.799
N23410X148.891Y40.717
N23420Y11.372
N23430G3X144.709Y8.388I0.400J-4.983
N23440G01X134.473
N23450G3X125.309I-4.582J-2.000
N23460G01X126.225Y7.988
N23470G2X125.308Y7.388I-0.917J0.400
N23480G01X114.747
N23490G2X113.888Y8.902I0.000J1.001
N23500G01X137.444Y48.311
N23510G2X138.859Y48.629I0.859J-0.513
N23520G01X149.447Y41.549
N23530G2X149.891Y40.717I-0.556J-0.832
N23540G01Y11.372
N23550G2X148.971Y10.375I-1.001J0.000
N23560G3X145.625Y7.988I0.320J-3.987
N23570G2X144.708Y7.388I-0.917J0.400
N23580G01X134.474
N23590G2X133.557Y7.988I0.000J1.001
N23600G3X126.225I-3.666J-1.600
N23610G00Z6.000
N23620G00X124.352Y14.714
N23630G01Z-2.700F20.0
N23640G01X139.896Y40.718F500.0
N23650X143.891Y38.046
N23660Y14.805
N23670G3X142.150Y13.388I5.402J-8.419
N23680G01X137.032
N23690G3X124.352Y14.714I-7.141J-6.999
N23700G00Z6.000
N23710G00X126.861Y16.962
N23720G01Z-2.700F20.0
N23730G01X140.214Y39.302F500.0
N23740X142.891Y37.512
N23750Y15.335
N23760G3X141.741Y14.388I6.408J-8.956
N23770G01X137.441
N23780G3X126.861Y16.962I-7.550J-7.999
N23790G00Z6.000
N23800G00X128.851Y18.343
N23810G01Z-2.700F20.0
N23820G01X140.533Y37.886F500.0
N23830X141.891Y36.978
N23840Y15.835
N23850X141.354Y15.388
N23860X137.828
N23870G3X128.851Y18.343I-7.937J-9.000
N23880G00Z6.000
N23890G00X136.812Y21.915
N23900G01Z-2.700F20.0
N23910G01X136.891Y22.049F500.0
N23920Y21.880
N23930X136.812Y21.915
N23940X135.354Y21.426
N23950X137.891Y25.671
N23960Y20.244
N23970G3X135.354Y21.426I-8.000J-13.855
N23980G01X133.849Y20.856
N23990X138.891Y29.293
N24000Y18.388
N24010G3X133.849Y20.856I-9.000J-11.999
N24020G01X132.281Y20.182
N24030X139.891Y32.915
N24040Y17.388
N24050X138.551
N24060G3X132.281Y20.182I-8.660J-11.000
N24070G01X130.629Y19.367
N24080X140.852Y36.470
N24090X140.891Y36.443
N24100Y16.388
N24110X138.197
N24120G3X130.629Y19.367I-8.306J-9.999
N24130G00Z6.000
N24140G00X109.818Y69.194
N24150G01Z-0.450F20.0
N24160G01X107.963F500.0
N24170X108.890Y71.170
N24180X109.818Y69.194
N24190X111.391Y68.194
N24200X106.389
N24210X108.890Y73.524
N24220X111.391Y68.194
N24230X112.965Y67.194
N24240X104.815
N24250X108.890Y75.878
N24260X112.965Y67.194
N24270X114.539Y66.194
N24280X103.241
N24290X108.890Y78.232
N24300X114.539Y66.194
N24310X114.538Y65.194
N24320X103.242
N24330G2X102.336Y66.619I0.000J1.001
N24340G01X107.984Y78.656
N24350G2X109.796I0.906J-0.425
N24360G01X115.444Y66.619
N24370G2X114.538Y65.194I-0.906J-0.425
N24380G00Z6.000
N24390G00X109.818Y69.194
N24400G01Z-0.900F20.0
N24410G01X107.963F500.0
N24420X108.890Y71.170
N24430X109.818Y69.194
N24440X111.391Y68.194
N24450X106.389
N24460X108.890Y73.524
N24470X111.391Y68.194
N24480X112.965Y67.194
N24490X104.815
N24500X108.890Y75.878
N24510X112.965Y67.194
N24520X114.539Y66.194
N24530X103.241
N24540X108.890Y78.232
N24550X114.539Y66.194
N24560X114.538Y65.194
N24570X103.242
N24580G2X102.336Y66.619I0.000J1.001
N24590G01X107.984Y78.656
N24600G2X109.796I0.906J-0.425
N24610G01X115.444Y66.619
N24620G2X114.538Y65.194I-0.906J-0.425
N24630G00Z6.000
N24640G00X109.818Y69.194
N24650G01Z-1.350F20.0
N24660G01X107.963F500.0
N24670X108.890Y71.170
N24680X109.818Y69.194
N24690X111.391Y68.194
N24700X106.389
N24710X108.890Y73.524
N24720X111.391Y68.194
N24730X112.965Y67.194
N24740X104.815
N24750X108.890Y75.878
N24760X112.965Y67.194
N24770X114.539Y66.194
N24780X103.241
N24790X108.890Y78.232
N24800X114.539Y66.194
N24810X114.538Y65.194
N24820X103.242
N24830G2X102.336Y66.619I0.000J1.001
N24840G01X107.984Y78.656
N24850G2X109.796I0.906J-0.425
N24860G01X115.444Y66.619
N24870G2X114.538Y65.194I-0.906J-0.425
N24880G00Z6.000
N24890G00X109.818Y69.194
N24900G01Z-1.800F20.0
N24910G01X107.963F500.0
N24920X108.890Y71.170
N24930X109.818Y69.194
N24940X111.391Y68.194
N24950X106.389
N24960X108.890Y73.524
N24970X111.391Y68.194
N24980X112.965Y67.194
N24990X104.815
N25000X108.890Y75.878
N25010X112.965Y67.194
N25020X114.539Y66.194
N25030X103.241
N25040X108.890Y78.232
N25050X114.539Y66.194
N25060X114.538Y65.194
N25070X103.242
N25080G2X102.336Y66.619I0.000J1.001
N25090G01X107.984Y78.656
N25100G2X109.796I0.906J-0.425
N25110G01X115.444Y66.619
N25120G2X114.538Y65.194I-0.906J-0.425
N25130G00Z6.000
N25140G00X109.818Y69.194
N25150G01Z-2.250F20.0
N25160G01X107.963F500.0
N25170X108.890Y71.170
N25180X109.818Y69.194
N25190X111.391Y68.194
N25200X106.389
N25210X108.890Y73.524
N25220X111.391Y68.194
N25230X112.965Y67.194
N25240X104.815
N25250X108.890Y75.878
N25260X112.965Y67.194
N25270X114.539Y66.194
N25280X103.241
N25290X108.890Y78.232
N25300X114.539Y66.194
N25310X114.538Y65.194
N25320X103.242
N25330G2X102.336Y66.619I0.000J1.001
N25340G01X107.984Y78.656
N25350G2X109.796I0.906J-0.425
N25360G01X115.444Y66.619
N25370G2X114.538Y65.194I-0.906J-0.425
N25380G00Z6.000
N25390G00X109.818Y69.194
N25400G01Z-2.700F20.0
N25410G01X107.963F500.0
N25420X108.890Y71.170
N25430X109.818Y69.194
N25440X111.391Y68.194
N25450X106.389
N25460X108.890Y73.524
N25470X111.391Y68.194
N25480X112.965Y67.194
N25490X104.815
N25500X108.890Y75.878
N25510X112.965Y67.194
N25520X114.539Y66.194
N25530X103.241
N25540X108.890Y78.232
N25550X114.539Y66.194
N25560X114.538Y65.194
N25570X103.242
N25580G2X102.336Y66.619I0.000J1.001
N25590G01X107.984Y78.656
N25600G2X109.796I0.906J-0.425
N25610G01X115.444Y66.619
N25620G2X114.538Y65.194I-0.906J-0.425
N25630G00Z6.000
N25640G00X103.368Y85.293
N25650G01Z-0.450F20.0
N25660G01X102.990Y84.489F500.0
N25670Y86.097
N25680X103.368Y85.293
N25690X104.472
N25700X101.990Y80.004
N25710Y90.582
N25720X104.472Y85.293
N25730X105.577
N25740X100.990Y75.519
N25750Y95.067
N25760X105.577Y85.293
N25770X106.482Y84.868
N25780X101.897Y75.096
N25790G2X99.990Y75.521I-0.906J0.425
N25800G01Y95.064
N25810G2X101.897Y95.489I1.001J0.000
N25820G01X106.482Y85.718
N25830G2Y84.868I-0.906J-0.425
N25840G00Z6.000
N25850G00X103.368Y85.293
N25860G01Z-0.900F20.0
N25870G01X102.990Y84.489F500.0
N25880Y86.097
N25890X103.368Y85.293
N25900X104.472
N25910X101.990Y80.004
N25920Y90.582
N25930X104.472Y85.293
N25940X105.577
N25950X100.990Y75.519
N25960Y95.067
N25970X105.577Y85.293
N25980X106.482Y84.868
N25990X101.897Y75.096
N26000G2X99.990Y75.521I-0.906J0.425
N26010G01Y95.064
N26020G2X101.897Y95.489I1.001J0.000
N26030G01X106.482Y85.718
N26040G2Y84.868I-0.906J-0.425
N26050G00Z6.000
N26060G00X103.368Y85.293
N26070G01Z-1.350F20.0
N26080G01X102.990Y84.489F500.0
N26090Y86.097
N26100X103.368Y85.293
N26110X104.472
N26120X101.990Y80.004
N26130Y90.582
N26140X104.472Y85.293
N26150X105.577
N26160X100.990Y75.519
N26170Y95.067
N26180X105.577Y85.293
N26190X106.482Y84.868
N26200X101.897Y75.096
N26210G2X99.990Y75.521I-0.906J0.425
N26220G01Y95.064
N26230G2X101.897Y95.489I1.001J0.000
N26240G01X106.482Y85.718
N26250G2Y84.868I-0.906J-0.425
N26260G00Z6.000
N26270G00X103.368Y85.293
N26280G01Z-1.800F20.0
N26290G01X102.990Y84.489F500.0
N26300Y86.097
N26310X103.368Y85.293
N26320X104.472
N26330X101.990Y80.004
N26340Y90.582
N26350X104.472Y85.293
N26360X105.577
N26370X100.990Y75.519
N26380Y95.067
N26390X105.577Y85.293
N26400X106.482Y84.868
N26410X101.897Y75.096
N26420G2X99.990Y75.521I-0.906J0.425
N26430G01Y95.064
N26440G2X101.897Y95.489I1.001J0.000
N26450G01X106.482Y85.718
N26460G2Y84.868I-0.906J-0.425
N26470G00Z6.000
N26480G00X103.368Y85.293
N26490G01Z-2.250F20.0
N26500G01X102.990Y84.489F500.0
N26510Y86.097
N26520X103.368Y85.293
N26530X104.472
N26540X101.990Y80.004
N26550Y90.582
N26560X104.472Y85.293
N26570X105.577
N26580X100.990Y75.519
N26590Y95.067
N26600X105.577Y85.293
N26610X106.482Y84.868
N26620X101.897Y75.096
N26630G2X99.990Y75.521I-0.906J0.425
N26640G01Y95.064
N26650G2X101.897Y95.489I1.001J0.000
N26660G01X106.482Y85.718
N26670G2Y84.868I-0.906J-0.425
N26680G00Z6.000
N26690G00X103.368Y85.293
N26700G01Z-2.700F20.0
N26710G01X102.990Y84.489F500.0
N26720Y86.097
N26730X103.368Y85.293
N26740X104.472
N26750X101.990Y80.004
N26760Y90.582
N26770X104.472Y85.293
N26780X105.577
N26790X100.990Y75.519
N26800Y95.067
N26810X105.577Y85.293
N26820X106.482Y84.868
N26830X101.897Y75.096
N26840G2X99.990Y75.521I-0.906J0.425
N26850G01Y95.064
N26860G2X101.897Y95.489I1.001J0.000
N26870G01X106.482Y85.718
N26880G2Y84.868I-0.906J-0.425
N26890G00Z6.000
N26900G00X109.816Y101.389
N26910G01Z-0.450F20.0
N26920G01X108.890Y99.416F500.0
N26930X107.964Y101.389
N26940X109.816
N26950X111.390Y102.389
N26960X108.890Y97.062
N26970X106.390Y102.389
N26980X111.390
N26990X112.964Y103.389
N27000X108.890Y94.708
N27010X104.816Y103.389
N27020X112.964
N27030X114.538Y104.389
N27040X108.890Y92.354
N27050X103.243Y104.389
N27060X114.538
N27070X114.537Y105.389
N27080G2X115.443Y103.963I0.000J-1.001
N27090G01X109.796Y91.930
N27100G2X107.984I-0.906J0.425
N27110G01X102.338Y103.963
N27120G2X103.243Y105.389I0.906J0.425
N27130G01X114.537
N27140G00Z6.000
N27150G00X109.816Y101.389
N27160G01Z-0.900F20.0
N27170G01X108.890Y99.416F500.0
N27180X107.964Y101.389
N27190X109.816
N27200X111.390Y102.389
N27210X108.890Y97.062
N27220X106.390Y102.389
N27230X111.390
N27240X112.964Y103.389
N27250X108.890Y94.708
N27260X104.816Y103.389
N27270X112.964
N27280X114.538Y104.389
N27290X108.890Y92.354
N27300X103.243Y104.389
N27310X114.538
N27320X114.537Y105.389
N27330G2X115.443Y103.963I0.000J-1.001
N27340G01X109.796Y91.930
N27350G2X107.984I-0.906J0.425
N27360G01X102.338Y103.963
N27370G2X103.243Y105.389I0.906J0.425
N27380G01X114.537
N27390G00Z6.000
N27400G00X109.816Y101.389
N27410G01Z-1.350F20.0
N27420G01X108.890Y99.416F500.0
N27430X107.964Y101.389
N27440X109.816
N27450X111.390Y102.389
N27460X108.890Y97.062
N27470X106.390Y102.389
N27480X111.390
N27490X112.964Y103.389
N27500X108.890Y94.708
N27510X104.816Y103.389
N27520X112.964
N27530X114.538Y104.389
N27540X108.890Y92.354
N27550X103.243Y104.389
N27560X114.538
N27570X114.537Y105.389
N27580G2X115.443Y103.963I0.000J-1.001
N27590G01X109.796Y91.930
N27600G2X107.984I-0.906J0.425
N27610G01X102.338Y103.963
N27620G2X103.243Y105.389I0.906J0.425
N27630G01X114.537
N27640G00Z6.000
N27650G00X109.816Y101.389
N27660G01Z-1.800F20.0
N27670G01X108.890Y99.416F500.0
N27680X107.964Y101.389
N27690X109.816
N27700X111.390Y102.389
N27710X108.890Y97.062
N27720X106.390Y102.389
N27730X111.390
N27740X112.964Y103.389
N27750X108.890Y94.708
N27760X104.816Y103.389
N27770X112.964
N27780X114.538Y104.389
N27790X108.890Y92.354
N27800X103.243Y104.389
N27810X114.538
N27820X114.537Y105.389
N27830G2X115.443Y103.963I0.000J-1.001
N27840G01X109.796Y91.930
N27850G2X107.984I-0.906J0.425
N27860G01X102.338Y103.963
N27870G2X103.243Y105.389I0.906J0.425
N27880G01X114.537
N27890G00Z6.000
N27900G00X109.816Y101.389
N27910G01Z-2.250F20.0
N27920G01X108.890Y99.416F500.0
N27930X107.964Y101.389
N27940X109.816
N27950X111.390Y102.389
N27960X108.890Y97.062
N27970X106.390Y102.389
N27980X111.390
N27990X112.964Y103.389
N28000X108.890Y94.708
N28010X104.816Y103.389
N28020X112.964
N28030X114.538Y104.389
N28040X108.890Y92.354
N28050X103.243Y104.389
N28060X114.538
N28070X114.537Y105.389
N28080G2X115.443Y103.963I0.000J-1.001
N28090G01X109.796Y91.930
N28100G2X107.984I-0.906J0.425
N28110G01X102.338Y103.963
N28120G2X103.243Y105.389I0.906J0.425
N28130G01X114.537
N28140G00Z6.000
N28150G00X109.816Y101.389
N28160G01Z-2.700F20.0
N28170G01X108.890Y99.416F500.0
N28180X107.964Y101.389
N28190X109.816
N28200X111.390Y102.389
N28210X108.890Y97.062
N28220X106.390Y102.389
N28230X111.390
N28240X112.964Y103.389
N28250X108.890Y94.708
N28260X104.816Y103.389
N28270X112.964
N28280X114.538Y104.389
N28290X108.890Y92.354
N28300X103.243Y104.389
N28310X114.538
N28320X114.537Y105.389
N28330G2X115.443Y103.963I0.000J-1.001
N28340G01X109.796Y91.930
N28350G2X107.984I-0.906J0.425
N28360G01X102.338Y103.963
N28370G2X103.243Y105.389I0.906J0.425
N28380G01X114.537
N28390G00Z6.000
N28400G00X114.413Y85.293
N28410G01Z-0.450F20.0
N28420G01X114.791Y86.100F500.0
N28430Y84.486
N28440X114.413Y85.293
N28450X113.308
N28460X115.791Y90.585
N28470Y80.001
N28480X113.308Y85.293
N28490X112.204
N28500X116.791Y95.070
N28510Y75.516
N28520X112.204Y85.293
N28530X111.298Y85.718
N28540X115.885Y95.493
N28550G2X117.791Y95.068I0.906J-0.425
N28560G01Y75.518
N28570G2X115.885Y75.093I-1.000J0.000
N28580G01X111.298Y84.868
N28590G2Y85.718I0.906J0.425
N28600G00Z6.000
N28610G00X114.413Y85.293
N28620G01Z-0.900F20.0
N28630G01X114.791Y86.100F500.0
N28640Y84.486
N28650X114.413Y85.293
N28660X113.308
N28670X115.791Y90.585
N28680Y80.001
N28690X113.308Y85.293
N28700X112.204
N28710X116.791Y95.070
N28720Y75.516
N28730X112.204Y85.293
N28740X111.298Y85.718
N28750X115.885Y95.493
N28760G2X117.791Y95.068I0.906J-0.425
N28770G01Y75.518
N28780G2X115.885Y75.093I-1.000J0.000
N28790G01X111.298Y84.868
N28800G2Y85.718I0.906J0.425
N28810G00Z6.000
N28820G00X114.413Y85.293
N28830G01Z-1.350F20.0
N28840G01X114.791Y86.100F500.0
N28850Y84.486
N28860X114.413Y85.293
N28870X113.308
N28880X115.791Y90.585
N28890Y80.001
N28900X113.308Y85.293
N28910X112.204
N28920X116.791Y95.070
N28930Y75.516
N28940X112.204Y85.293
N28950X111.298Y85.718
N28960X115.885Y95.493
N28970G2X117.791Y95.068I0.906J-0.425
N28980G01Y75.518
N28990G2X115.885Y75.093I-1.000J0.000
N29000G01X111.298Y84.868
N29010G2Y85.718I0.906J0.425
N29020G00Z6.000
N29030G00X114.413Y85.293
N29040G01Z-1.800F20.0
N29050G01X114.791Y86.100F500.0
N29060Y84.486
N29070X114.413Y85.293
N29080X113.308
N29090X115.791Y90.585
N29100Y80.001
N29110X113.308Y85.293
N29120X112.204
N29130X116.791Y95.070
N29140Y75.516
N29150X112.204Y85.293
N29160X111.298Y85.718
N29170X115.885Y95.493
N29180G2X117.791Y95.068I0.906J-0.425
N29190G01Y75.518
N29200G2X115.885Y75.093I-1.000J0.000
N29210G01X111.298Y84.868
N29220G2Y85.718I0.906J0.425
N29230G00Z6.000
N29240G00X114.413Y85.293
N29250G01Z-2.250F20.0
N29260G01X114.791Y86.100F500.0
N29270Y84.486
N29280X114.413Y85.293
N29290X113.308
N29300X115.791Y90.585
N29310Y80.001
N29320X113.308Y85.293
N29330X112.204
N29340X116.791Y95.070
N29350Y75.516
N29360X112.204Y85.293
N29370X111.298Y85.718
N29380X115.885Y95.493
N29390G2X117.791Y95.068I0.906J-0.425
N29400G01Y75.518
N29410G2X115.885Y75.093I-1.000J0.000
N29420G01X111.298Y84.868
N29430G2Y85.718I0.906J0.425
N29440G00Z6.000
N29450G00X114.413Y85.293
N29460G01Z-2.700F20.0
N29470G01X114.791Y86.100F500.0
N29480Y84.486
N29490X114.413Y85.293
N29500X113.308
N29510X115.791Y90.585
N29520Y80.001
N29530X113.308Y85.293
N29540X112.204
N29550X116.791Y95.070
N29560Y75.516
N29570X112.204Y85.293
N29580X111.298Y85.718
N29590X115.885Y95.493
N29600G2X117.791Y95.068I0.906J-0.425
N29610G01Y75.518
N29620G2X115.885Y75.093I-1.000J0.000
N29630G01X111.298Y84.868
N29640G2Y85.718I0.906J0.425
N29650G00Z6.000
N29660G00X65.161Y94.814
N29670G01Z-0.450F20.0
N29680G3X75.741Y97.389I3.030J10.574F500.0
N29690G01X80.041
N29700G3X81.191Y96.442I7.542J7.989
N29710G01Y74.265
N29720X78.514Y72.475
N29730X65.161Y94.814
N29740G00Z6.000
N29750G00X67.151Y93.434
N29760G01Z-0.450F20.0
N29770G3X76.128Y96.389I1.040J11.954F500.0
N29780G01X79.654
N29790X80.191Y95.942
N29800Y74.799
N29810X78.833Y73.891
N29820X67.151Y93.434
N29830G00Z6.000
N29840G00X62.652Y97.063
N29850G01Z-0.450F20.0
N29860G3X75.332Y98.389I5.539J8.325F500.0
N29870G01X80.450
N29880G3X82.191Y96.972I7.139J6.996
N29890G01Y73.731
N29900X78.196Y71.059
N29910X62.652Y97.063
N29920G00Z6.000
N29930G00X61.483Y99.389
N29940G01Z-0.450F20.0
N29950G3X74.899I6.708J5.999F500.0
N29960G01X80.883
N29970G3X83.191Y97.538I6.709J6.001
N29980G01Y73.196
N29990X77.877Y69.643
N30000X60.097Y99.389
N30010X61.483
N30020X61.946Y100.389
N30030G3X74.436I6.245J4.999
N30040G01X81.346
N30050G3X84.191Y98.147I6.245J4.999
N30060G01Y72.662
N30070X77.559Y68.227
N30080X58.334Y100.389
N30090X61.946
N30100X62.447Y101.389
N30110G3X73.935I5.744J3.999
N30120G01X81.847
N30130G3X85.191Y98.813I5.744J3.999
N30140G01Y72.128
N30150X77.240Y66.810
N30160X56.571Y101.389
N30170X62.447
N30180X62.995Y102.389
N30190G3X73.387I5.196J2.999
N30200G01X82.395
N30210G3X86.191Y99.554I5.196J3.000
N30220G01Y71.594
N30230X76.921Y65.394
N30240X54.808Y102.389
N30250X62.995
N30260X63.609Y103.389
N30270G3X72.773I4.582J2.000
N30280G01X83.009
N30290G3X87.191Y100.405I4.582J2.000
N30300G01X87.191Y100.404
N30310Y71.059
N30320X76.603Y63.978
N30330X53.046Y103.389
N30340X63.609Y103.389
N30350X64.525Y103.789
N30360G3X71.857I3.666J1.600
N30370G2X72.774Y104.389I0.917J-0.400
N30380G01X83.008
N30390G2X83.925Y103.789I0.000J-1.001
N30400G3X87.271Y101.402I3.666J1.600
N30410G2X88.191Y100.404I-0.080J-0.997
N30420G01Y71.060
N30430G2X87.747Y70.228I-1.001J0.000
N30440G01X77.159Y63.147
N30450G2X75.744Y63.466I-0.556J0.832
N30460G01X52.188Y102.875
N30470G2X53.047Y104.389I0.859J0.513
N30480G01X63.608
N30490G2X64.525Y103.789I0.000J-1.001
N30500G00Z6.000
N30510G00X75.112Y89.861
N30520G01Z-0.450F20.0
N30530G01X75.191Y89.897F500.0
N30540Y89.728
N30550X75.112Y89.861
N30560X73.654Y90.351
N30570G3X76.191Y91.533I-5.464J15.039
N30580G01Y86.106
N30590X73.654Y90.351
N30600X72.149Y90.920
N30610G3X77.191Y93.389I-3.958J14.468
N30620G01Y82.484
N30630X72.149Y90.920
N30640X70.581Y91.594
N30650G3X76.851Y94.389I-2.390J13.794
N30660G01X78.191
N30670Y78.862
N30680X70.581Y91.594
N30690X68.929Y92.410
N30700G3X76.497Y95.389I-0.738J12.979
N30710G01X79.191
N30720Y75.333
N30730X79.152Y75.307
N30740X68.929Y92.410
N30750G00Z6.000
N30760G00X65.161Y94.814
N30770G01Z-0.900F20.0
N30780G3X75.741Y97.389I3.030J10.574F500.0
N30790G01X80.041
N30800G3X81.191Y96.442I7.542J7.989
N30810G01Y74.265
N30820X78.514Y72.475
N30830X65.161Y94.814
N30840G00Z6.000
N30850G00X67.151Y93.434
N30860G01Z-0.900F20.0
N30870G3X76.128Y96.389I1.040J11.954F500.0
N30880G01X79.654
N30890X80.191Y95.942
N30900Y74.799
N30910X78.833Y73.891
N30920X67.151Y93.434
N30930G00Z6.000
N30940G00X62.652Y97.063
N30950G01Z-0.900F20.0
N30960G3X75.332Y98.389I5.539J8.325F500.0
N30970G01X80.450
N30980G3X82.191Y96.972I7.139J6.996
N30990G01Y73.731
N31000X78.196Y71.059
N31010X62.652Y97.063
N31020G00Z6.000
N31030G00X61.483Y99.389
N31040G01Z-0.900F20.0
N31050G3X74.899I6.708J5.999F500.0
N31060G01X80.883
N31070G3X83.191Y97.538I6.709J6.001
N31080G01Y73.196
N31090X77.877Y69.643
N31100X60.097Y99.389
N31110X61.483
N31120X61.946Y100.389
N31130G3X74.436I6.245J4.999
N31140G01X81.346
N31150G3X84.191Y98.147I6.245J4.999
N31160G01Y72.662
N31170X77.559Y68.227
N31180X58.334Y100.389
N31190X61.946
N31200X62.447Y101.389
N31210G3X73.935I5.744J3.999
N31220G01X81.847
N31230G3X85.191Y98.813I5.744J3.999
N31240G01Y72.128
N31250X77.240Y66.810
N31260X56.571Y101.389
N31270X62.447
N31280X62.995Y102.389
N31290G3X73.387I5.196J2.999
N31300G01X82.395
N31310G3X86.191Y99.554I5.196J3.000
N31320G01Y71.594
N31330X76.921Y65.394
N31340X54.808Y102.389
N31350X62.995
N31360X63.609Y103.389
N31370G3X72.773I4.582J2.000
N31380G01X83.009
N31390G3X87.191Y100.405I4.582J2.000
N31400G01X87.191Y100.404
N31410Y71.059
N31420X76.603Y63.978
N31430X53.046Y103.389
N31440X63.609Y103.389
N31450X64.525Y103.789
N31460G3X71.857I3.666J1.600
N31470G2X72.774Y104.389I0.917J-0.400
N31480G01X83.008
N31490G2X83.925Y103.789I0.000J-1.001
N31500G3X87.271Y101.402I3.666J1.600
N31510G2X88.191Y100.404I-0.080J-0.997
N31520G01Y71.060
N31530G2X87.747Y70.228I-1.001J0.000
N31540G01X77.159Y63.147
N31550G2X75.744Y63.466I-0.556J0.832
N31560G01X52.188Y102.875
N31570G2X53.047Y104.389I0.859J0.513
N31580G01X63.608
N31590G2X64.525Y103.789I0.000J-1.001
N31600G00Z6.000
N31610G00X75.112Y89.861
N31620G01Z-0.900F20.0
N31630G01X75.191Y89.897F500.0
N31640Y89.728
N31650X75.112Y89.861
N31660X73.654Y90.351
N31670G3X76.191Y91.533I-5.464J15.039
N31680G01Y86.106
N31690X73.654Y90.351
N31700X72.149Y90.920
N31710G3X77.191Y93.389I-3.958J14.468
N31720G01Y82.484
N31730X72.149Y90.920
N31740X70.581Y91.594
N31750G3X76.851Y94.389I-2.390J13.794
N31760G01X78.191
N31770Y78.862
N31780X70.581Y91.594
N31790X68.929Y92.410
N31800G3X76.497Y95.389I-0.738J12.979
N31810G01X79.191
N31820Y75.333
N31830X79.152Y75.307
N31840X68.929Y92.410
N31850G00Z6.000
N31860G00X65.161Y94.814
N31870G01Z-1.350F20.0
N31880G3X75.741Y97.389I3.030J10.574F500.0
N31890G01X80.041
N31900G3X81.191Y96.442I7.542J7.989
N31910G01Y74.265
N31920X78.514Y72.475
N31930X65.161Y94.814
N31940G00Z6.000
N31950G00X67.151Y93.434
N31960G01Z-1.350F20.0
N31970G3X76.128Y96.389I1.040J11.954F500.0
N31980G01X79.654
N31990X80.191Y95.942
N32000Y74.799
N32010X78.833Y73.891
N32020X67.151Y93.434
N32030G00Z6.000
N32040G00X62.652Y97.063
N32050G01Z-1.350F20.0
N32060G3X75.332Y98.389I5.539J8.325F500.0
N32070G01X80.450
N32080G3X82.191Y96.972I7.139J6.996
N32090G01Y73.731
N32100X78.196Y71.059
N32110X62.652Y97.063
N32120G00Z6.000
N32130G00X61.483Y99.389
N32140G01Z-1.350F20.0
N32150G3X74.899I6.708J5.999F500.0
N32160G01X80.883
N32170G3X83.191Y97.538I6.709J6.001
N32180G01Y73.196
N32190X77.877Y69.643
N32200X60.097Y99.389
N32210X61.483
N32220X61.946Y100.389
N32230G3X74.436I6.245J4.999
N32240G01X81.346
N32250G3X84.191Y98.147I6.245J4.999
N32260G01Y72.662
N32270X77.559Y68.227
N32280X58.334Y100.389
N32290X61.946
N32300X62.447Y101.389
N32310G3X73.935I5.744J3.999
N32320G01X81.847
N32330G3X85.191Y98.813I5.744J3.999
N32340G01Y72.128
N32350X77.240Y66.810
N32360X56.571Y101.389
N32370X62.447
N32380X62.995Y102.389
N32390G3X73.387I5.196J2.999
N32400G01X82.395
N32410G3X86.191Y99.554I5.196J3.000
N32420G01Y71.594
N32430X76.921Y65.394
N32440X54.808Y102.389
N32450X62.995
N32460X63.609Y103.389
N32470G3X72.773I4.582J2.000
N32480G01X83.009
N32490G3X87.191Y100.405I4.582J2.000
N32500G01X87.191Y100.404
N32510Y71.059
N32520X76.603Y63.978
N32530X53.046Y103.389
N32540X63.609Y103.389
N32550X64.525Y103.789
N32560G3X71.857I3.666J1.600
N32570G2X72.774Y104.389I0.917J-0.400
N32580G01X83.008
N32590G2X83.925Y103.789I0.000J-1.001
N32600G3X87.271Y101.402I3.666J1.600
N32610G2X88.191Y100.404I-0.080J-0.997
N32620G01Y71.060
N32630G2X87.747Y70.228I-1.001J0.000
N32640G01X77.159Y63.147
N32650G2X75.744Y63.466I-0.556J0.832
N32660G01X52.188Y102.875
N32670G2X53.047Y104.389I0.859J0.513
N32680G01X63.608
N32690G2X64.525Y103.789I0.000J-1.001
N32700G00Z6.000
N32710G00X75.112Y89.861
N32720G01Z-1.350F20.0
N32730G01X75.191Y89.897F500.0
N32740Y89.728
N32750X75.112Y89.861
N32760X73.654Y90.351
N32770G3X76.191Y91.533I-5.464J15.039
N32780G01Y86.106
N32790X73.654Y90.351
N32800X72.149Y90.920
N32810G3X77.191Y93.389I-3.958J14.468
N32820G01Y82.484
N32830X72.149Y90.920
N32840X70.581Y91.594
N32850G3X76.851Y94.389I-2.390J13.794
N32860G01X78.191
N32870Y78.862
N32880X70.581Y91.594
N32890X68.929Y92.410
N32900G3X76.497Y95.389I-0.738J12.979
N32910G01X79.191
N32920Y75.333
N32930X79.152Y75.307
N32940X68.929Y92.410
N32950G00Z6.000
N32960G00X65.161Y94.814
N32970G01Z-1.800F20.0
N32980G3X75.741Y97.389I3.030J10.574F500.0
N32990G01X80.041
N33000G3X81.191Y96.442I7.542J7.989
N33010G01Y74.265
N33020X78.514Y72.475
N33030X65.161Y94.814
N33040G00Z6.000
N33050G00X67.151Y93.434
N33060G01Z-1.800F20.0
N33070G3X76.128Y96.389I1.040J11.954F500.0
N33080G01X79.654
N33090X80.191Y95.942
N33100Y74.799
N33110X78.833Y73.891
N33120X67.151Y93.434
N33130G00Z6.000
N33140G00X62.652Y97.063
N33150G01Z-1.800F20.0
N33160G3X75.332Y98.389I5.539J8.325F500.0
N33170G01X80.450
N33180G3X82.191Y96.972I7.139J6.996
N33190G01Y73.731
N33200X78.196Y71.059
N33210X62.652Y97.063
N33220G00Z6.000
N33230G00X61.483Y99.389
N33240G01Z-1.800F20.0
N33250G3X74.899I6.708J5.999F500.0
N33260G01X80.883
N33270G3X83.191Y97.538I6.709J6.001
N33280G01Y73.196
N33290X77.877Y69.643
N33300X60.097Y99.389
N33310X61.483
N33320X61.946Y100.389
N33330G3X74.436I6.245J4.999
N33340G01X81.346
N33350G3X84.191Y98.147I6.245J4.999
N33360G01Y72.662
N33370X77.559Y68.227
N33380X58.334Y100.389
N33390X61.946
N33400X62.447Y101.389
N33410G3X73.935I5.744J3.999
N33420G01X81.847
N33430G3X85.191Y98.813I5.744J3.999
N33440G01Y72.128
N33450X77.240Y66.810
N33460X56.571Y101.389
N33470X62.447
N33480X62.995Y102.389
N33490G3X73.387I5.196J2.999
N33500G01X82.395
N33510G3X86.191Y99.554I5.196J3.000
N33520G01Y71.594
N33530X76.921Y65.394
N33540X54.808Y102.389
N33550X62.995
N33560X63.609Y103.389
N33570G3X72.773I4.582J2.000
N33580G01X83.009
N33590G3X87.191Y100.405I4.582J2.000
N33600G01X87.191Y100.404
N33610Y71.059
N33620X76.603Y63.978
N33630X53.046Y103.389
N33640X63.609Y103.389
N33650X64.525Y103.789
N33660G3X71.857I3.666J1.600
N33670G2X72.774Y104.389I0.917J-0.400
N33680G01X83.008
N33690G2X83.925Y103.789I0.000J-1.001
N33700G3X87.271Y101.402I3.666J1.600
N33710G2X88.191Y100.404I-0.080J-0.997
N33720G01Y71.060
N33730G2X87.747Y70.228I-1.001J0.000
N33740G01X77.159Y63.147
N33750G2X75.744Y63.466I-0.556J0.832
N33760G01X52.188Y102.875
N33770G2X53.047Y104.389I0.859J0.513
N33780G01X63.608
N33790G2X64.525Y103.789I0.000J-1.001
N33800G00Z6.000
N33810G00X75.112Y89.861
N33820G01Z-1.800F20.0
N33830G01X75.191Y89.897F500.0
N33840Y89.728
N33850X75.112Y89.861
N33860X73.654Y90.351
N33870G3X76.191Y91.533I-5.464J15.039
N33880G01Y86.106
N33890X73.654Y90.351
N33900X72.149Y90.920
N33910G3X77.191Y93.389I-3.958J14.468
N33920G01Y82.484
N33930X72.149Y90.920
N33940X70.581Y91.594
N33950G3X76.851Y94.389I-2.390J13.794
N33960G01X78.191
N33970Y78.862
N33980X70.581Y91.594
N33990X68.929Y92.410
N34000G3X76.497Y95.389I-0.738J12.979
N34010G01X79.191
N34020Y75.333
N34030X79.152Y75.307
N34040X68.929Y92.410
N34050G00Z6.000
N34060G00X65.161Y94.814
N34070G01Z-2.250F20.0
N34080G3X75.741Y97.389I3.030J10.574F500.0
N34090G01X80.041
N34100G3X81.191Y96.442I7.542J7.989
N34110G01Y74.265
N34120X78.514Y72.475
N34130X65.161Y94.814
N34140G00Z6.000
N34150G00X67.151Y93.434
N34160G01Z-2.250F20.0
N34170G3X76.128Y96.389I1.040J11.954F500.0
N34180G01X79.654
N34190X80.191Y95.942
N34200Y74.799
N34210X78.833Y73.891
N34220X67.151Y93.434
N34230G00Z6.000
N34240G00X62.652Y97.063
N34250G01Z-2.250F20.0
N34260G3X75.332Y98.389I5.539J8.325F500.0
N34270G01X80.450
N34280G3X82.191Y96.972I7.139J6.996
N34290G01Y73.731
N34300X78.196Y71.059
N34310X62.652Y97.063
N34320G00Z6.000
N34330G00X61.483Y99.389
N34340G01Z-2.250F20.0
N34350G3X74.899I6.708J5.999F500.0
N34360G01X80.883
N34370G3X83.191Y97.538I6.709J6.001
N34380G01Y73.196
N34390X77.877Y69.643
N34400X60.097Y99.389
N34410X61.483
N34420X61.946Y100.389
N34430G3X74.436I6.245J4.999
N34440G01X81.346
N34450G3X84.191Y98.147I6.245J4.999
N34460G01Y72.662
N34470X77.559Y68.227
N34480X58.334Y100.389
N34490X61.946
N34500X62.447Y101.389
N34510G3X73.935I5.744J3.999
N34520G01X81.847
N34530G3X85.191Y98.813I5.744J3.999
N34540G01Y72.128
N34550X77.240Y66.810
N34560X56.571Y101.389
N34570X62.447
N34580X62.995Y102.389
N34590G3X73.387I5.196J2.999
N34600G01X82.395
N34610G3X86.191Y99.554I5.196J3.000
N34620G01Y71.594
N34630X76.921Y65.394
N34640X54.808Y102.389
N34650X62.995
N34660X63.609Y103.389
N34670G3X72.773I4.582J2.000
N34680G01X83.009
N34690G3X87.191Y100.405I4.582J2.000
N34700G01X87.191Y100.404
N34710Y71.059
N34720X76.603Y63.978
N34730X53.046Y103.389
N34740X63.609Y103.389
N34750X64.525Y103.789
N34760G3X71.857I3.666J1.600
N34770G2X72.774Y104.389I0.917J-0.400
N34780G01X83.008
N34790G2X83.925Y103.789I0.000J-1.001
N34800G3X87.271Y101.402I3.666J1.600
N34810G2X88.191Y100.404I-0.080J-0.997
N34820G01Y71.060
N34830G2X87.747Y70.228I-1.001J0.000
N34840G01X77.159Y63.147
N34850G2X75.744Y63.466I-0.556J0.832
N34860G01X52.188Y102.875
N34870G2X53.047Y104.389I0.859J0.513
N34880G01X63.608
N34890G2X64.525Y103.789I0.000J-1.001
N34900G00Z6.000
N34910G00X75.112Y89.861
N34920G01Z-2.250F20.0
N34930G01X75.191Y89.897F500.0
N34940Y89.728
N34950X75.112Y89.861
N34960X73.654Y90.351
N34970G3X76.191Y91.533I-5.464J15.039
N34980G01Y86.106
N34990X73.654Y90.351
N35000X72.149Y90.920
N35010G3X77.191Y93.389I-3.958J14.468
N35020G01Y82.484
N35030X72.149Y90.920
N35040X70.581Y91.594
N35050G3X76.851Y94.389I-2.390J13.794
N35060G01X78.191
N35070Y78.862
N35080X70.581Y91.594
N35090X68.929Y92.410
N35100G3X76.497Y95.389I-0.738J12.979
N35110G01X79.191
N35120Y75.333
N35130X79.152Y75.307
N35140X68.929Y92.410
N35150G00Z6.000
N35160G00X65.161Y94.814
N35170G01Z-2.700F20.0
N35180G3X75.741Y97.389I3.030J10.574F500.0
N35190G01X80.041
N35200G3X81.191Y96.442I7.542J7.989
N35210G01Y74.265
N35220X78.514Y72.475
N35230X65.161Y94.814
N35240G00Z6.000
N35250G00X67.151Y93.434
N35260G01Z-2.700F20.0
N35270G3X76.128Y96.389I1.040J11.954F500.0
N35280G01X79.654
N35290X80.191Y95.942
N35300Y74.799
N35310X78.833Y73.891
N35320X67.151Y93.434
N35330G00Z6.000
N35340G00X62.652Y97.063
N35350G01Z-2.700F20.0
N35360G3X75.332Y98.389I5.539J8.325F500.0
N35370G01X80.450
N35380G3X82.191Y96.972I7.139J6.996
N35390G01Y73.731
N35400X78.196Y71.059
N35410X62.652Y97.063
N35420G00Z6.000
N35430G00X61.483Y99.389
N35440G01Z-2.700F20.0
N35450G3X74.899I6.708J5.999F500.0
N35460G01X80.883
N35470G3X83.191Y97.538I6.709J6.001
N35480G01Y73.196
N35490X77.877Y69.643
N35500X60.097Y99.389
N35510X61.483
N35520X61.946Y100.389
N35530G3X74.436I6.245J4.999
N35540G01X81.346
N35550G3X84.191Y98.147I6.245J4.999
N35560G01Y72.662
N35570X77.559Y68.227
N35580X58.334Y100.389
N35590X61.946
N35600X62.447Y101.389
N35610G3X73.935I5.744J3.999
N35620G01X81.847
N35630G3X85.191Y98.813I5.744J3.999
N35640G01Y72.128
N35650X77.240Y66.810
N35660X56.571Y101.389
N35670X62.447
N35680X62.995Y102.389
N35690G3X73.387I5.196J2.999
N35700G01X82.395
N35710G3X86.191Y99.554I5.196J3.000
N35720G01Y71.594
N35730X76.921Y65.394
N35740X54.808Y102.389
N35750X62.995
N35760X63.609Y103.389
N35770G3X72.773I4.582J2.000
N35780G01X83.009
N35790G3X87.191Y100.405I4.582J2.000
N35800G01X87.191Y100.404
N35810Y71.059
N35820X76.603Y63.978
N35830X53.046Y103.389
N35840X63.609Y103.389
N35850X64.525Y103.789
N35860G3X71.857I3.666J1.600
N35870G2X72.774Y104.389I0.917J-0.400
N35880G01X83.008
N35890G2X83.925Y103.789I0.000J-1.001
N35900G3X87.271Y101.402I3.666J1.600
N35910G2X88.191Y100.404I-0.080J-0.997
N35920G01Y71.060
N35930G2X87.747Y70.228I-1.001J0.000
N35940G01X77.159Y63.147
N35950G2X75.744Y63.466I-0.556J0.832
N35960G01X52.188Y102.875
N35970G2X53.047Y104.389I0.859J0.513
N35980G01X63.608
N35990G2X64.525Y103.789I0.000J-1.001
N36000G00Z6.000
N36010G00X75.112Y89.861
N36020G01Z-2.700F20.0
N36030G01X75.191Y89.897F500.0
N36040Y89.728
N36050X75.112Y89.861
N36060X73.654Y90.351
N36070G3X76.191Y91.533I-5.464J15.039
N36080G01Y86.106
N36090X73.654Y90.351
N36100X72.149Y90.920
N36110G3X77.191Y93.389I-3.958J14.468
N36120G01Y82.484
N36130X72.149Y90.920
N36140X70.581Y91.594
N36150G3X76.851Y94.389I-2.390J13.794
N36160G01X78.191
N36170Y78.862
N36180X70.581Y91.594
N36190X68.929Y92.410
N36200G3X76.497Y95.389I-0.738J12.979
N36210G01X79.191
N36220Y75.333
N36230X79.152Y75.307
N36240X68.929Y92.410
N36250G00Z6.000
N36260G00X47.191Y70.306
N36270G01Z-0.450F20.0
N36280G01X48.222Y68.582F500.0
N36290X46.160
N36300X47.191Y70.306
N36310Y72.255
N36320X49.984Y67.582
N36330X44.397
N36340X47.191Y72.255
N36350Y74.204
N36360X51.747Y66.582
N36370X42.635
N36380X47.191Y74.204
N36390Y76.153
N36400X53.510Y65.582
N36410X40.872
N36420X47.191Y76.153
N36430Y78.103
N36440X55.273Y64.582
N36450X39.109
N36460X47.191Y78.103
N36470Y80.052
N36480X57.036Y63.582
N36490X37.346
N36500X47.191Y80.052
N36510Y82.001
N36520X58.798Y62.582
N36530X35.584
N36540X47.191Y82.001
N36550Y83.950
N36560X60.523Y61.646
N36570X60.427Y61.582
N36580X33.955
N36590X33.859Y61.646
N36600X47.191Y83.950
N36610Y85.899
N36620X61.869Y61.343
N36630X60.731Y60.582
N36640X33.651
N36650X32.513Y61.343
N36660X47.191Y85.899
N36670Y87.848
N36680X63.215Y61.040
N36690X61.034Y59.582
N36700X33.348
N36710X31.167Y61.040
N36720X47.191Y87.848
N36730Y89.797
N36740X64.561Y60.737
N36750X61.338Y58.582
N36760X33.044
N36770X29.821Y60.737
N36780X47.191Y89.797
N36790Y91.746
N36800X65.907Y60.434
N36810X61.641Y57.582
N36820X32.740
N36830X28.475Y60.434
N36840X47.191Y91.746
N36850Y93.695
N36860X67.253Y60.132
N36870X61.945Y56.582
N36880X32.437
N36890X27.129Y60.132
N36900X47.191Y93.695
N36910Y95.644
N36920X68.599Y59.829
N36930X62.249Y55.582
N36940X32.133
N36950X25.783Y59.829
N36960X47.191Y95.644
N36970Y97.593
N36980X69.945Y59.526
N36990X62.552Y54.582
N37000X31.830
N37010X24.437Y59.526
N37020X47.191Y97.593
N37030X48.050Y98.105
N37040X70.803Y60.039
N37050G2X70.501Y58.694I-0.859J-0.513
N37060G01X63.108Y53.751
N37070G2X62.552Y53.582I-0.556J0.832
N37080G01X31.830
N37090G2X31.274Y53.751I0.000J1.000
N37100G01X23.881Y58.694
N37110G2X23.579Y60.039I0.556J0.832
N37120G01X46.332Y98.105
N37130G2X48.050I0.859J-0.513
N37140G00Z6.000
N37150G00X47.191Y70.306
N37160G01Z-0.900F20.0
N37170G01X48.222Y68.582F500.0
N37180X46.160
N37190X47.191Y70.306
N37200Y72.255
N37210X49.984Y67.582
N37220X44.397
N37230X47.191Y72.255
N37240Y74.204
N37250X51.747Y66.582
N37260X42.635
N37270X47.191Y74.204
N37280Y76.153
N37290X53.510Y65.582
N37300X40.872
N37310X47.191Y76.153
N37320Y78.103
N37330X55.273Y64.582
N37340X39.109
N37350X47.191Y78.103
N37360Y80.052
N37370X57.036Y63.582
N37380X37.346
N37390X47.191Y80.052
N37400Y82.001
N37410X58.798Y62.582
N37420X35.584
N37430X47.191Y82.001
N37440Y83.950
N37450X60.523Y61.646
N37460X60.427Y61.582
N37470X33.955
N37480X33.859Y61.646
N37490X47.191Y83.950
N37500Y85.899
N37510X61.869Y61.343
N37520X60.731Y60.582
N37530X33.651
N37540X32.513Y61.343
N37550X47.191Y85.899
N37560Y87.848
N37570X63.215Y61.040
N37580X61.034Y59.582
N37590X33.348
N37600X31.167Y61.040
N37610X47.191Y87.848
N37620Y89.797
N37630X64.561Y60.737
N37640X61.338Y58.582
N37650X33.044
N37660X29.821Y60.737
N37670X47.191Y89.797
N37680Y91.746
N37690X65.907Y60.434
N37700X61.641Y57.582
N37710X32.740
N37720X28.475Y60.434
N37730X47.191Y91.746
N37740Y93.695
N37750X67.253Y60.132
N37760X61.945Y56.582
N37770X32.437
N37780X27.129Y60.132
N37790X47.191Y93.695
N37800Y95.644
N37810X68.599Y59.829
N37820X62.249Y55.582
N37830X32.133
N37840X25.783Y59.829
N37850X47.191Y95.644
N37860Y97.593
N37870X69.945Y59.526
N37880X62.552Y54.582
N37890X31.830
N37900X24.437Y59.526
N37910X47.191Y97.593
N37920X48.050Y98.105
N37930X70.803Y60.039
N37940G2X70.501Y58.694I-0.859J-0.513
N37950G01X63.108Y53.751
N37960G2X62.552Y53.582I-0.556J0.832
N37970G01X31.830
N37980G2X31.274Y53.751I0.000J1.000
N37990G01X23.881Y58.694
N38000G2X23.579Y60.039I0.556J0.832
N38010G01X46.332Y98.105
N38020G2X48.050I0.859J-0.513
N38030G00Z6.000
N38040G00X47.191Y70.306
N38050G01Z-1.350F20.0
N38060G01X48.222Y68.582F500.0
N38070X46.160
N38080X47.191Y70.306
N38090Y72.255
N38100X49.984Y67.582
N38110X44.397
N38120X47.191Y72.255
N38130Y74.204
N38140X51.747Y66.582
N38150X42.635
N38160X47.191Y74.204
N38170Y76.153
N38180X53.510Y65.582
N38190X40.872
N38200X47.191Y76.153
N38210Y78.103
N38220X55.273Y64.582
N38230X39.109
N38240X47.191Y78.103
N38250Y80.052
N38260X57.036Y63.582
N38270X37.346
N38280X47.191Y80.052
N38290Y82.001
N38300X58.798Y62.582
N38310X35.584
N38320X47.191Y82.001
N38330Y83.950
N38340X60.523Y61.646
N38350X60.427Y61.582
N38360X33.955
N38370X33.859Y61.646
N38380X47.191Y83.950
N38390Y85.899
N38400X61.869Y61.343
N38410X60.731Y60.582
N38420X33.651
N38430X32.513Y61.343
N38440X47.191Y85.899
N38450Y87.848
N38460X63.215Y61.040
N38470X61.034Y59.582
N38480X33.348
N38490X31.167Y61.040
N38500X47.191Y87.848
N38510Y89.797
N38520X64.561Y60.737
N38530X61.338Y58.582
N38540X33.044
N38550X29.821Y60.737
N38560X47.191Y89.797
N38570Y91.746
N38580X65.907Y60.434
N38590X61.641Y57.582
N38600X32.740
N38610X28.475Y60.434
N38620X47.191Y91.746
N38630Y93.695
N38640X67.253Y60.132
N38650X61.945Y56.582
N38660X32.437
N38670X27.129Y60.132
N38680X47.191Y93.695
N38690Y95.644
N38700X68.599Y59.829
N38710X62.249Y55.582
N38720X32.133
N38730X25.783Y59.829
N38740X47.191Y95.644
N38750Y97.593
N38760X69.945Y59.526
N38770X62.552Y54.582
N38780X31.830
N38790X24.437Y59.526
N38800X47.191Y97.593
N38810X48.050Y98.105
N38820X70.803Y60.039
N38830G2X70.501Y58.694I-0.859J-0.513
N38840G01X63.108Y53.751
N38850G2X62.552Y53.582I-0.556J0.832
N38860G01X31.830
N38870G2X31.274Y53.751I0.000J1.000
N38880G01X23.881Y58.694
N38890G2X23.579Y60.039I0.556J0.832
N38900G01X46.332Y98.105
N38910G2X48.050I0.859J-0.513
N38920G00Z6.000
N38930G00X47.191Y70.306
N38940G01Z-1.800F20.0
N38950G01X48.222Y68.582F500.0
N38960X46.160
N38970X47.191Y70.306
N38980Y72.255
N38990X49.984Y67.582
N39000X44.397
N39010X47.191Y72.255
N39020Y74.204
N39030X51.747Y66.582
N39040X42.635
N39050X47.191Y74.204
N39060Y76.153
N39070X53.510Y65.582
N39080X40.872
N39090X47.191Y76.153
N39100Y78.103
N39110X55.273Y64.582
N39120X39.109
N39130X47.191Y78.103
N39140Y80.052
N39150X57.036Y63.582
N39160X37.346
N39170X47.191Y80.052
N39180Y82.001
N39190X58.798Y62.582
N39200X35.584
N39210X47.191Y82.001
N39220Y83.950
N39230X60.523Y61.646
N39240X60.427Y61.582
N39250X33.955
N39260X33.859Y61.646
N39270X47.191Y83.950
N39280Y85.899
N39290X61.869Y61.343
N39300X60.731Y60.582
N39310X33.651
N39320X32.513Y61.343
N39330X47.191Y85.899
N39340Y87.848
N39350X63.215Y61.040
N39360X61.034Y59.582
N39370X33.348
N39380X31.167Y61.040
N39390X47.191Y87.848
N39400Y89.797
N39410X64.561Y60.737
N39420X61.338Y58.582
N39430X33.044
N39440X29.821Y60.737
N39450X47.191Y89.797
N39460Y91.746
N39470X65.907Y60.434
N39480X61.641Y57.582
N39490X32.740
N39500X28.475Y60.434
N39510X47.191Y91.746
N39520Y93.695
N39530X67.253Y60.132
N39540X61.945Y56.582
N39550X32.437
N39560X27.129Y60.132
N39570X47.191Y93.695
N39580Y95.644
N39590X68.599Y59.829
N39600X62.249Y55.582
N39610X32.133
N39620X25.783Y59.829
N39630X47.191Y95.644
N39640Y97.593
N39650X69.945Y59.526
N39660X62.552Y54.582
N39670X31.830
N39680X24.437Y59.526
N39690X47.191Y97.593
N39700X48.050Y98.105
N39710X70.803Y60.039
N39720G2X70.501Y58.694I-0.859J-0.513
N39730G01X63.108Y53.751
N39740G2X62.552Y53.582I-0.556J0.832
N39750G01X31.830
N39760G2X31.274Y53.751I0.000J1.000
N39770G01X23.881Y58.694
N39780G2X23.579Y60.039I0.556J0.832
N39790G01X46.332Y98.105
N39800G2X48.050I0.859J-0.513
N39810G00Z6.000
N39820G00X47.191Y70.306
N39830G01Z-2.250F20.0
N39840G01X48.222Y68.582F500.0
N39850X46.160
N39860X47.191Y70.306
N39870Y72.255
N39880X49.984Y67.582
N39890X44.397
N39900X47.191Y72.255
N39910Y74.204
N39920X51.747Y66.582
N39930X42.635
N39940X47.191Y74.204
N39950Y76.153
N39960X53.510Y65.582
N39970X40.872
N39980X47.191Y76.153
N39990Y78.103
N40000X55.273Y64.582
N40010X39.109
N40020X47.191Y78.103
N40030Y80.052
N40040X57.036Y63.582
N40050X37.346
N40060X47.191Y80.052
N40070Y82.001
N40080X58.798Y62.582
N40090X35.584
N40100X47.191Y82.001
N40110Y83.950
N40120X60.523Y61.646
N40130X60.427Y61.582
N40140X33.955
N40150X33.859Y61.646
N40160X47.191Y83.950
N40170Y85.899
N40180X61.869Y61.343
N40190X60.731Y60.582
N40200X33.651
N40210X32.513Y61.343
N40220X47.191Y85.899
N40230Y87.848
N40240X63.215Y61.040
N40250X61.034Y59.582
N40260X33.348
N40270X31.167Y61.040
N40280X47.191Y87.848
N40290Y89.797
N40300X64.561Y60.737
N40310X61.338Y58.582
N40320X33.044
N40330X29.821Y60.737
N40340X47.191Y89.797
N40350Y91.746
N40360X65.907Y60.434
N40370X61.641Y57.582
N40380X32.740
N40390X28.475Y60.434
N40400X47.191Y91.746
N40410Y93.695
N40420X67.253Y60.132
N40430X61.945Y56.582
N40440X32.437
N40450X27.129Y60.132
N40460X47.191Y93.695
N40470Y95.644
N40480X68.599Y59.829
N40490X62.249Y55.582
N40500X32.133
N40510X25.783Y59.829
N40520X47.191Y95.644
N40530Y97.593
N40540X69.945Y59.526
N40550X62.552Y54.582
N40560X31.830
N40570X24.437Y59.526
N40580X47.191Y97.593
N40590X48.050Y98.105
N40600X70.803Y60.039
N40610G2X70.501Y58.694I-0.859J-0.513
N40620G01X63.108Y53.751
N40630G2X62.552Y53.582I-0.556J0.832
N40640G01X31.830
N40650G2X31.274Y53.751I0.000J1.000
N40660G01X23.881Y58.694
N40670G2X23.579Y60.039I0.556J0.832
N40680G01X46.332Y98.105
N40690G2X48.050I0.859J-0.513
N40700G00Z6.000
N40710G00X47.191Y70.306
N40720G01Z-2.700F20.0
N40730G01X48.222Y68.582F500.0
N40740X46.160
N40750X47.191Y70.306
N40760Y72.255
N40770X49.984Y67.582
N40780X44.397
N40790X47.191Y72.255
N40800Y74.204
N40810X51.747Y66.582
N40820X42.635
N40830X47.191Y74.204
N40840Y76.153
N40850X53.510Y65.582
N40860X40.872
N40870X47.191Y76.153
N40880Y78.103
N40890X55.273Y64.582
N40900X39.109
N40910X47.191Y78.103
N40920Y80.052
N40930X57.036Y63.582
N40940X37.346
N40950X47.191Y80.052
N40960Y82.001
N40970X58.798Y62.582
N40980X35.584
N40990X47.191Y82.001
N41000Y83.950
N41010X60.523Y61.646
N41020X60.427Y61.582
N41030X33.955
N41040X33.859Y61.646
N41050X47.191Y83.950
N41060Y85.899
N41070X61.869Y61.343
N41080X60.731Y60.582
N41090X33.651
N41100X32.513Y61.343
N41110X47.191Y85.899
N41120Y87.848
N41130X63.215Y61.040
N41140X61.034Y59.582
N41150X33.348
N41160X31.167Y61.040
N41170X47.191Y87.848
N41180Y89.797
N41190X64.561Y60.737
N41200X61.338Y58.582
N41210X33.044
N41220X29.821Y60.737
N41230X47.191Y89.797
N41240Y91.746
N41250X65.907Y60.434
N41260X61.641Y57.582
N41270X32.740
N41280X28.475Y60.434
N41290X47.191Y91.746
N41300Y93.695
N41310X67.253Y60.132
N41320X61.945Y56.582
N41330X32.437
N41340X27.129Y60.132
N41350X47.191Y93.695
N41360Y95.644
N41370X68.599Y59.829
N41380X62.249Y55.582
N41390X32.133
N41400X25.783Y59.829
N41410X47.191Y95.644
N41420Y97.593
N41430X69.945Y59.526
N41440X62.552Y54.582
N41450X31.830
N41460X24.437Y59.526
N41470X47.191Y97.593
N41480X48.050Y98.105
N41490X70.803Y60.039
N41500G2X70.501Y58.694I-0.859J-0.513
N41510G01X63.108Y53.751
N41520G2X62.552Y53.582I-0.556J0.832
N41530G01X31.830
N41540G2X31.274Y53.751I0.000J1.000
N41550G01X23.881Y58.694
N41560G2X23.579Y60.039I0.556J0.832
N41570G01X46.332Y98.105
N41580G2X48.050I0.859J-0.513
N41590G00Z6.000
N41600G00X19.270Y89.861
N41610G01Z-0.450F20.0
N41620G01X19.190Y89.728F500.0
N41630Y89.897
N41640X19.270Y89.861
N41650X20.727Y90.351
N41660X18.190Y86.106
N41670Y91.533
N41680G3X20.727Y90.351I8.000J13.855
N41690G01X22.233Y90.920
N41700X17.190Y82.484
N41710Y93.389
N41720X17.191
N41730G3X22.233Y90.920I9.000J11.999
N41740G01X23.801Y91.594
N41750X16.190Y78.862
N41760Y94.389
N41770X17.531
N41780G3X23.801Y91.594I8.660J11.000
N41790G01X25.453Y92.410
N41800X15.230Y75.307
N41810X15.190Y75.333
N41820Y95.389
N41830X17.884
N41840G3X25.453Y92.410I8.306J9.999
N41850G00Z6.000
N41860G00X27.231Y93.434
N41870G01Z-0.450F20.0
N41880G01X15.549Y73.891F500.0
N41890X14.190Y74.799
N41900Y95.942
N41910X14.728Y96.389
N41920X18.254
N41930G3X27.231Y93.434I7.937J9.000
N41940G00Z6.000
N41950G00X29.221Y94.814
N41960G01Z-0.450F20.0
N41970G01X15.867Y72.475F500.0
N41980X13.190Y74.265
N41990Y96.442
N42000G3X14.341Y97.389I-6.408J8.956
N42010G01X18.641
N42020G3X29.221Y94.814I7.550J7.999
N42030G00Z6.000
N42040G00X31.730Y97.063
N42050G01Z-0.450F20.0
N42060G01X16.186Y71.059F500.0
N42070X12.190Y73.731
N42080Y96.972
N42090G3X13.932Y98.389I-5.402J8.419
N42100G01X19.050
N42110G3X31.730Y97.063I7.141J6.999
N42120G00Z6.000
N42130G00X32.899Y99.389
N42140G01Z-0.450F20.0
N42150G01X34.285F500.0
N42160X16.505Y69.643
N42170X11.190Y73.196
N42180Y97.538
N42190G3X13.499Y99.389I-4.398J7.849
N42200G01X19.483
N42210G3X32.899I6.708J5.999
N42220G01X32.436Y100.389
N42230X36.048
N42240X16.823Y68.227
N42250X10.190Y72.662
N42260Y98.147
N42270G3X13.036Y100.389I-3.400J7.242
N42280G01X19.946
N42290G3X32.436I6.245J4.999
N42300G01X31.935Y101.389
N42310X37.811
N42320X17.142Y66.810
N42330X9.190Y72.128
N42340Y98.813
N42350G3X12.535Y101.389I-2.400J6.576
N42360G01X20.447
N42370G3X31.935I5.744J3.999
N42380G01X31.387Y102.389
N42390X39.573
N42400X17.460Y65.394
N42410X8.190Y71.594
N42420Y99.554
N42430G3X11.987Y102.389I-1.399J5.834
N42440G01X20.995
N42450G3X31.387I5.196J2.999
N42460G01X30.773Y103.389
N42470X41.336Y103.389
N42480X17.779Y63.978
N42490X7.190Y71.059
N42500Y100.404
N42510X7.191Y100.405
N42520G3X11.373Y103.389I-0.400J4.983
N42530G01X21.609
N42540G3X30.773I4.582J2.000
N42550G01X29.857Y103.789
N42560G2X30.774Y104.389I0.917J-0.400
N42570G01X41.335
N42580G2X42.194Y102.875I0.000J-1.001
N42590G01X18.638Y63.466
N42600G2X17.223Y63.147I-0.859J0.513
N42610G01X6.635Y70.228
N42620G2X6.190Y71.060I0.556J0.832
N42630G01Y100.404
N42640G2X7.111Y101.402I1.000J0.000
N42650G3X10.457Y103.789I-0.320J3.987
N42660G2X11.374Y104.389I0.917J-0.400
N42670G01X21.608
N42680G2X22.525Y103.789I0.000J-1.001
N42690G3X29.857I3.666J1.600
N42700G00Z6.000
N42710G00X19.270Y89.861
N42720G01Z-0.900F20.0
N42730G01X19.190Y89.728F500.0
N42740Y89.897
N42750X19.270Y89.861
N42760X20.727Y90.351
N42770X18.190Y86.106
N42780Y91.533
N42790G3X20.727Y90.351I8.000J13.855
N42800G01X22.233Y90.920
N42810X17.190Y82.484
N42820Y93.389
N42830X17.191
N42840G3X22.233Y90.920I9.000J11.999
N42850G01X23.801Y91.594
N42860X16.190Y78.862
N42870Y94.389
N42880X17.531
N42890G3X23.801Y91.594I8.660J11.000
N42900G01X25.453Y92.410
N42910X15.230Y75.307
N42920X15.190Y75.333
N42930Y95.389
N42940X17.884
N42950G3X25.453Y92.410I8.306J9.999
N42960G00Z6.000
N42970G00X27.231Y93.434
N42980G01Z-0.900F20.0
N42990G01X15.549Y73.891F500.0
N43000X14.190Y74.799
N43010Y95.942
N43020X14.728Y96.389
N43030X18.254
N43040G3X27.231Y93.434I7.937J9.000
N43050G00Z6.000
N43060G00X29.221Y94.814
N43070G01Z-0.900F20.0
N43080G01X15.867Y72.475F500.0
N43090X13.190Y74.265
N43100Y96.442
N43110G3X14.341Y97.389I-6.408J8.956
N43120G01X18.641
N43130G3X29.221Y94.814I7.550J7.999
N43140G00Z6.000
N43150G00X31.730Y97.063
N43160G01Z-0.900F20.0
N43170G01X16.186Y71.059F500.0
N43180X12.190Y73.731
N43190Y96.972
N43200G3X13.932Y98.389I-5.402J8.419
N43210G01X19.050
N43220G3X31.730Y97.063I7.141J6.999
N43230G00Z6.000
N43240G00X32.899Y99.389
N43250G01Z-0.900F20.0
N43260G01X34.285F500.0
N43270X16.505Y69.643
N43280X11.190Y73.196
N43290Y97.538
N43300G3X13.499Y99.389I-4.398J7.849
N43310G01X19.483
N43320G3X32.899I6.708J5.999
