( Profile 1 )
( USBCNC Postprocessor )
N20G00G21G17G90G40G49
N30G80
N40G00G43Z20.000H1
N50S16000M03
N60G94
N70X0.000Y0.000F500.0
N80G00X8.892Y14.186Z6.000
N90G01Z-0.100F20.0
N100G01Y23.186F500.0
N110G2X9.893Y24.187I1.001J0.000
N120G3X14.488Y27.217I0.000J5.000
N130G2X15.802Y27.743I0.920J-0.394
N140G01X39.772Y17.470
N150G2X40.298Y16.156I-0.394J-0.920
N160G3X39.893Y14.186I4.595J-1.969
N170G2X38.893Y13.186I-1.000J0.000
N180G01X9.893
N190G2X8.892Y14.186I0.000J1.001
N200G01Z-0.200F20.0
N210G01Y23.186F500.0
N220G2X9.893Y24.187I1.001J0.000
N230G3X14.488Y27.217I0.000J5.000
N240G2X15.802Y27.743I0.920J-0.394
N250G01X39.772Y17.470
N260G2X40.298Y16.156I-0.394J-0.920
N270G3X39.893Y14.186I4.595J-1.969
N280G2X38.893Y13.186I-1.000J0.000
N290G01X9.893
N300G2X8.892Y14.186I0.000J1.001
N310G01Z-0.300F20.0
N320G01Y23.186F500.0
N330G2X9.893Y24.187I1.001J0.000
N340G3X14.488Y27.217I0.000J5.000
N350G2X15.802Y27.743I0.920J-0.394
N360G01X39.772Y17.470
N370G2X40.298Y16.156I-0.394J-0.920
N380G3X39.893Y14.186I4.595J-1.969
N390G2X38.893Y13.186I-1.000J0.000
N400G01X9.893
N410G2X8.892Y14.186I0.000J1.001
N420G01Z-0.400F20.0
N430G01Y23.186F500.0
N440G2X9.893Y24.187I1.001J0.000
N450G3X14.488Y27.217I0.000J5.000
N460G2X15.802Y27.743I0.920J-0.394
N470G01X39.772Y17.470
N480G2X40.298Y16.156I-0.394J-0.920
N490G3X39.893Y14.186I4.595J-1.969
N500G2X38.893Y13.186I-1.000J0.000
N510G01X9.893
N520G2X8.892Y14.186I0.000J1.001
N530G01Z-0.500F20.0
N540G01Y23.186F500.0
N550G2X9.893Y24.187I1.001J0.000
N560G3X14.488Y27.217I0.000J5.000
N570G2X15.802Y27.743I0.920J-0.394
N580G01X39.772Y17.470
N590G2X40.298Y16.156I-0.394J-0.920
N600G3X39.893Y14.186I4.595J-1.969
N610G2X38.893Y13.186I-1.000J0.000
N620G01X9.893
N630G2X8.892Y14.186I0.000J1.001
N640G01Z-0.600F20.0
N650G01Y23.186F500.0
N660G2X9.893Y24.187I1.001J0.000
N670G3X14.488Y27.217I0.000J5.000
N680G2X15.802Y27.743I0.920J-0.394
N690G01X39.772Y17.470
N700G2X40.298Y16.156I-0.394J-0.920
N710G3X39.893Y14.186I4.595J-1.969
N720G2X38.893Y13.186I-1.000J0.000
N730G01X9.893
N740G2X8.892Y14.186I0.000J1.001
N750G01Z-0.700F20.0
N760G01Y23.186F500.0
N770G2X9.893Y24.187I1.001J0.000
N780G3X14.488Y27.217I0.000J5.000
N790G2X15.802Y27.743I0.920J-0.394
N800G01X39.772Y17.470
N810G2X40.298Y16.156I-0.394J-0.920
N820G3X39.893Y14.186I4.595J-1.969
N830G2X38.893Y13.186I-1.000J0.000
N840G01X9.893
N850G2X8.892Y14.186I0.000J1.001
N860G01Z-0.800F20.0
N870G01Y23.186F500.0
N880G2X9.893Y24.187I1.001J0.000
N890G3X14.488Y27.217I0.000J5.000
N900G2X15.802Y27.743I0.920J-0.394
N910G01X39.772Y17.470
N920G2X40.298Y16.156I-0.394J-0.920
N930G3X39.893Y14.186I4.595J-1.969
N940G2X38.893Y13.186I-1.000J0.000
N950G01X9.893
N960G2X8.892Y14.186I0.000J1.001
N970G01Z-0.900F20.0
N980G01Y23.186F500.0
N990G2X9.893Y24.187I1.001J0.000
N1000G3X14.488Y27.217I0.000J5.000
N1010G2X15.802Y27.743I0.920J-0.394
N1020G01X39.772Y17.470
N1030G2X40.298Y16.156I-0.394J-0.920
N1040G3X39.893Y14.186I4.595J-1.969
N1050G2X38.893Y13.186I-1.000J0.000
N1060G01X9.893
N1070G2X8.892Y14.186I0.000J1.001
N1080G01Z-1.000F20.0
N1090G01Y23.186F500.0
N1100G2X9.893Y24.187I1.001J0.000
N1110G3X14.488Y27.217I0.000J5.000
N1120G2X15.802Y27.743I0.920J-0.394
N1130G01X39.772Y17.470
N1140G2X40.298Y16.156I-0.394J-0.920
N1150G3X39.893Y14.186I4.595J-1.969
N1160G2X38.893Y13.186I-1.000J0.000
N1170G01X9.893
N1180G2X8.892Y14.186I0.000J1.001
N1190G01Z-1.100F20.0
N1200G01Y23.186F500.0
N1210G2X9.893Y24.187I1.001J0.000
N1220G3X14.488Y27.217I0.000J5.000
N1230G2X15.802Y27.743I0.920J-0.394
N1240G01X39.772Y17.470
N1250G2X40.298Y16.156I-0.394J-0.920
N1260G3X39.893Y14.186I4.595J-1.969
N1270G2X38.893Y13.186I-1.000J0.000
N1280G01X9.893
N1290G2X8.892Y14.186I0.000J1.001
N1300G01Z-1.200F20.0
N1310G01Y23.186F500.0
N1320G2X9.893Y24.187I1.001J0.000
N1330G3X14.488Y27.217I0.000J5.000
N1340G2X15.802Y27.743I0.920J-0.394
N1350G01X39.772Y17.470
N1360G2X40.298Y16.156I-0.394J-0.920
N1370G3X39.893Y14.186I4.595J-1.969
N1380G2X38.893Y13.186I-1.000J0.000
N1390G01X9.893
N1400G2X8.892Y14.186I0.000J1.001
N1410G01Z-1.300F20.0
N1420G01Y23.186F500.0
N1430G2X9.893Y24.187I1.001J0.000
N1440G3X14.488Y27.217I0.000J5.000
N1450G2X15.802Y27.743I0.920J-0.394
N1460G01X39.772Y17.470
N1470G2X40.298Y16.156I-0.394J-0.920
N1480G3X39.893Y14.186I4.595J-1.969
N1490G2X38.893Y13.186I-1.000J0.000
N1500G01X9.893
N1510G2X8.892Y14.186I0.000J1.001
N1520G01Z-1.400F20.0
N1530G01Y23.186F500.0
N1540G2X9.893Y24.187I1.001J0.000
N1550G3X14.488Y27.217I0.000J5.000
N1560G2X15.802Y27.743I0.920J-0.394
N1570G01X39.772Y17.470
N1580G2X40.298Y16.156I-0.394J-0.920
N1590G3X39.893Y14.186I4.595J-1.969
N1600G2X38.893Y13.186I-1.000J0.000
N1610G01X9.893
N1620G2X8.892Y14.186I0.000J1.001
N1630G01Z-1.500F20.0
N1640G01Y23.186F500.0
N1650G2X9.893Y24.187I1.001J0.000
N1660G3X14.488Y27.217I0.000J5.000
N1670G2X15.802Y27.743I0.920J-0.394
N1680G01X39.772Y17.470
N1690G2X40.298Y16.156I-0.394J-0.920
N1700G3X39.893Y14.186I4.595J-1.969
N1710G2X38.893Y13.186I-1.000J0.000
N1720G01X9.893
N1730G2X8.892Y14.186I0.000J1.001
N1740G01Z-1.600F20.0
N1750G01Y23.186F500.0
N1760G2X9.893Y24.187I1.001J0.000
N1770G3X14.488Y27.217I0.000J5.000
N1780G2X15.802Y27.743I0.920J-0.394
N1790G01X39.772Y17.470
N1800G2X40.298Y16.156I-0.394J-0.920
N1810G3X39.893Y14.186I4.595J-1.969
N1820G2X38.893Y13.186I-1.000J0.000
N1830G01X9.893
N1840G2X8.892Y14.186I0.000J1.001
N1850G00Z6.000
N1860G00X14.993Y7.686
N1870G01Z-0.100F20.0
N1880G2X14.893Y7.586I-0.101J0.000F500.0
N1890G2X14.792Y7.686I0.000J0.100
N1900G2X14.893Y7.787I0.101J0.000
N1910G2X14.993Y7.686I0.000J-0.101
N1920G01Z-0.200F20.0
N1930G2X14.893Y7.586I-0.101J0.000F500.0
N1940G2X14.792Y7.686I0.000J0.100
N1950G2X14.893Y7.787I0.101J0.000
N1960G2X14.993Y7.686I0.000J-0.101
N1970G01Z-0.300F20.0
N1980G2X14.893Y7.586I-0.101J0.000F500.0
N1990G2X14.792Y7.686I0.000J0.100
N2000G2X14.893Y7.787I0.101J0.000
N2010G2X14.993Y7.686I0.000J-0.101
N2020G01Z-0.400F20.0
N2030G2X14.893Y7.586I-0.101J0.000F500.0
N2040G2X14.792Y7.686I0.000J0.100
N2050G2X14.893Y7.787I0.101J0.000
N2060G2X14.993Y7.686I0.000J-0.101
N2070G01Z-0.500F20.0
N2080G2X14.893Y7.586I-0.101J0.000F500.0
N2090G2X14.792Y7.686I0.000J0.100
N2100G2X14.893Y7.787I0.101J0.000
N2110G2X14.993Y7.686I0.000J-0.101
N2120G01Z-0.600F20.0
N2130G2X14.893Y7.586I-0.101J0.000F500.0
N2140G2X14.792Y7.686I0.000J0.100
N2150G2X14.893Y7.787I0.101J0.000
N2160G2X14.993Y7.686I0.000J-0.101
N2170G01Z-0.700F20.0
N2180G2X14.893Y7.586I-0.101J0.000F500.0
N2190G2X14.792Y7.686I0.000J0.100
N2200G2X14.893Y7.787I0.101J0.000
N2210G2X14.993Y7.686I0.000J-0.101
N2220G01Z-0.800F20.0
N2230G2X14.893Y7.586I-0.101J0.000F500.0
N2240G2X14.792Y7.686I0.000J0.100
N2250G2X14.893Y7.787I0.101J0.000
N2260G2X14.993Y7.686I0.000J-0.101
N2270G01Z-0.900F20.0
N2280G2X14.893Y7.586I-0.101J0.000F500.0
N2290G2X14.792Y7.686I0.000J0.100
N2300G2X14.893Y7.787I0.101J0.000
N2310G2X14.993Y7.686I0.000J-0.101
N2320G01Z-1.000F20.0
N2330G2X14.893Y7.586I-0.101J0.000F500.0
N2340G2X14.792Y7.686I0.000J0.100
N2350G2X14.893Y7.787I0.101J0.000
N2360G2X14.993Y7.686I0.000J-0.101
N2370G01Z-1.100F20.0
N2380G2X14.893Y7.586I-0.101J0.000F500.0
N2390G2X14.792Y7.686I0.000J0.100
N2400G2X14.893Y7.787I0.101J0.000
N2410G2X14.993Y7.686I0.000J-0.101
N2420G01Z-1.200F20.0
N2430G2X14.893Y7.586I-0.101J0.000F500.0
N2440G2X14.792Y7.686I0.000J0.100
N2450G2X14.893Y7.787I0.101J0.000
N2460G2X14.993Y7.686I0.000J-0.101
N2470G01Z-1.300F20.0
N2480G2X14.893Y7.586I-0.101J0.000F500.0
N2490G2X14.792Y7.686I0.000J0.100
N2500G2X14.893Y7.787I0.101J0.000
N2510G2X14.993Y7.686I0.000J-0.101
N2520G01Z-1.400F20.0
N2530G2X14.893Y7.586I-0.101J0.000F500.0
N2540G2X14.792Y7.686I0.000J0.100
N2550G2X14.893Y7.787I0.101J0.000
N2560G2X14.993Y7.686I0.000J-0.101
N2570G01Z-1.500F20.0
N2580G2X14.893Y7.586I-0.101J0.000F500.0
N2590G2X14.792Y7.686I0.000J0.100
N2600G2X14.893Y7.787I0.101J0.000
N2610G2X14.993Y7.686I0.000J-0.101
N2620G01Z-1.600F20.0
N2630G2X14.893Y7.586I-0.101J0.000F500.0
N2640G2X14.792Y7.686I0.000J0.100
N2650G2X14.893Y7.787I0.101J0.000
N2660G2X14.993Y7.686I0.000J-0.101
N2670G00Z6.000
N2680G00X34.993
N2690G01Z-0.100F20.0
N2700G2X34.893Y7.586I-0.101J0.000F500.0
N2710G2X34.792Y7.686I0.000J0.100
N2720G2X34.893Y7.787I0.100J0.000
N2730G2X34.993Y7.686I0.000J-0.101
N2740G01Z-0.200F20.0
N2750G2X34.893Y7.586I-0.101J0.000F500.0
N2760G2X34.792Y7.686I0.000J0.100
N2770G2X34.893Y7.787I0.100J0.000
N2780G2X34.993Y7.686I0.000J-0.101
N2790G01Z-0.300F20.0
N2800G2X34.893Y7.586I-0.101J0.000F500.0
N2810G2X34.792Y7.686I0.000J0.100
N2820G2X34.893Y7.787I0.100J0.000
N2830G2X34.993Y7.686I0.000J-0.101
N2840G01Z-0.400F20.0
N2850G2X34.893Y7.586I-0.101J0.000F500.0
N2860G2X34.792Y7.686I0.000J0.100
N2870G2X34.893Y7.787I0.100J0.000
N2880G2X34.993Y7.686I0.000J-0.101
N2890G01Z-0.500F20.0
N2900G2X34.893Y7.586I-0.101J0.000F500.0
N2910G2X34.792Y7.686I0.000J0.100
N2920G2X34.893Y7.787I0.100J0.000
N2930G2X34.993Y7.686I0.000J-0.101
N2940G01Z-0.600F20.0
N2950G2X34.893Y7.586I-0.101J0.000F500.0
N2960G2X34.792Y7.686I0.000J0.100
N2970G2X34.893Y7.787I0.100J0.000
N2980G2X34.993Y7.686I0.000J-0.101
N2990G01Z-0.700F20.0
N3000G2X34.893Y7.586I-0.101J0.000F500.0
N3010G2X34.792Y7.686I0.000J0.100
N3020G2X34.893Y7.787I0.100J0.000
N3030G2X34.993Y7.686I0.000J-0.101
N3040G01Z-0.800F20.0
N3050G2X34.893Y7.586I-0.101J0.000F500.0
N3060G2X34.792Y7.686I0.000J0.100
N3070G2X34.893Y7.787I0.100J0.000
N3080G2X34.993Y7.686I0.000J-0.101
N3090G01Z-0.900F20.0
N3100G2X34.893Y7.586I-0.101J0.000F500.0
N3110G2X34.792Y7.686I0.000J0.100
N3120G2X34.893Y7.787I0.100J0.000
N3130G2X34.993Y7.686I0.000J-0.101
N3140G01Z-1.000F20.0
N3150G2X34.893Y7.586I-0.101J0.000F500.0
N3160G2X34.792Y7.686I0.000J0.100
N3170G2X34.893Y7.787I0.100J0.000
N3180G2X34.993Y7.686I0.000J-0.101
N3190G01Z-1.100F20.0
N3200G2X34.893Y7.586I-0.101J0.000F500.0
N3210G2X34.792Y7.686I0.000J0.100
N3220G2X34.893Y7.787I0.100J0.000
N3230G2X34.993Y7.686I0.000J-0.101
N3240G01Z-1.200F20.0
N3250G2X34.893Y7.586I-0.101J0.000F500.0
N3260G2X34.792Y7.686I0.000J0.100
N3270G2X34.893Y7.787I0.100J0.000
N3280G2X34.993Y7.686I0.000J-0.101
N3290G01Z-1.300F20.0
N3300G2X34.893Y7.586I-0.101J0.000F500.0
N3310G2X34.792Y7.686I0.000J0.100
N3320G2X34.893Y7.787I0.100J0.000
N3330G2X34.993Y7.686I0.000J-0.101
N3340G01Z-1.400F20.0
N3350G2X34.893Y7.586I-0.101J0.000F500.0
N3360G2X34.792Y7.686I0.000J0.100
N3370G2X34.893Y7.787I0.100J0.000
N3380G2X34.993Y7.686I0.000J-0.101
N3390G01Z-1.500F20.0
N3400G2X34.893Y7.586I-0.101J0.000F500.0
N3410G2X34.792Y7.686I0.000J0.100
N3420G2X34.893Y7.787I0.100J0.000
N3430G2X34.993Y7.686I0.000J-0.101
N3440G01Z-1.600F20.0
N3450G2X34.893Y7.586I-0.101J0.000F500.0
N3460G2X34.792Y7.686I0.000J0.100
N3470G2X34.893Y7.787I0.100J0.000
N3480G2X34.993Y7.686I0.000J-0.101
N3490G00Z6.000
N3500G00X45.393Y14.186
N3510G01Z-0.100F20.0
N3520G2X44.893Y13.686I-0.500J0.000F500.0
N3530G2X44.392Y14.186I0.000J0.501
N3540G2X44.893Y14.687I0.500J0.000
N3550G2X45.393Y14.186I0.000J-0.500
N3560G01Z-0.200F20.0
N3570G2X44.893Y13.686I-0.500J0.000F500.0
N3580G2X44.392Y14.186I0.000J0.501
N3590G2X44.893Y14.687I0.500J0.000
N3600G2X45.393Y14.186I0.000J-0.500
N3610G01Z-0.300F20.0
N3620G2X44.893Y13.686I-0.500J0.000F500.0
N3630G2X44.392Y14.186I0.000J0.501
N3640G2X44.893Y14.687I0.500J0.000
N3650G2X45.393Y14.186I0.000J-0.500
N3660G01Z-0.400F20.0
N3670G2X44.893Y13.686I-0.500J0.000F500.0
N3680G2X44.392Y14.186I0.000J0.501
N3690G2X44.893Y14.687I0.500J0.000
N3700G2X45.393Y14.186I0.000J-0.500
N3710G01Z-0.500F20.0
N3720G2X44.893Y13.686I-0.500J0.000F500.0
N3730G2X44.392Y14.186I0.000J0.501
N3740G2X44.893Y14.687I0.500J0.000
N3750G2X45.393Y14.186I0.000J-0.500
N3760G01Z-0.600F20.0
N3770G2X44.893Y13.686I-0.500J0.000F500.0
N3780G2X44.392Y14.186I0.000J0.501
N3790G2X44.893Y14.687I0.500J0.000
N3800G2X45.393Y14.186I0.000J-0.500
N3810G01Z-0.700F20.0
N3820G2X44.893Y13.686I-0.500J0.000F500.0
N3830G2X44.392Y14.186I0.000J0.501
N3840G2X44.893Y14.687I0.500J0.000
N3850G2X45.393Y14.186I0.000J-0.500
N3860G01Z-0.800F20.0
N3870G2X44.893Y13.686I-0.500J0.000F500.0
N3880G2X44.392Y14.186I0.000J0.501
N3890G2X44.893Y14.687I0.500J0.000
N3900G2X45.393Y14.186I0.000J-0.500
N3910G01Z-0.900F20.0
N3920G2X44.893Y13.686I-0.500J0.000F500.0
N3930G2X44.392Y14.186I0.000J0.501
N3940G2X44.893Y14.687I0.500J0.000
N3950G2X45.393Y14.186I0.000J-0.500
N3960G01Z-1.000F20.0
N3970G2X44.893Y13.686I-0.500J0.000F500.0
N3980G2X44.392Y14.186I0.000J0.501
N3990G2X44.893Y14.687I0.500J0.000
N4000G2X45.393Y14.186I0.000J-0.500
N4010G01Z-1.100F20.0
N4020G2X44.893Y13.686I-0.500J0.000F500.0
N4030G2X44.392Y14.186I0.000J0.501
N4040G2X44.893Y14.687I0.500J0.000
N4050G2X45.393Y14.186I0.000J-0.500
N4060G01Z-1.200F20.0
N4070G2X44.893Y13.686I-0.500J0.000F500.0
N4080G2X44.392Y14.186I0.000J0.501
N4090G2X44.893Y14.687I0.500J0.000
N4100G2X45.393Y14.186I0.000J-0.500
N4110G01Z-1.300F20.0
N4120G2X44.893Y13.686I-0.500J0.000F500.0
N4130G2X44.392Y14.186I0.000J0.501
N4140G2X44.893Y14.687I0.500J0.000
N4150G2X45.393Y14.186I0.000J-0.500
N4160G01Z-1.400F20.0
N4170G2X44.893Y13.686I-0.500J0.000F500.0
N4180G2X44.392Y14.186I0.000J0.501
N4190G2X44.893Y14.687I0.500J0.000
N4200G2X45.393Y14.186I0.000J-0.500
N4210G01Z-1.500F20.0
N4220G2X44.893Y13.686I-0.500J0.000F500.0
N4230G2X44.392Y14.186I0.000J0.501
N4240G2X44.893Y14.687I0.500J0.000
N4250G2X45.393Y14.186I0.000J-0.500
N4260G01Z-1.600F20.0
N4270G2X44.893Y13.686I-0.500J0.000F500.0
N4280G2X44.392Y14.186I0.000J0.501
N4290G2X44.893Y14.687I0.500J0.000
N4300G2X45.393Y14.186I0.000J-0.500
N4310G00Z6.000
N4320G00X49.540Y23.502
N4330G01Z-0.100F20.0
N4340G2X49.039Y23.001I-0.500J0.000F500.0
N4350G2X48.539Y23.502I0.000J0.500
N4360G2X49.039Y24.002I0.501J0.000
N4370G2X49.540Y23.502I0.000J-0.500
N4380G01Z-0.200F20.0
N4390G2X49.039Y23.001I-0.500J0.000F500.0
N4400G2X48.539Y23.502I0.000J0.500
N4410G2X49.039Y24.002I0.501J0.000
N4420G2X49.540Y23.502I0.000J-0.500
N4430G01Z-0.300F20.0
N4440G2X49.039Y23.001I-0.500J0.000F500.0
N4450G2X48.539Y23.502I0.000J0.500
N4460G2X49.039Y24.002I0.501J0.000
N4470G2X49.540Y23.502I0.000J-0.500
N4480G01Z-0.400F20.0
N4490G2X49.039Y23.001I-0.500J0.000F500.0
N4500G2X48.539Y23.502I0.000J0.500
N4510G2X49.039Y24.002I0.501J0.000
N4520G2X49.540Y23.502I0.000J-0.500
N4530G01Z-0.500F20.0
N4540G2X49.039Y23.001I-0.500J0.000F500.0
N4550G2X48.539Y23.502I0.000J0.500
N4560G2X49.039Y24.002I0.501J0.000
N4570G2X49.540Y23.502I0.000J-0.500
N4580G01Z-0.600F20.0
N4590G2X49.039Y23.001I-0.500J0.000F500.0
N4600G2X48.539Y23.502I0.000J0.500
N4610G2X49.039Y24.002I0.501J0.000
N4620G2X49.540Y23.502I0.000J-0.500
N4630G01Z-0.700F20.0
N4640G2X49.039Y23.001I-0.500J0.000F500.0
N4650G2X48.539Y23.502I0.000J0.500
N4660G2X49.039Y24.002I0.501J0.000
N4670G2X49.540Y23.502I0.000J-0.500
N4680G01Z-0.800F20.0
N4690G2X49.039Y23.001I-0.500J0.000F500.0
N4700G2X48.539Y23.502I0.000J0.500
N4710G2X49.039Y24.002I0.501J0.000
N4720G2X49.540Y23.502I0.000J-0.500
N4730G01Z-0.900F20.0
N4740G2X49.039Y23.001I-0.500J0.000F500.0
N4750G2X48.539Y23.502I0.000J0.500
N4760G2X49.039Y24.002I0.501J0.000
N4770G2X49.540Y23.502I0.000J-0.500
N4780G01Z-1.000F20.0
N4790G2X49.039Y23.001I-0.500J0.000F500.0
N4800G2X48.539Y23.502I0.000J0.500
N4810G2X49.039Y24.002I0.501J0.000
N4820G2X49.540Y23.502I0.000J-0.500
N4830G01Z-1.100F20.0
N4840G2X49.039Y23.001I-0.500J0.000F500.0
N4850G2X48.539Y23.502I0.000J0.500
N4860G2X49.039Y24.002I0.501J0.000
N4870G2X49.540Y23.502I0.000J-0.500
N4880G01Z-1.200F20.0
N4890G2X49.039Y23.001I-0.500J0.000F500.0
N4900G2X48.539Y23.502I0.000J0.500
N4910G2X49.039Y24.002I0.501J0.000
N4920G2X49.540Y23.502I0.000J-0.500
N4930G01Z-1.300F20.0
N4940G2X49.039Y23.001I-0.500J0.000F500.0
N4950G2X48.539Y23.502I0.000J0.500
N4960G2X49.039Y24.002I0.501J0.000
N4970G2X49.540Y23.502I0.000J-0.500
N4980G01Z-1.400F20.0
N4990G2X49.039Y23.001I-0.500J0.000F500.0
N5000G2X48.539Y23.502I0.000J0.500
N5010G2X49.039Y24.002I0.501J0.000
N5020G2X49.540Y23.502I0.000J-0.500
N5030G01Z-1.500F20.0
N5040G2X49.039Y23.001I-0.500J0.000F500.0
N5050G2X48.539Y23.502I0.000J0.500
N5060G2X49.039Y24.002I0.501J0.000
N5070G2X49.540Y23.502I0.000J-0.500
N5080G01Z-1.600F20.0
N5090G2X49.039Y23.001I-0.500J0.000F500.0
N5100G2X48.539Y23.502I0.000J0.500
N5110G2X49.039Y24.002I0.501J0.000
N5120G2X49.540Y23.502I0.000J-0.500
N5130G00Z6.000
N5140G00X59.740Y28.910
N5150G01Z-0.100F20.0
N5160G2X59.239Y28.410I-0.500J0.000F500.0
N5170G2X58.739Y28.910I0.000J0.500
N5180G2X59.239Y29.411I0.500J0.000
N5190G2X59.740Y28.910I0.000J-0.500
N5200G01Z-0.200F20.0
N5210G2X59.239Y28.410I-0.500J0.000F500.0
N5220G2X58.739Y28.910I0.000J0.500
N5230G2X59.239Y29.411I0.500J0.000
N5240G2X59.740Y28.910I0.000J-0.500
N5250G01Z-0.300F20.0
N5260G2X59.239Y28.410I-0.500J0.000F500.0
N5270G2X58.739Y28.910I0.000J0.500
N5280G2X59.239Y29.411I0.500J0.000
N5290G2X59.740Y28.910I0.000J-0.500
N5300G01Z-0.400F20.0
N5310G2X59.239Y28.410I-0.500J0.000F500.0
N5320G2X58.739Y28.910I0.000J0.500
N5330G2X59.239Y29.411I0.500J0.000
N5340G2X59.740Y28.910I0.000J-0.500
N5350G01Z-0.500F20.0
N5360G2X59.239Y28.410I-0.500J0.000F500.0
N5370G2X58.739Y28.910I0.000J0.500
N5380G2X59.239Y29.411I0.500J0.000
N5390G2X59.740Y28.910I0.000J-0.500
N5400G01Z-0.600F20.0
N5410G2X59.239Y28.410I-0.500J0.000F500.0
N5420G2X58.739Y28.910I0.000J0.500
N5430G2X59.239Y29.411I0.500J0.000
N5440G2X59.740Y28.910I0.000J-0.500
N5450G01Z-0.700F20.0
N5460G2X59.239Y28.410I-0.500J0.000F500.0
N5470G2X58.739Y28.910I0.000J0.500
N5480G2X59.239Y29.411I0.500J0.000
N5490G2X59.740Y28.910I0.000J-0.500
N5500G01Z-0.800F20.0
N5510G2X59.239Y28.410I-0.500J0.000F500.0
N5520G2X58.739Y28.910I0.000J0.500
N5530G2X59.239Y29.411I0.500J0.000
N5540G2X59.740Y28.910I0.000J-0.500
N5550G01Z-0.900F20.0
N5560G2X59.239Y28.410I-0.500J0.000F500.0
N5570G2X58.739Y28.910I0.000J0.500
N5580G2X59.239Y29.411I0.500J0.000
N5590G2X59.740Y28.910I0.000J-0.500
N5600G01Z-1.000F20.0
N5610G2X59.239Y28.410I-0.500J0.000F500.0
N5620G2X58.739Y28.910I0.000J0.500
N5630G2X59.239Y29.411I0.500J0.000
N5640G2X59.740Y28.910I0.000J-0.500
N5650G01Z-1.100F20.0
N5660G2X59.239Y28.410I-0.500J0.000F500.0
N5670G2X58.739Y28.910I0.000J0.500
N5680G2X59.239Y29.411I0.500J0.000
N5690G2X59.740Y28.910I0.000J-0.500
N5700G01Z-1.200F20.0
N5710G2X59.239Y28.410I-0.500J0.000F500.0
N5720G2X58.739Y28.910I0.000J0.500
N5730G2X59.239Y29.411I0.500J0.000
N5740G2X59.740Y28.910I0.000J-0.500
N5750G01Z-1.300F20.0
N5760G2X59.239Y28.410I-0.500J0.000F500.0
N5770G2X58.739Y28.910I0.000J0.500
N5780G2X59.239Y29.411I0.500J0.000
N5790G2X59.740Y28.910I0.000J-0.500
N5800G01Z-1.400F20.0
N5810G2X59.239Y28.410I-0.500J0.000F500.0
N5820G2X58.739Y28.910I0.000J0.500
N5830G2X59.239Y29.411I0.500J0.000
N5840G2X59.740Y28.910I0.000J-0.500
N5850G01Z-1.500F20.0
N5860G2X59.239Y28.410I-0.500J0.000F500.0
N5870G2X58.739Y28.910I0.000J0.500
N5880G2X59.239Y29.411I0.500J0.000
N5890G2X59.740Y28.910I0.000J-0.500
N5900G01Z-1.600F20.0
N5910G2X59.239Y28.410I-0.500J0.000F500.0
N5920G2X58.739Y28.910I0.000J0.500
N5930G2X59.239Y29.411I0.500J0.000
N5940G2X59.740Y28.910I0.000J-0.500
N5950G00Z6.000
N5960G00X63.887Y38.225
N5970G01Z-0.100F20.0
N5980G2X63.386Y37.725I-0.500J0.000F500.0
N5990G2X62.886Y38.225I0.000J0.500
N6000G2X63.386Y38.726I0.500J0.000
N6010G2X63.887Y38.225I0.000J-0.500
N6020G01Z-0.200F20.0
N6030G2X63.386Y37.725I-0.500J0.000F500.0
N6040G2X62.886Y38.225I0.000J0.500
N6050G2X63.386Y38.726I0.500J0.000
N6060G2X63.887Y38.225I0.000J-0.500
N6070G01Z-0.300F20.0
N6080G2X63.386Y37.725I-0.500J0.000F500.0
N6090G2X62.886Y38.225I0.000J0.500
N6100G2X63.386Y38.726I0.500J0.000
N6110G2X63.887Y38.225I0.000J-0.500
N6120G01Z-0.400F20.0
N6130G2X63.386Y37.725I-0.500J0.000F500.0
N6140G2X62.886Y38.225I0.000J0.500
N6150G2X63.386Y38.726I0.500J0.000
N6160G2X63.887Y38.225I0.000J-0.500
N6170G01Z-0.500F20.0
N6180G2X63.386Y37.725I-0.500J0.000F500.0
N6190G2X62.886Y38.225I0.000J0.500
N6200G2X63.386Y38.726I0.500J0.000
N6210G2X63.887Y38.225I0.000J-0.500
N6220G01Z-0.600F20.0
N6230G2X63.386Y37.725I-0.500J0.000F500.0
N6240G2X62.886Y38.225I0.000J0.500
N6250G2X63.386Y38.726I0.500J0.000
N6260G2X63.887Y38.225I0.000J-0.500
N6270G01Z-0.700F20.0
N6280G2X63.386Y37.725I-0.500J0.000F500.0
N6290G2X62.886Y38.225I0.000J0.500
N6300G2X63.386Y38.726I0.500J0.000
N6310G2X63.887Y38.225I0.000J-0.500
N6320G01Z-0.800F20.0
N6330G2X63.386Y37.725I-0.500J0.000F500.0
N6340G2X62.886Y38.225I0.000J0.500
N6350G2X63.386Y38.726I0.500J0.000
N6360G2X63.887Y38.225I0.000J-0.500
N6370G01Z-0.900F20.0
N6380G2X63.386Y37.725I-0.500J0.000F500.0
N6390G2X62.886Y38.225I0.000J0.500
N6400G2X63.386Y38.726I0.500J0.000
N6410G2X63.887Y38.225I0.000J-0.500
N6420G01Z-1.000F20.0
N6430G2X63.386Y37.725I-0.500J0.000F500.0
N6440G2X62.886Y38.225I0.000J0.500
N6450G2X63.386Y38.726I0.500J0.000
N6460G2X63.887Y38.225I0.000J-0.500
N6470G01Z-1.100F20.0
N6480G2X63.386Y37.725I-0.500J0.000F500.0
N6490G2X62.886Y38.225I0.000J0.500
N6500G2X63.386Y38.726I0.500J0.000
N6510G2X63.887Y38.225I0.000J-0.500
N6520G01Z-1.200F20.0
N6530G2X63.386Y37.725I-0.500J0.000F500.0
N6540G2X62.886Y38.225I0.000J0.500
N6550G2X63.386Y38.726I0.500J0.000
N6560G2X63.887Y38.225I0.000J-0.500
N6570G01Z-1.300F20.0
N6580G2X63.386Y37.725I-0.500J0.000F500.0
N6590G2X62.886Y38.225I0.000J0.500
N6600G2X63.386Y38.726I0.500J0.000
N6610G2X63.887Y38.225I0.000J-0.500
N6620G01Z-1.400F20.0
N6630G2X63.386Y37.725I-0.500J0.000F500.0
N6640G2X62.886Y38.225I0.000J0.500
N6650G2X63.386Y38.726I0.500J0.000
N6660G2X63.887Y38.225I0.000J-0.500
N6670G01Z-1.500F20.0
N6680G2X63.386Y37.725I-0.500J0.000F500.0
N6690G2X62.886Y38.225I0.000J0.500
N6700G2X63.386Y38.726I0.500J0.000
N6710G2X63.887Y38.225I0.000J-0.500
N6720G01Z-1.600F20.0
N6730G2X63.386Y37.725I-0.500J0.000F500.0
N6740G2X62.886Y38.225I0.000J0.500
N6750G2X63.386Y38.726I0.500J0.000
N6760G2X63.887Y38.225I0.000J-0.500
N6770G00Z6.000
N6780G00X68.507Y34.942
N6790G01Z-0.100F20.0
N6800G2X67.981Y36.256I0.394J0.920F500.0
N6810G3X68.386Y38.225I-4.595J1.969
N6820G2X69.386Y39.226I1.000J0.000
N6830G01X98.386
N6840G2X99.387Y38.225I0.000J-1.000
N6850G01Y29.225
N6860G2X98.386Y28.225I-1.001J0.000
N6870G3X93.791Y25.195I0.000J-4.999
N6880G2X92.477Y24.669I-0.920J0.394
N6890G01X68.507Y34.942
N6900G01Z-0.200F20.0
N6910G2X67.981Y36.256I0.394J0.920F500.0
N6920G3X68.386Y38.225I-4.595J1.969
N6930G2X69.386Y39.226I1.000J0.000
N6940G01X98.386
N6950G2X99.387Y38.225I0.000J-1.000
N6960G01Y29.225
N6970G2X98.386Y28.225I-1.001J0.000
N6980G3X93.791Y25.195I0.000J-4.999
N6990G2X92.477Y24.669I-0.920J0.394
N7000G01X68.507Y34.942
N7010G01Z-0.300F20.0
N7020G2X67.981Y36.256I0.394J0.920F500.0
N7030G3X68.386Y38.225I-4.595J1.969
N7040G2X69.386Y39.226I1.000J0.000
N7050G01X98.386
N7060G2X99.387Y38.225I0.000J-1.000
N7070G01Y29.225
N7080G2X98.386Y28.225I-1.001J0.000
N7090G3X93.791Y25.195I0.000J-4.999
N7100G2X92.477Y24.669I-0.920J0.394
N7110G01X68.507Y34.942
N7120G01Z-0.400F20.0
N7130G2X67.981Y36.256I0.394J0.920F500.0
N7140G3X68.386Y38.225I-4.595J1.969
N7150G2X69.386Y39.226I1.000J0.000
N7160G01X98.386
N7170G2X99.387Y38.225I0.000J-1.000
N7180G01Y29.225
N7190G2X98.386Y28.225I-1.001J0.000
N7200G3X93.791Y25.195I0.000J-4.999
N7210G2X92.477Y24.669I-0.920J0.394
N7220G01X68.507Y34.942
N7230G01Z-0.500F20.0
N7240G2X67.981Y36.256I0.394J0.920F500.0
N7250G3X68.386Y38.225I-4.595J1.969
N7260G2X69.386Y39.226I1.000J0.000
N7270G01X98.386
N7280G2X99.387Y38.225I0.000J-1.000
N7290G01Y29.225
N7300G2X98.386Y28.225I-1.001J0.000
N7310G3X93.791Y25.195I0.000J-4.999
N7320G2X92.477Y24.669I-0.920J0.394
N7330G01X68.507Y34.942
N7340G01Z-0.600F20.0
N7350G2X67.981Y36.256I0.394J0.920F500.0
N7360G3X68.386Y38.225I-4.595J1.969
N7370G2X69.386Y39.226I1.000J0.000
N7380G01X98.386
N7390G2X99.387Y38.225I0.000J-1.000
N7400G01Y29.225
N7410G2X98.386Y28.225I-1.001J0.000
N7420G3X93.791Y25.195I0.000J-4.999
N7430G2X92.477Y24.669I-0.920J0.394
N7440G01X68.507Y34.942
N7450G01Z-0.700F20.0
N7460G2X67.981Y36.256I0.394J0.920F500.0
N7470G3X68.386Y38.225I-4.595J1.969
N7480G2X69.386Y39.226I1.000J0.000
N7490G01X98.386
N7500G2X99.387Y38.225I0.000J-1.000
N7510G01Y29.225
N7520G2X98.386Y28.225I-1.001J0.000
N7530G3X93.791Y25.195I0.000J-4.999
N7540G2X92.477Y24.669I-0.920J0.394
N7550G01X68.507Y34.942
N7560G01Z-0.800F20.0
N7570G2X67.981Y36.256I0.394J0.920F500.0
N7580G3X68.386Y38.225I-4.595J1.969
N7590G2X69.386Y39.226I1.000J0.000
N7600G01X98.386
N7610G2X99.387Y38.225I0.000J-1.000
N7620G01Y29.225
N7630G2X98.386Y28.225I-1.001J0.000
N7640G3X93.791Y25.195I0.000J-4.999
N7650G2X92.477Y24.669I-0.920J0.394
N7660G01X68.507Y34.942
N7670G01Z-0.900F20.0
N7680G2X67.981Y36.256I0.394J0.920F500.0
N7690G3X68.386Y38.225I-4.595J1.969
N7700G2X69.386Y39.226I1.000J0.000
N7710G01X98.386
N7720G2X99.387Y38.225I0.000J-1.000
N7730G01Y29.225
N7740G2X98.386Y28.225I-1.001J0.000
N7750G3X93.791Y25.195I0.000J-4.999
N7760G2X92.477Y24.669I-0.920J0.394
N7770G01X68.507Y34.942
N7780G01Z-1.000F20.0
N7790G2X67.981Y36.256I0.394J0.920F500.0
N7800G3X68.386Y38.225I-4.595J1.969
N7810G2X69.386Y39.226I1.000J0.000
N7820G01X98.386
N7830G2X99.387Y38.225I0.000J-1.000
N7840G01Y29.225
N7850G2X98.386Y28.225I-1.001J0.000
N7860G3X93.791Y25.195I0.000J-4.999
N7870G2X92.477Y24.669I-0.920J0.394
N7880G01X68.507Y34.942
N7890G01Z-1.100F20.0
N7900G2X67.981Y36.256I0.394J0.920F500.0
N7910G3X68.386Y38.225I-4.595J1.969
N7920G2X69.386Y39.226I1.000J0.000
N7930G01X98.386
N7940G2X99.387Y38.225I0.000J-1.000
N7950G01Y29.225
N7960G2X98.386Y28.225I-1.001J0.000
N7970G3X93.791Y25.195I0.000J-4.999
N7980G2X92.477Y24.669I-0.920J0.394
N7990G01X68.507Y34.942
N8000G01Z-1.200F20.0
N8010G2X67.981Y36.256I0.394J0.920F500.0
N8020G3X68.386Y38.225I-4.595J1.969
N8030G2X69.386Y39.226I1.000J0.000
N8040G01X98.386
N8050G2X99.387Y38.225I0.000J-1.000
N8060G01Y29.225
N8070G2X98.386Y28.225I-1.001J0.000
N8080G3X93.791Y25.195I0.000J-4.999
N8090G2X92.477Y24.669I-0.920J0.394
N8100G01X68.507Y34.942
N8110G01Z-1.300F20.0
N8120G2X67.981Y36.256I0.394J0.920F500.0
N8130G3X68.386Y38.225I-4.595J1.969
N8140G2X69.386Y39.226I1.000J0.000
N8150G01X98.386
N8160G2X99.387Y38.225I0.000J-1.000
N8170G01Y29.225
N8180G2X98.386Y28.225I-1.001J0.000
N8190G3X93.791Y25.195I0.000J-4.999
N8200G2X92.477Y24.669I-0.920J0.394
N8210G01X68.507Y34.942
N8220G01Z-1.400F20.0
N8230G2X67.981Y36.256I0.394J0.920F500.0
N8240G3X68.386Y38.225I-4.595J1.969
N8250G2X69.386Y39.226I1.000J0.000
N8260G01X98.386
N8270G2X99.387Y38.225I0.000J-1.000
N8280G01Y29.225
N8290G2X98.386Y28.225I-1.001J0.000
N8300G3X93.791Y25.195I0.000J-4.999
N8310G2X92.477Y24.669I-0.920J0.394
N8320G01X68.507Y34.942
N8330G01Z-1.500F20.0
N8340G2X67.981Y36.256I0.394J0.920F500.0
N8350G3X68.386Y38.225I-4.595J1.969
N8360G2X69.386Y39.226I1.000J0.000
N8370G01X98.386
N8380G2X99.387Y38.225I0.000J-1.000
N8390G01Y29.225
N8400G2X98.386Y28.225I-1.001J0.000
N8410G3X93.791Y25.195I0.000J-4.999
N8420G2X92.477Y24.669I-0.920J0.394
N8430G01X68.507Y34.942
N8440G01Z-1.600F20.0
N8450G2X67.981Y36.256I0.394J0.920F500.0
N8460G3X68.386Y38.225I-4.595J1.969
N8470G2X69.386Y39.226I1.000J0.000
N8480G01X98.386
N8490G2X99.387Y38.225I0.000J-1.000
N8500G01Y29.225
N8510G2X98.386Y28.225I-1.001J0.000
N8520G3X93.791Y25.195I0.000J-4.999
N8530G2X92.477Y24.669I-0.920J0.394
N8540G01X68.507Y34.942
N8550G00Z6.000
N8560G00X73.487Y44.725
N8570G01Z-0.100F20.0
N8580G2X73.386Y44.625I-0.101J0.000F500.0
N8590G2X73.286Y44.725I0.000J0.100
N8600G2X73.386Y44.826I0.100J0.000
N8610G2X73.487Y44.725I0.000J-0.101
N8620G01Z-0.200F20.0
N8630G2X73.386Y44.625I-0.101J0.000F500.0
N8640G2X73.286Y44.725I0.000J0.100
N8650G2X73.386Y44.826I0.100J0.000
N8660G2X73.487Y44.725I0.000J-0.101
N8670G01Z-0.300F20.0
N8680G2X73.386Y44.625I-0.101J0.000F500.0
N8690G2X73.286Y44.725I0.000J0.100
N8700G2X73.386Y44.826I0.100J0.000
N8710G2X73.487Y44.725I0.000J-0.101
N8720G01Z-0.400F20.0
N8730G2X73.386Y44.625I-0.101J0.000F500.0
N8740G2X73.286Y44.725I0.000J0.100
N8750G2X73.386Y44.826I0.100J0.000
N8760G2X73.487Y44.725I0.000J-0.101
N8770G01Z-0.500F20.0
N8780G2X73.386Y44.625I-0.101J0.000F500.0
N8790G2X73.286Y44.725I0.000J0.100
N8800G2X73.386Y44.826I0.100J0.000
N8810G2X73.487Y44.725I0.000J-0.101
N8820G01Z-0.600F20.0
N8830G2X73.386Y44.625I-0.101J0.000F500.0
N8840G2X73.286Y44.725I0.000J0.100
N8850G2X73.386Y44.826I0.100J0.000
N8860G2X73.487Y44.725I0.000J-0.101
N8870G01Z-0.700F20.0
N8880G2X73.386Y44.625I-0.101J0.000F500.0
N8890G2X73.286Y44.725I0.000J0.100
N8900G2X73.386Y44.826I0.100J0.000
N8910G2X73.487Y44.725I0.000J-0.101
N8920G01Z-0.800F20.0
N8930G2X73.386Y44.625I-0.101J0.000F500.0
N8940G2X73.286Y44.725I0.000J0.100
N8950G2X73.386Y44.826I0.100J0.000
N8960G2X73.487Y44.725I0.000J-0.101
N8970G01Z-0.900F20.0
N8980G2X73.386Y44.625I-0.101J0.000F500.0
N8990G2X73.286Y44.725I0.000J0.100
N9000G2X73.386Y44.826I0.100J0.000
N9010G2X73.487Y44.725I0.000J-0.101
N9020G01Z-1.000F20.0
N9030G2X73.386Y44.625I-0.101J0.000F500.0
N9040G2X73.286Y44.725I0.000J0.100
N9050G2X73.386Y44.826I0.100J0.000
N9060G2X73.487Y44.725I0.000J-0.101
N9070G01Z-1.100F20.0
N9080G2X73.386Y44.625I-0.101J0.000F500.0
N9090G2X73.286Y44.725I0.000J0.100
N9100G2X73.386Y44.826I0.100J0.000
N9110G2X73.487Y44.725I0.000J-0.101
N9120G01Z-1.200F20.0
N9130G2X73.386Y44.625I-0.101J0.000F500.0
N9140G2X73.286Y44.725I0.000J0.100
N9150G2X73.386Y44.826I0.100J0.000
N9160G2X73.487Y44.725I0.000J-0.101
N9170G01Z-1.300F20.0
N9180G2X73.386Y44.625I-0.101J0.000F500.0
N9190G2X73.286Y44.725I0.000J0.100
N9200G2X73.386Y44.826I0.100J0.000
N9210G2X73.487Y44.725I0.000J-0.101
N9220G01Z-1.400F20.0
N9230G2X73.386Y44.625I-0.101J0.000F500.0
N9240G2X73.286Y44.725I0.000J0.100
N9250G2X73.386Y44.826I0.100J0.000
N9260G2X73.487Y44.725I0.000J-0.101
N9270G01Z-1.500F20.0
N9280G2X73.386Y44.625I-0.101J0.000F500.0
N9290G2X73.286Y44.725I0.000J0.100
N9300G2X73.386Y44.826I0.100J0.000
N9310G2X73.487Y44.725I0.000J-0.101
N9320G01Z-1.600F20.0
N9330G2X73.386Y44.625I-0.101J0.000F500.0
N9340G2X73.286Y44.725I0.000J0.100
N9350G2X73.386Y44.826I0.100J0.000
N9360G2X73.487Y44.725I0.000J-0.101
N9370G00Z6.000
N9380G00X64.340Y51.925
N9390G01Z-0.100F20.0
N9400G2X64.239Y51.825I-0.100J0.000F500.0
N9410G2X64.139Y51.925I0.000J0.100
N9420G2X64.239Y52.026I0.101J0.000
N9430G2X64.340Y51.925I0.000J-0.101
N9440G01Z-0.200F20.0
N9450G2X64.239Y51.825I-0.100J0.000F500.0
N9460G2X64.139Y51.925I0.000J0.100
N9470G2X64.239Y52.026I0.101J0.000
N9480G2X64.340Y51.925I0.000J-0.101
N9490G01Z-0.300F20.0
N9500G2X64.239Y51.825I-0.100J0.000F500.0
N9510G2X64.139Y51.925I0.000J0.100
N9520G2X64.239Y52.026I0.101J0.000
N9530G2X64.340Y51.925I0.000J-0.101
N9540G01Z-0.400F20.0
N9550G2X64.239Y51.825I-0.100J0.000F500.0
N9560G2X64.139Y51.925I0.000J0.100
N9570G2X64.239Y52.026I0.101J0.000
N9580G2X64.340Y51.925I0.000J-0.101
N9590G01Z-0.500F20.0
N9600G2X64.239Y51.825I-0.100J0.000F500.0
N9610G2X64.139Y51.925I0.000J0.100
N9620G2X64.239Y52.026I0.101J0.000
N9630G2X64.340Y51.925I0.000J-0.101
N9640G01Z-0.600F20.0
N9650G2X64.239Y51.825I-0.100J0.000F500.0
N9660G2X64.139Y51.925I0.000J0.100
N9670G2X64.239Y52.026I0.101J0.000
N9680G2X64.340Y51.925I0.000J-0.101
N9690G01Z-0.700F20.0
N9700G2X64.239Y51.825I-0.100J0.000F500.0
N9710G2X64.139Y51.925I0.000J0.100
N9720G2X64.239Y52.026I0.101J0.000
N9730G2X64.340Y51.925I0.000J-0.101
N9740G01Z-0.800F20.0
N9750G2X64.239Y51.825I-0.100J0.000F500.0
N9760G2X64.139Y51.925I0.000J0.100
N9770G2X64.239Y52.026I0.101J0.000
N9780G2X64.340Y51.925I0.000J-0.101
N9790G01Z-0.900F20.0
N9800G2X64.239Y51.825I-0.100J0.000F500.0
N9810G2X64.139Y51.925I0.000J0.100
N9820G2X64.239Y52.026I0.101J0.000
N9830G2X64.340Y51.925I0.000J-0.101
N9840G01Z-1.000F20.0
N9850G2X64.239Y51.825I-0.100J0.000F500.0
N9860G2X64.139Y51.925I0.000J0.100
N9870G2X64.239Y52.026I0.101J0.000
N9880G2X64.340Y51.925I0.000J-0.101
N9890G01Z-1.100F20.0
N9900G2X64.239Y51.825I-0.100J0.000F500.0
N9910G2X64.139Y51.925I0.000J0.100
N9920G2X64.239Y52.026I0.101J0.000
N9930G2X64.340Y51.925I0.000J-0.101
N9940G01Z-1.200F20.0
N9950G2X64.239Y51.825I-0.100J0.000F500.0
N9960G2X64.139Y51.925I0.000J0.100
N9970G2X64.239Y52.026I0.101J0.000
N9980G2X64.340Y51.925I0.000J-0.101
N9990G01Z-1.300F20.0
N10000G2X64.239Y51.825I-0.100J0.000F500.0
N10010G2X64.139Y51.925I0.000J0.100
N10020G2X64.239Y52.026I0.101J0.000
N10030G2X64.340Y51.925I0.000J-0.101
N10040G01Z-1.400F20.0
N10050G2X64.239Y51.825I-0.100J0.000F500.0
N10060G2X64.139Y51.925I0.000J0.100
N10070G2X64.239Y52.026I0.101J0.000
N10080G2X64.340Y51.925I0.000J-0.101
N10090G01Z-1.500F20.0
N10100G2X64.239Y51.825I-0.100J0.000F500.0
N10110G2X64.139Y51.925I0.000J0.100
N10120G2X64.239Y52.026I0.101J0.000
N10130G2X64.340Y51.925I0.000J-0.101
N10140G01Z-1.600F20.0
N10150G2X64.239Y51.825I-0.100J0.000F500.0
N10160G2X64.139Y51.925I0.000J0.100
N10170G2X64.239Y52.026I0.101J0.000
N10180G2X64.340Y51.925I0.000J-0.101
N10190G00Z6.000
N10200G00X59.239Y57.425
N10210G01Z-0.100F20.0
N10220G2X58.239Y58.425I0.000J1.000F500.0
N10230G01Y67.425
N10240G2X59.239Y68.426I1.000J0.000
N10250G3X63.835Y71.456I0.000J5.000
N10260G2X65.148Y71.981I0.920J-0.394
N10270G01X89.119Y61.708
N10280G2X89.644Y60.395I-0.394J-0.920
N10290G3X89.240Y58.425I4.595J-1.969
N10300G2X88.239Y57.425I-1.000J0.000
N10310G01X59.239
N10320G01Z-0.200F20.0
N10330G2X58.239Y58.425I0.000J1.000F500.0
N10340G01Y67.425
N10350G2X59.239Y68.426I1.000J0.000
N10360G3X63.835Y71.456I0.000J5.000
N10370G2X65.148Y71.981I0.920J-0.394
N10380G01X89.119Y61.708
N10390G2X89.644Y60.395I-0.394J-0.920
N10400G3X89.240Y58.425I4.595J-1.969
N10410G2X88.239Y57.425I-1.000J0.000
N10420G01X59.239
N10430G01Z-0.300F20.0
N10440G2X58.239Y58.425I0.000J1.000F500.0
N10450G01Y67.425
N10460G2X59.239Y68.426I1.000J0.000
N10470G3X63.835Y71.456I0.000J5.000
N10480G2X65.148Y71.981I0.920J-0.394
N10490G01X89.119Y61.708
N10500G2X89.644Y60.395I-0.394J-0.920
N10510G3X89.240Y58.425I4.595J-1.969
N10520G2X88.239Y57.425I-1.000J0.000
N10530G01X59.239
N10540G01Z-0.400F20.0
N10550G2X58.239Y58.425I0.000J1.000F500.0
N10560G01Y67.425
N10570G2X59.239Y68.426I1.000J0.000
N10580G3X63.835Y71.456I0.000J5.000
N10590G2X65.148Y71.981I0.920J-0.394
N10600G01X89.119Y61.708
N10610G2X89.644Y60.395I-0.394J-0.920
N10620G3X89.240Y58.425I4.595J-1.969
N10630G2X88.239Y57.425I-1.000J0.000
N10640G01X59.239
N10650G01Z-0.500F20.0
N10660G2X58.239Y58.425I0.000J1.000F500.0
N10670G01Y67.425
N10680G2X59.239Y68.426I1.000J0.000
N10690G3X63.835Y71.456I0.000J5.000
N10700G2X65.148Y71.981I0.920J-0.394
N10710G01X89.119Y61.708
N10720G2X89.644Y60.395I-0.394J-0.920
N10730G3X89.240Y58.425I4.595J-1.969
N10740G2X88.239Y57.425I-1.000J0.000
N10750G01X59.239
N10760G01Z-0.600F20.0
N10770G2X58.239Y58.425I0.000J1.000F500.0
N10780G01Y67.425
N10790G2X59.239Y68.426I1.000J0.000
N10800G3X63.835Y71.456I0.000J5.000
N10810G2X65.148Y71.981I0.920J-0.394
N10820G01X89.119Y61.708
N10830G2X89.644Y60.395I-0.394J-0.920
N10840G3X89.240Y58.425I4.595J-1.969
N10850G2X88.239Y57.425I-1.000J0.000
N10860G01X59.239
N10870G01Z-0.700F20.0
N10880G2X58.239Y58.425I0.000J1.000F500.0
N10890G01Y67.425
N10900G2X59.239Y68.426I1.000J0.000
N10910G3X63.835Y71.456I0.000J5.000
N10920G2X65.148Y71.981I0.920J-0.394
N10930G01X89.119Y61.708
N10940G2X89.644Y60.395I-0.394J-0.920
N10950G3X89.240Y58.425I4.595J-1.969
N10960G2X88.239Y57.425I-1.000J0.000
N10970G01X59.239
N10980G01Z-0.800F20.0
N10990G2X58.239Y58.425I0.000J1.000F500.0
N11000G01Y67.425
N11010G2X59.239Y68.426I1.000J0.000
N11020G3X63.835Y71.456I0.000J5.000
N11030G2X65.148Y71.981I0.920J-0.394
N11040G01X89.119Y61.708
N11050G2X89.644Y60.395I-0.394J-0.920
N11060G3X89.240Y58.425I4.595J-1.969
N11070G2X88.239Y57.425I-1.000J0.000
N11080G01X59.239
N11090G01Z-0.900F20.0
N11100G2X58.239Y58.425I0.000J1.000F500.0
N11110G01Y67.425
N11120G2X59.239Y68.426I1.000J0.000
N11130G3X63.835Y71.456I0.000J5.000
N11140G2X65.148Y71.981I0.920J-0.394
N11150G01X89.119Y61.708
N11160G2X89.644Y60.395I-0.394J-0.920
N11170G3X89.240Y58.425I4.595J-1.969
N11180G2X88.239Y57.425I-1.000J0.000
N11190G01X59.239
N11200G01Z-1.000F20.0
N11210G2X58.239Y58.425I0.000J1.000F500.0
N11220G01Y67.425
N11230G2X59.239Y68.426I1.000J0.000
N11240G3X63.835Y71.456I0.000J5.000
N11250G2X65.148Y71.981I0.920J-0.394
N11260G01X89.119Y61.708
N11270G2X89.644Y60.395I-0.394J-0.920
N11280G3X89.240Y58.425I4.595J-1.969
N11290G2X88.239Y57.425I-1.000J0.000
N11300G01X59.239
N11310G01Z-1.100F20.0
N11320G2X58.239Y58.425I0.000J1.000F500.0
N11330G01Y67.425
N11340G2X59.239Y68.426I1.000J0.000
N11350G3X63.835Y71.456I0.000J5.000
N11360G2X65.148Y71.981I0.920J-0.394
N11370G01X89.119Y61.708
N11380G2X89.644Y60.395I-0.394J-0.920
N11390G3X89.240Y58.425I4.595J-1.969
N11400G2X88.239Y57.425I-1.000J0.000
N11410G01X59.239
N11420G01Z-1.200F20.0
N11430G2X58.239Y58.425I0.000J1.000F500.0
N11440G01Y67.425
N11450G2X59.239Y68.426I1.000J0.000
N11460G3X63.835Y71.456I0.000J5.000
N11470G2X65.148Y71.981I0.920J-0.394
N11480G01X89.119Y61.708
N11490G2X89.644Y60.395I-0.394J-0.920
N11500G3X89.240Y58.425I4.595J-1.969
N11510G2X88.239Y57.425I-1.000J0.000
N11520G01X59.239
N11530G01Z-1.300F20.0
N11540G2X58.239Y58.425I0.000J1.000F500.0
N11550G01Y67.425
N11560G2X59.239Y68.426I1.000J0.000
N11570G3X63.835Y71.456I0.000J5.000
N11580G2X65.148Y71.981I0.920J-0.394
N11590G01X89.119Y61.708
N11600G2X89.644Y60.395I-0.394J-0.920
N11610G3X89.240Y58.425I4.595J-1.969
N11620G2X88.239Y57.425I-1.000J0.000
N11630G01X59.239
N11640G01Z-1.400F20.0
N11650G2X58.239Y58.425I0.000J1.000F500.0
N11660G01Y67.425
N11670G2X59.239Y68.426I1.000J0.000
N11680G3X63.835Y71.456I0.000J5.000
N11690G2X65.148Y71.981I0.920J-0.394
N11700G01X89.119Y61.708
N11710G2X89.644Y60.395I-0.394J-0.920
N11720G3X89.240Y58.425I4.595J-1.969
N11730G2X88.239Y57.425I-1.000J0.000
N11740G01X59.239
N11750G01Z-1.500F20.0
N11760G2X58.239Y58.425I0.000J1.000F500.0
N11770G01Y67.425
N11780G2X59.239Y68.426I1.000J0.000
N11790G3X63.835Y71.456I0.000J5.000
N11800G2X65.148Y71.981I0.920J-0.394
N11810G01X89.119Y61.708
N11820G2X89.644Y60.395I-0.394J-0.920
N11830G3X89.240Y58.425I4.595J-1.969
N11840G2X88.239Y57.425I-1.000J0.000
N11850G01X59.239
N11860G01Z-1.600F20.0
N11870G2X58.239Y58.425I0.000J1.000F500.0
N11880G01Y67.425
N11890G2X59.239Y68.426I1.000J0.000
N11900G3X63.835Y71.456I0.000J5.000
N11910G2X65.148Y71.981I0.920J-0.394
N11920G01X89.119Y61.708
N11930G2X89.644Y60.395I-0.394J-0.920
N11940G3X89.240Y58.425I4.595J-1.969
N11950G2X88.239Y57.425I-1.000J0.000
N11960G01X59.239
N11970G00Z6.000
N11980G00X45.393Y58.702
N11990G01Z-0.100F20.0
N12000G2X44.893Y58.201I-0.500J0.000F500.0
N12010G2X44.392Y58.702I0.000J0.500
N12020G2X44.893Y59.202I0.500J0.000
N12030G2X45.393Y58.702I0.000J-0.500
N12040G01Z-0.200F20.0
N12050G2X44.893Y58.201I-0.500J0.000F500.0
N12060G2X44.392Y58.702I0.000J0.500
N12070G2X44.893Y59.202I0.500J0.000
N12080G2X45.393Y58.702I0.000J-0.500
N12090G01Z-0.300F20.0
N12100G2X44.893Y58.201I-0.500J0.000F500.0
N12110G2X44.392Y58.702I0.000J0.500
N12120G2X44.893Y59.202I0.500J0.000
N12130G2X45.393Y58.702I0.000J-0.500
N12140G01Z-0.400F20.0
N12150G2X44.893Y58.201I-0.500J0.000F500.0
N12160G2X44.392Y58.702I0.000J0.500
N12170G2X44.893Y59.202I0.500J0.000
N12180G2X45.393Y58.702I0.000J-0.500
N12190G01Z-0.500F20.0
N12200G2X44.893Y58.201I-0.500J0.000F500.0
N12210G2X44.392Y58.702I0.000J0.500
N12220G2X44.893Y59.202I0.500J0.000
N12230G2X45.393Y58.702I0.000J-0.500
N12240G01Z-0.600F20.0
N12250G2X44.893Y58.201I-0.500J0.000F500.0
N12260G2X44.392Y58.702I0.000J0.500
N12270G2X44.893Y59.202I0.500J0.000
N12280G2X45.393Y58.702I0.000J-0.500
N12290G01Z-0.700F20.0
N12300G2X44.893Y58.201I-0.500J0.000F500.0
N12310G2X44.392Y58.702I0.000J0.500
N12320G2X44.893Y59.202I0.500J0.000
N12330G2X45.393Y58.702I0.000J-0.500
N12340G01Z-0.800F20.0
N12350G2X44.893Y58.201I-0.500J0.000F500.0
N12360G2X44.392Y58.702I0.000J0.500
N12370G2X44.893Y59.202I0.500J0.000
N12380G2X45.393Y58.702I0.000J-0.500
N12390G01Z-0.900F20.0
N12400G2X44.893Y58.201I-0.500J0.000F500.0
N12410G2X44.392Y58.702I0.000J0.500
N12420G2X44.893Y59.202I0.500J0.000
N12430G2X45.393Y58.702I0.000J-0.500
N12440G01Z-1.000F20.0
N12450G2X44.893Y58.201I-0.500J0.000F500.0
N12460G2X44.392Y58.702I0.000J0.500
N12470G2X44.893Y59.202I0.500J0.000
N12480G2X45.393Y58.702I0.000J-0.500
N12490G01Z-1.100F20.0
N12500G2X44.893Y58.201I-0.500J0.000F500.0
N12510G2X44.392Y58.702I0.000J0.500
N12520G2X44.893Y59.202I0.500J0.000
N12530G2X45.393Y58.702I0.000J-0.500
N12540G01Z-1.200F20.0
N12550G2X44.893Y58.201I-0.500J0.000F500.0
N12560G2X44.392Y58.702I0.000J0.500
N12570G2X44.893Y59.202I0.500J0.000
N12580G2X45.393Y58.702I0.000J-0.500
N12590G01Z-1.300F20.0
N12600G2X44.893Y58.201I-0.500J0.000F500.0
N12610G2X44.392Y58.702I0.000J0.500
N12620G2X44.893Y59.202I0.500J0.000
N12630G2X45.393Y58.702I0.000J-0.500
N12640G01Z-1.400F20.0
N12650G2X44.893Y58.201I-0.500J0.000F500.0
N12660G2X44.392Y58.702I0.000J0.500
N12670G2X44.893Y59.202I0.500J0.000
N12680G2X45.393Y58.702I0.000J-0.500
N12690G01Z-1.500F20.0
N12700G2X44.893Y58.201I-0.500J0.000F500.0
N12710G2X44.392Y58.702I0.000J0.500
N12720G2X44.893Y59.202I0.500J0.000
N12730G2X45.393Y58.702I0.000J-0.500
N12740G01Z-1.600F20.0
N12750G2X44.893Y58.201I-0.500J0.000F500.0
N12760G2X44.392Y58.702I0.000J0.500
N12770G2X44.893Y59.202I0.500J0.000
N12780G2X45.393Y58.702I0.000J-0.500
N12790G00Z6.000
N12800G00X49.540Y68.017
N12810G01Z-0.100F20.0
N12820G2X49.039Y67.516I-0.500J0.000F500.0
N12830G2X48.539Y68.017I0.000J0.501
N12840G2X49.039Y68.517I0.501J0.000
N12850G2X49.540Y68.017I0.000J-0.501
N12860G01Z-0.200F20.0
N12870G2X49.039Y67.516I-0.500J0.000F500.0
N12880G2X48.539Y68.017I0.000J0.501
N12890G2X49.039Y68.517I0.501J0.000
N12900G2X49.540Y68.017I0.000J-0.501
N12910G01Z-0.300F20.0
N12920G2X49.039Y67.516I-0.500J0.000F500.0
N12930G2X48.539Y68.017I0.000J0.501
N12940G2X49.039Y68.517I0.501J0.000
N12950G2X49.540Y68.017I0.000J-0.501
N12960G01Z-0.400F20.0
N12970G2X49.039Y67.516I-0.500J0.000F500.0
N12980G2X48.539Y68.017I0.000J0.501
N12990G2X49.039Y68.517I0.501J0.000
N13000G2X49.540Y68.017I0.000J-0.501
N13010G01Z-0.500F20.0
N13020G2X49.039Y67.516I-0.500J0.000F500.0
N13030G2X48.539Y68.017I0.000J0.501
N13040G2X49.039Y68.517I0.501J0.000
N13050G2X49.540Y68.017I0.000J-0.501
N13060G01Z-0.600F20.0
N13070G2X49.039Y67.516I-0.500J0.000F500.0
N13080G2X48.539Y68.017I0.000J0.501
N13090G2X49.039Y68.517I0.501J0.000
N13100G2X49.540Y68.017I0.000J-0.501
N13110G01Z-0.700F20.0
N13120G2X49.039Y67.516I-0.500J0.000F500.0
N13130G2X48.539Y68.017I0.000J0.501
N13140G2X49.039Y68.517I0.501J0.000
N13150G2X49.540Y68.017I0.000J-0.501
N13160G01Z-0.800F20.0
N13170G2X49.039Y67.516I-0.500J0.000F500.0
N13180G2X48.539Y68.017I0.000J0.501
N13190G2X49.039Y68.517I0.501J0.000
N13200G2X49.540Y68.017I0.000J-0.501
N13210G01Z-0.900F20.0
N13220G2X49.039Y67.516I-0.500J0.000F500.0
N13230G2X48.539Y68.017I0.000J0.501
N13240G2X49.039Y68.517I0.501J0.000
N13250G2X49.540Y68.017I0.000J-0.501
N13260G01Z-1.000F20.0
N13270G2X49.039Y67.516I-0.500J0.000F500.0
N13280G2X48.539Y68.017I0.000J0.501
N13290G2X49.039Y68.517I0.501J0.000
N13300G2X49.540Y68.017I0.000J-0.501
N13310G01Z-1.100F20.0
N13320G2X49.039Y67.516I-0.500J0.000F500.0
N13330G2X48.539Y68.017I0.000J0.501
N13340G2X49.039Y68.517I0.501J0.000
N13350G2X49.540Y68.017I0.000J-0.501
N13360G01Z-1.200F20.0
N13370G2X49.039Y67.516I-0.500J0.000F500.0
N13380G2X48.539Y68.017I0.000J0.501
N13390G2X49.039Y68.517I0.501J0.000
N13400G2X49.540Y68.017I0.000J-0.501
N13410G01Z-1.300F20.0
N13420G2X49.039Y67.516I-0.500J0.000F500.0
N13430G2X48.539Y68.017I0.000J0.501
N13440G2X49.039Y68.517I0.501J0.000
N13450G2X49.540Y68.017I0.000J-0.501
N13460G01Z-1.400F20.0
N13470G2X49.039Y67.516I-0.500J0.000F500.0
N13480G2X48.539Y68.017I0.000J0.501
N13490G2X49.039Y68.517I0.501J0.000
N13500G2X49.540Y68.017I0.000J-0.501
N13510G01Z-1.500F20.0
N13520G2X49.039Y67.516I-0.500J0.000F500.0
N13530G2X48.539Y68.017I0.000J0.501
N13540G2X49.039Y68.517I0.501J0.000
N13550G2X49.540Y68.017I0.000J-0.501
N13560G01Z-1.600F20.0
N13570G2X49.039Y67.516I-0.500J0.000F500.0
N13580G2X48.539Y68.017I0.000J0.501
N13590G2X49.039Y68.517I0.501J0.000
N13600G2X49.540Y68.017I0.000J-0.501
N13610G00Z6.000
N13620G00X59.740Y73.425
N13630G01Z-0.100F20.0
N13640G2X59.239Y72.925I-0.500J0.000F500.0
N13650G2X58.739Y73.425I0.000J0.501
N13660G2X59.239Y73.926I0.500J0.000
N13670G2X59.740Y73.425I0.000J-0.500
N13680G01Z-0.200F20.0
N13690G2X59.239Y72.925I-0.500J0.000F500.0
N13700G2X58.739Y73.425I0.000J0.501
N13710G2X59.239Y73.926I0.500J0.000
N13720G2X59.740Y73.425I0.000J-0.500
N13730G01Z-0.300F20.0
N13740G2X59.239Y72.925I-0.500J0.000F500.0
N13750G2X58.739Y73.425I0.000J0.501
N13760G2X59.239Y73.926I0.500J0.000
N13770G2X59.740Y73.425I0.000J-0.500
N13780G01Z-0.400F20.0
N13790G2X59.239Y72.925I-0.500J0.000F500.0
N13800G2X58.739Y73.425I0.000J0.501
N13810G2X59.239Y73.926I0.500J0.000
N13820G2X59.740Y73.425I0.000J-0.500
N13830G01Z-0.500F20.0
N13840G2X59.239Y72.925I-0.500J0.000F500.0
N13850G2X58.739Y73.425I0.000J0.501
N13860G2X59.239Y73.926I0.500J0.000
N13870G2X59.740Y73.425I0.000J-0.500
N13880G01Z-0.600F20.0
N13890G2X59.239Y72.925I-0.500J0.000F500.0
N13900G2X58.739Y73.425I0.000J0.501
N13910G2X59.239Y73.926I0.500J0.000
N13920G2X59.740Y73.425I0.000J-0.500
N13930G01Z-0.700F20.0
N13940G2X59.239Y72.925I-0.500J0.000F500.0
N13950G2X58.739Y73.425I0.000J0.501
N13960G2X59.239Y73.926I0.500J0.000
N13970G2X59.740Y73.425I0.000J-0.500
N13980G01Z-0.800F20.0
N13990G2X59.239Y72.925I-0.500J0.000F500.0
N14000G2X58.739Y73.425I0.000J0.501
N14010G2X59.239Y73.926I0.500J0.000
N14020G2X59.740Y73.425I0.000J-0.500
N14030G01Z-0.900F20.0
N14040G2X59.239Y72.925I-0.500J0.000F500.0
N14050G2X58.739Y73.425I0.000J0.501
N14060G2X59.239Y73.926I0.500J0.000
N14070G2X59.740Y73.425I0.000J-0.500
N14080G01Z-1.000F20.0
N14090G2X59.239Y72.925I-0.500J0.000F500.0
N14100G2X58.739Y73.425I0.000J0.501
N14110G2X59.239Y73.926I0.500J0.000
N14120G2X59.740Y73.425I0.000J-0.500
N14130G01Z-1.100F20.0
N14140G2X59.239Y72.925I-0.500J0.000F500.0
N14150G2X58.739Y73.425I0.000J0.501
N14160G2X59.239Y73.926I0.500J0.000
N14170G2X59.740Y73.425I0.000J-0.500
N14180G01Z-1.200F20.0
N14190G2X59.239Y72.925I-0.500J0.000F500.0
N14200G2X58.739Y73.425I0.000J0.501
N14210G2X59.239Y73.926I0.500J0.000
N14220G2X59.740Y73.425I0.000J-0.500
N14230G01Z-1.300F20.0
N14240G2X59.239Y72.925I-0.500J0.000F500.0
N14250G2X58.739Y73.425I0.000J0.501
N14260G2X59.239Y73.926I0.500J0.000
N14270G2X59.740Y73.425I0.000J-0.500
N14280G01Z-1.400F20.0
N14290G2X59.239Y72.925I-0.500J0.000F500.0
N14300G2X58.739Y73.425I0.000J0.501
N14310G2X59.239Y73.926I0.500J0.000
N14320G2X59.740Y73.425I0.000J-0.500
N14330G01Z-1.500F20.0
N14340G2X59.239Y72.925I-0.500J0.000F500.0
N14350G2X58.739Y73.425I0.000J0.501
N14360G2X59.239Y73.926I0.500J0.000
N14370G2X59.740Y73.425I0.000J-0.500
N14380G01Z-1.600F20.0
N14390G2X59.239Y72.925I-0.500J0.000F500.0
N14400G2X58.739Y73.425I0.000J0.501
N14410G2X59.239Y73.926I0.500J0.000
N14420G2X59.740Y73.425I0.000J-0.500
N14430G00Z6.000
N14440G00X63.887Y82.740
N14450G01Z-0.100F20.0
N14460G2X63.386Y82.240I-0.500J0.000F500.0
N14470G2X62.886Y82.740I0.000J0.501
N14480G2X63.386Y83.241I0.500J0.000
N14490G2X63.887Y82.740I0.000J-0.500
N14500G01Z-0.200F20.0
N14510G2X63.386Y82.240I-0.500J0.000F500.0
N14520G2X62.886Y82.740I0.000J0.501
N14530G2X63.386Y83.241I0.500J0.000
N14540G2X63.887Y82.740I0.000J-0.500
N14550G01Z-0.300F20.0
N14560G2X63.386Y82.240I-0.500J0.000F500.0
N14570G2X62.886Y82.740I0.000J0.501
N14580G2X63.386Y83.241I0.500J0.000
N14590G2X63.887Y82.740I0.000J-0.500
N14600G01Z-0.400F20.0
N14610G2X63.386Y82.240I-0.500J0.000F500.0
N14620G2X62.886Y82.740I0.000J0.501
N14630G2X63.386Y83.241I0.500J0.000
N14640G2X63.887Y82.740I0.000J-0.500
N14650G01Z-0.500F20.0
N14660G2X63.386Y82.240I-0.500J0.000F500.0
N14670G2X62.886Y82.740I0.000J0.501
N14680G2X63.386Y83.241I0.500J0.000
N14690G2X63.887Y82.740I0.000J-0.500
N14700G01Z-0.600F20.0
N14710G2X63.386Y82.240I-0.500J0.000F500.0
N14720G2X62.886Y82.740I0.000J0.501
N14730G2X63.386Y83.241I0.500J0.000
N14740G2X63.887Y82.740I0.000J-0.500
N14750G01Z-0.700F20.0
N14760G2X63.386Y82.240I-0.500J0.000F500.0
N14770G2X62.886Y82.740I0.000J0.501
N14780G2X63.386Y83.241I0.500J0.000
N14790G2X63.887Y82.740I0.000J-0.500
N14800G01Z-0.800F20.0
N14810G2X63.386Y82.240I-0.500J0.000F500.0
N14820G2X62.886Y82.740I0.000J0.501
N14830G2X63.386Y83.241I0.500J0.000
N14840G2X63.887Y82.740I0.000J-0.500
N14850G01Z-0.900F20.0
N14860G2X63.386Y82.240I-0.500J0.000F500.0
N14870G2X62.886Y82.740I0.000J0.501
N14880G2X63.386Y83.241I0.500J0.000
N14890G2X63.887Y82.740I0.000J-0.500
N14900G01Z-1.000F20.0
N14910G2X63.386Y82.240I-0.500J0.000F500.0
N14920G2X62.886Y82.740I0.000J0.501
N14930G2X63.386Y83.241I0.500J0.000
N14940G2X63.887Y82.740I0.000J-0.500
N14950G01Z-1.100F20.0
N14960G2X63.386Y82.240I-0.500J0.000F500.0
N14970G2X62.886Y82.740I0.000J0.501
N14980G2X63.386Y83.241I0.500J0.000
N14990G2X63.887Y82.740I0.000J-0.500
N15000G01Z-1.200F20.0
N15010G2X63.386Y82.240I-0.500J0.000F500.0
N15020G2X62.886Y82.740I0.000J0.501
N15030G2X63.386Y83.241I0.500J0.000
N15040G2X63.887Y82.740I0.000J-0.500
N15050G01Z-1.300F20.0
N15060G2X63.386Y82.240I-0.500J0.000F500.0
N15070G2X62.886Y82.740I0.000J0.501
N15080G2X63.386Y83.241I0.500J0.000
N15090G2X63.887Y82.740I0.000J-0.500
N15100G01Z-1.400F20.0
N15110G2X63.386Y82.240I-0.500J0.000F500.0
N15120G2X62.886Y82.740I0.000J0.501
N15130G2X63.386Y83.241I0.500J0.000
N15140G2X63.887Y82.740I0.000J-0.500
N15150G01Z-1.500F20.0
N15160G2X63.386Y82.240I-0.500J0.000F500.0
N15170G2X62.886Y82.740I0.000J0.501
N15180G2X63.386Y83.241I0.500J0.000
N15190G2X63.887Y82.740I0.000J-0.500
N15200G01Z-1.600F20.0
N15210G2X63.386Y82.240I-0.500J0.000F500.0
N15220G2X62.886Y82.740I0.000J0.501
N15230G2X63.386Y83.241I0.500J0.000
N15240G2X63.887Y82.740I0.000J-0.500
N15250G00Z6.000
N15260G00X68.507Y79.457
N15270G01Z-0.100F20.0
N15280G2X67.981Y80.771I0.394J0.920F500.0
N15290G3X68.386Y82.740I-4.595J1.969
N15300G2X69.386Y83.741I1.000J0.000
N15310G01X98.386
N15320G2X99.387Y82.740I0.000J-1.000
N15330G01Y73.740
N15340G2X98.386Y72.740I-1.001J0.000
N15350G3X93.791Y69.710I0.000J-4.999
N15360G2X92.477Y69.184I-0.920J0.394
N15370G01X68.507Y79.457
N15380G01Z-0.200F20.0
N15390G2X67.981Y80.771I0.394J0.920F500.0
N15400G3X68.386Y82.740I-4.595J1.969
N15410G2X69.386Y83.741I1.000J0.000
N15420G01X98.386
N15430G2X99.387Y82.740I0.000J-1.000
N15440G01Y73.740
N15450G2X98.386Y72.740I-1.001J0.000
N15460G3X93.791Y69.710I0.000J-4.999
N15470G2X92.477Y69.184I-0.920J0.394
N15480G01X68.507Y79.457
N15490G01Z-0.300F20.0
N15500G2X67.981Y80.771I0.394J0.920F500.0
N15510G3X68.386Y82.740I-4.595J1.969
N15520G2X69.386Y83.741I1.000J0.000
N15530G01X98.386
N15540G2X99.387Y82.740I0.000J-1.000
N15550G01Y73.740
N15560G2X98.386Y72.740I-1.001J0.000
N15570G3X93.791Y69.710I0.000J-4.999
N15580G2X92.477Y69.184I-0.920J0.394
N15590G01X68.507Y79.457
N15600G01Z-0.400F20.0
N15610G2X67.981Y80.771I0.394J0.920F500.0
N15620G3X68.386Y82.740I-4.595J1.969
N15630G2X69.386Y83.741I1.000J0.000
N15640G01X98.386
N15650G2X99.387Y82.740I0.000J-1.000
N15660G01Y73.740
N15670G2X98.386Y72.740I-1.001J0.000
N15680G3X93.791Y69.710I0.000J-4.999
N15690G2X92.477Y69.184I-0.920J0.394
N15700G01X68.507Y79.457
N15710G01Z-0.500F20.0
N15720G2X67.981Y80.771I0.394J0.920F500.0
N15730G3X68.386Y82.740I-4.595J1.969
N15740G2X69.386Y83.741I1.000J0.000
N15750G01X98.386
N15760G2X99.387Y82.740I0.000J-1.000
N15770G01Y73.740
N15780G2X98.386Y72.740I-1.001J0.000
N15790G3X93.791Y69.710I0.000J-4.999
N15800G2X92.477Y69.184I-0.920J0.394
N15810G01X68.507Y79.457
N15820G01Z-0.600F20.0
N15830G2X67.981Y80.771I0.394J0.920F500.0
N15840G3X68.386Y82.740I-4.595J1.969
N15850G2X69.386Y83.741I1.000J0.000
N15860G01X98.386
N15870G2X99.387Y82.740I0.000J-1.000
N15880G01Y73.740
N15890G2X98.386Y72.740I-1.001J0.000
N15900G3X93.791Y69.710I0.000J-4.999
N15910G2X92.477Y69.184I-0.920J0.394
N15920G01X68.507Y79.457
N15930G01Z-0.700F20.0
N15940G2X67.981Y80.771I0.394J0.920F500.0
N15950G3X68.386Y82.740I-4.595J1.969
N15960G2X69.386Y83.741I1.000J0.000
N15970G01X98.386
N15980G2X99.387Y82.740I0.000J-1.000
N15990G01Y73.740
N16000G2X98.386Y72.740I-1.001J0.000
N16010G3X93.791Y69.710I0.000J-4.999
N16020G2X92.477Y69.184I-0.920J0.394
N16030G01X68.507Y79.457
N16040G01Z-0.800F20.0
N16050G2X67.981Y80.771I0.394J0.920F500.0
N16060G3X68.386Y82.740I-4.595J1.969
N16070G2X69.386Y83.741I1.000J0.000
N16080G01X98.386
N16090G2X99.387Y82.740I0.000J-1.000
N16100G01Y73.740
N16110G2X98.386Y72.740I-1.001J0.000
N16120G3X93.791Y69.710I0.000J-4.999
N16130G2X92.477Y69.184I-0.920J0.394
N16140G01X68.507Y79.457
N16150G01Z-0.900F20.0
N16160G2X67.981Y80.771I0.394J0.920F500.0
N16170G3X68.386Y82.740I-4.595J1.969
N16180G2X69.386Y83.741I1.000J0.000
N16190G01X98.386
N16200G2X99.387Y82.740I0.000J-1.000
N16210G01Y73.740
N16220G2X98.386Y72.740I-1.001J0.000
N16230G3X93.791Y69.710I0.000J-4.999
N16240G2X92.477Y69.184I-0.920J0.394
N16250G01X68.507Y79.457
N16260G01Z-1.000F20.0
N16270G2X67.981Y80.771I0.394J0.920F500.0
N16280G3X68.386Y82.740I-4.595J1.969
N16290G2X69.386Y83.741I1.000J0.000
N16300G01X98.386
N16310G2X99.387Y82.740I0.000J-1.000
N16320G01Y73.740
N16330G2X98.386Y72.740I-1.001J0.000
N16340G3X93.791Y69.710I0.000J-4.999
N16350G2X92.477Y69.184I-0.920J0.394
N16360G01X68.507Y79.457
N16370G01Z-1.100F20.0
N16380G2X67.981Y80.771I0.394J0.920F500.0
N16390G3X68.386Y82.740I-4.595J1.969
N16400G2X69.386Y83.741I1.000J0.000
N16410G01X98.386
N16420G2X99.387Y82.740I0.000J-1.000
N16430G01Y73.740
N16440G2X98.386Y72.740I-1.001J0.000
N16450G3X93.791Y69.710I0.000J-4.999
N16460G2X92.477Y69.184I-0.920J0.394
N16470G01X68.507Y79.457
N16480G01Z-1.200F20.0
N16490G2X67.981Y80.771I0.394J0.920F500.0
N16500G3X68.386Y82.740I-4.595J1.969
N16510G2X69.386Y83.741I1.000J0.000
N16520G01X98.386
N16530G2X99.387Y82.740I0.000J-1.000
N16540G01Y73.740
N16550G2X98.386Y72.740I-1.001J0.000
N16560G3X93.791Y69.710I0.000J-4.999
N16570G2X92.477Y69.184I-0.920J0.394
N16580G01X68.507Y79.457
N16590G01Z-1.300F20.0
N16600G2X67.981Y80.771I0.394J0.920F500.0
N16610G3X68.386Y82.740I-4.595J1.969
N16620G2X69.386Y83.741I1.000J0.000
N16630G01X98.386
N16640G2X99.387Y82.740I0.000J-1.000
N16650G01Y73.740
N16660G2X98.386Y72.740I-1.001J0.000
N16670G3X93.791Y69.710I0.000J-4.999
N16680G2X92.477Y69.184I-0.920J0.394
N16690G01X68.507Y79.457
N16700G01Z-1.400F20.0
N16710G2X67.981Y80.771I0.394J0.920F500.0
N16720G3X68.386Y82.740I-4.595J1.969
N16730G2X69.386Y83.741I1.000J0.000
N16740G01X98.386
N16750G2X99.387Y82.740I0.000J-1.000
N16760G01Y73.740
N16770G2X98.386Y72.740I-1.001J0.000
N16780G3X93.791Y69.710I0.000J-4.999
N16790G2X92.477Y69.184I-0.920J0.394
N16800G01X68.507Y79.457
N16810G01Z-1.500F20.0
N16820G2X67.981Y80.771I0.394J0.920F500.0
N16830G3X68.386Y82.740I-4.595J1.969
N16840G2X69.386Y83.741I1.000J0.000
N16850G01X98.386
N16860G2X99.387Y82.740I0.000J-1.000
N16870G01Y73.740
N16880G2X98.386Y72.740I-1.001J0.000
N16890G3X93.791Y69.710I0.000J-4.999
N16900G2X92.477Y69.184I-0.920J0.394
N16910G01X68.507Y79.457
N16920G01Z-1.600F20.0
N16930G2X67.981Y80.771I0.394J0.920F500.0
N16940G3X68.386Y82.740I-4.595J1.969
N16950G2X69.386Y83.741I1.000J0.000
N16960G01X98.386
N16970G2X99.387Y82.740I0.000J-1.000
N16980G01Y73.740
N16990G2X98.386Y72.740I-1.001J0.000
N17000G3X93.791Y69.710I0.000J-4.999
N17010G2X92.477Y69.184I-0.920J0.394
N17020G01X68.507Y79.457
N17030G00Z6.000
N17040G00X73.487Y89.240
N17050G01Z-0.100F20.0
N17060G2X73.386Y89.140I-0.101J0.000F500.0
N17070G2X73.286Y89.240I0.000J0.101
N17080G2X73.386Y89.341I0.100J0.000
N17090G2X73.487Y89.240I0.000J-0.101
N17100G01Z-0.200F20.0
N17110G2X73.386Y89.140I-0.101J0.000F500.0
N17120G2X73.286Y89.240I0.000J0.101
N17130G2X73.386Y89.341I0.100J0.000
N17140G2X73.487Y89.240I0.000J-0.101
N17150G01Z-0.300F20.0
N17160G2X73.386Y89.140I-0.101J0.000F500.0
N17170G2X73.286Y89.240I0.000J0.101
N17180G2X73.386Y89.341I0.100J0.000
N17190G2X73.487Y89.240I0.000J-0.101
N17200G01Z-0.400F20.0
N17210G2X73.386Y89.140I-0.101J0.000F500.0
N17220G2X73.286Y89.240I0.000J0.101
N17230G2X73.386Y89.341I0.100J0.000
N17240G2X73.487Y89.240I0.000J-0.101
N17250G01Z-0.500F20.0
N17260G2X73.386Y89.140I-0.101J0.000F500.0
N17270G2X73.286Y89.240I0.000J0.101
N17280G2X73.386Y89.341I0.100J0.000
N17290G2X73.487Y89.240I0.000J-0.101
N17300G01Z-0.600F20.0
N17310G2X73.386Y89.140I-0.101J0.000F500.0
N17320G2X73.286Y89.240I0.000J0.101
N17330G2X73.386Y89.341I0.100J0.000
N17340G2X73.487Y89.240I0.000J-0.101
N17350G01Z-0.700F20.0
N17360G2X73.386Y89.140I-0.101J0.000F500.0
N17370G2X73.286Y89.240I0.000J0.101
N17380G2X73.386Y89.341I0.100J0.000
N17390G2X73.487Y89.240I0.000J-0.101
N17400G01Z-0.800F20.0
N17410G2X73.386Y89.140I-0.101J0.000F500.0
N17420G2X73.286Y89.240I0.000J0.101
N17430G2X73.386Y89.341I0.100J0.000
N17440G2X73.487Y89.240I0.000J-0.101
N17450G01Z-0.900F20.0
N17460G2X73.386Y89.140I-0.101J0.000F500.0
N17470G2X73.286Y89.240I0.000J0.101
N17480G2X73.386Y89.341I0.100J0.000
N17490G2X73.487Y89.240I0.000J-0.101
N17500G01Z-1.000F20.0
N17510G2X73.386Y89.140I-0.101J0.000F500.0
N17520G2X73.286Y89.240I0.000J0.101
N17530G2X73.386Y89.341I0.100J0.000
N17540G2X73.487Y89.240I0.000J-0.101
N17550G01Z-1.100F20.0
N17560G2X73.386Y89.140I-0.101J0.000F500.0
N17570G2X73.286Y89.240I0.000J0.101
N17580G2X73.386Y89.341I0.100J0.000
N17590G2X73.487Y89.240I0.000J-0.101
N17600G01Z-1.200F20.0
N17610G2X73.386Y89.140I-0.101J0.000F500.0
N17620G2X73.286Y89.240I0.000J0.101
N17630G2X73.386Y89.341I0.100J0.000
N17640G2X73.487Y89.240I0.000J-0.101
N17650G01Z-1.300F20.0
N17660G2X73.386Y89.140I-0.101J0.000F500.0
N17670G2X73.286Y89.240I0.000J0.101
N17680G2X73.386Y89.341I0.100J0.000
N17690G2X73.487Y89.240I0.000J-0.101
N17700G01Z-1.400F20.0
N17710G2X73.386Y89.140I-0.101J0.000F500.0
N17720G2X73.286Y89.240I0.000J0.101
N17730G2X73.386Y89.341I0.100J0.000
N17740G2X73.487Y89.240I0.000J-0.101
N17750G01Z-1.500F20.0
N17760G2X73.386Y89.140I-0.101J0.000F500.0
N17770G2X73.286Y89.240I0.000J0.101
N17780G2X73.386Y89.341I0.100J0.000
N17790G2X73.487Y89.240I0.000J-0.101
N17800G01Z-1.600F20.0
N17810G2X73.386Y89.140I-0.101J0.000F500.0
N17820G2X73.286Y89.240I0.000J0.101
N17830G2X73.386Y89.341I0.100J0.000
N17840G2X73.487Y89.240I0.000J-0.101
N17850G00Z6.000
N17860G00X72.102Y98.217
N17870G01Z-0.100F20.0
N17880G2X71.601Y97.716I-0.501J0.000F500.0
N17890G2X71.101Y98.217I0.000J0.500
N17900G2X71.601Y98.717I0.500J0.000
N17910G2X72.102Y98.217I0.000J-0.501
N17920G01Z-0.200F20.0
N17930G2X71.601Y97.716I-0.501J0.000F500.0
N17940G2X71.101Y98.217I0.000J0.500
N17950G2X71.601Y98.717I0.500J0.000
N17960G2X72.102Y98.217I0.000J-0.501
N17970G01Z-0.300F20.0
N17980G2X71.601Y97.716I-0.501J0.000F500.0
N17990G2X71.101Y98.217I0.000J0.500
N18000G2X71.601Y98.717I0.500J0.000
N18010G2X72.102Y98.217I0.000J-0.501
N18020G01Z-0.400F20.0
N18030G2X71.601Y97.716I-0.501J0.000F500.0
N18040G2X71.101Y98.217I0.000J0.500
N18050G2X71.601Y98.717I0.500J0.000
N18060G2X72.102Y98.217I0.000J-0.501
N18070G01Z-0.500F20.0
N18080G2X71.601Y97.716I-0.501J0.000F500.0
N18090G2X71.101Y98.217I0.000J0.500
N18100G2X71.601Y98.717I0.500J0.000
N18110G2X72.102Y98.217I0.000J-0.501
N18120G01Z-0.600F20.0
N18130G2X71.601Y97.716I-0.501J0.000F500.0
N18140G2X71.101Y98.217I0.000J0.500
N18150G2X71.601Y98.717I0.500J0.000
N18160G2X72.102Y98.217I0.000J-0.501
N18170G01Z-0.700F20.0
N18180G2X71.601Y97.716I-0.501J0.000F500.0
N18190G2X71.101Y98.217I0.000J0.500
N18200G2X71.601Y98.717I0.500J0.000
N18210G2X72.102Y98.217I0.000J-0.501
N18220G01Z-0.800F20.0
N18230G2X71.601Y97.716I-0.501J0.000F500.0
N18240G2X71.101Y98.217I0.000J0.500
N18250G2X71.601Y98.717I0.500J0.000
N18260G2X72.102Y98.217I0.000J-0.501
N18270G01Z-0.900F20.0
N18280G2X71.601Y97.716I-0.501J0.000F500.0
N18290G2X71.101Y98.217I0.000J0.500
N18300G2X71.601Y98.717I0.500J0.000
N18310G2X72.102Y98.217I0.000J-0.501
N18320G01Z-1.000F20.0
N18330G2X71.601Y97.716I-0.501J0.000F500.0
N18340G2X71.101Y98.217I0.000J0.500
N18350G2X71.601Y98.717I0.500J0.000
N18360G2X72.102Y98.217I0.000J-0.501
N18370G01Z-1.100F20.0
N18380G2X71.601Y97.716I-0.501J0.000F500.0
N18390G2X71.101Y98.217I0.000J0.500
N18400G2X71.601Y98.717I0.500J0.000
N18410G2X72.102Y98.217I0.000J-0.501
N18420G01Z-1.200F20.0
N18430G2X71.601Y97.716I-0.501J0.000F500.0
N18440G2X71.101Y98.217I0.000J0.500
N18450G2X71.601Y98.717I0.500J0.000
N18460G2X72.102Y98.217I0.000J-0.501
N18470G01Z-1.300F20.0
N18480G2X71.601Y97.716I-0.501J0.000F500.0
N18490G2X71.101Y98.217I0.000J0.500
N18500G2X71.601Y98.717I0.500J0.000
N18510G2X72.102Y98.217I0.000J-0.501
N18520G01Z-1.400F20.0
N18530G2X71.601Y97.716I-0.501J0.000F500.0
N18540G2X71.101Y98.217I0.000J0.500
N18550G2X71.601Y98.717I0.500J0.000
N18560G2X72.102Y98.217I0.000J-0.501
N18570G01Z-1.500F20.0
N18580G2X71.601Y97.716I-0.501J0.000F500.0
N18590G2X71.101Y98.217I0.000J0.500
N18600G2X71.601Y98.717I0.500J0.000
N18610G2X72.102Y98.217I0.000J-0.501
N18620G01Z-1.600F20.0
N18630G2X71.601Y97.716I-0.501J0.000F500.0
N18640G2X71.101Y98.217I0.000J0.500
N18650G2X71.601Y98.717I0.500J0.000
N18660G2X72.102Y98.217I0.000J-0.501
N18670G00Z6.000
N18680G00X70.101Y103.217
N18690G01Z-0.100F20.0
N18700G01Y117.191F500.0
N18710G2X70.809Y118.148I1.000J0.000
N18720G01X82.404Y121.695
N18730G2X83.595Y120.296I0.293J-0.957
N18740G01X74.962Y102.775
N18750G2X74.065Y102.216I-0.897J0.442
N18760G01X71.101
N18770G2X70.101Y103.217I0.000J1.000
N18780G01Z-0.200F20.0
N18790G01Y117.191F500.0
N18800G2X70.809Y118.148I1.000J0.000
N18810G01X82.404Y121.695
N18820G2X83.595Y120.296I0.293J-0.957
N18830G01X74.962Y102.775
N18840G2X74.065Y102.216I-0.897J0.442
N18850G01X71.101
N18860G2X70.101Y103.217I0.000J1.000
N18870G01Z-0.300F20.0
N18880G01Y117.191F500.0
N18890G2X70.809Y118.148I1.000J0.000
N18900G01X82.404Y121.695
N18910G2X83.595Y120.296I0.293J-0.957
N18920G01X74.962Y102.775
N18930G2X74.065Y102.216I-0.897J0.442
N18940G01X71.101
N18950G2X70.101Y103.217I0.000J1.000
N18960G01Z-0.400F20.0
N18970G01Y117.191F500.0
N18980G2X70.809Y118.148I1.000J0.000
N18990G01X82.404Y121.695
N19000G2X83.595Y120.296I0.293J-0.957
N19010G01X74.962Y102.775
N19020G2X74.065Y102.216I-0.897J0.442
N19030G01X71.101
N19040G2X70.101Y103.217I0.000J1.000
N19050G01Z-0.500F20.0
N19060G01Y117.191F500.0
N19070G2X70.809Y118.148I1.000J0.000
N19080G01X82.404Y121.695
N19090G2X83.595Y120.296I0.293J-0.957
N19100G01X74.962Y102.775
N19110G2X74.065Y102.216I-0.897J0.442
N19120G01X71.101
N19130G2X70.101Y103.217I0.000J1.000
N19140G01Z-0.600F20.0
N19150G01Y117.191F500.0
N19160G2X70.809Y118.148I1.000J0.000
N19170G01X82.404Y121.695
N19180G2X83.595Y120.296I0.293J-0.957
N19190G01X74.962Y102.775
N19200G2X74.065Y102.216I-0.897J0.442
N19210G01X71.101
N19220G2X70.101Y103.217I0.000J1.000
N19230G01Z-0.700F20.0
N19240G01Y117.191F500.0
N19250G2X70.809Y118.148I1.000J0.000
N19260G01X82.404Y121.695
N19270G2X83.595Y120.296I0.293J-0.957
N19280G01X74.962Y102.775
N19290G2X74.065Y102.216I-0.897J0.442
N19300G01X71.101
N19310G2X70.101Y103.217I0.000J1.000
N19320G01Z-0.800F20.0
N19330G01Y117.191F500.0
N19340G2X70.809Y118.148I1.000J0.000
N19350G01X82.404Y121.695
N19360G2X83.595Y120.296I0.293J-0.957
N19370G01X74.962Y102.775
N19380G2X74.065Y102.216I-0.897J0.442
N19390G01X71.101
N19400G2X70.101Y103.217I0.000J1.000
N19410G01Z-0.900F20.0
N19420G01Y117.191F500.0
N19430G2X70.809Y118.148I1.000J0.000
N19440G01X82.404Y121.695
N19450G2X83.595Y120.296I0.293J-0.957
N19460G01X74.962Y102.775
N19470G2X74.065Y102.216I-0.897J0.442
N19480G01X71.101
N19490G2X70.101Y103.217I0.000J1.000
N19500G01Z-1.000F20.0
N19510G01Y117.191F500.0
N19520G2X70.809Y118.148I1.000J0.000
N19530G01X82.404Y121.695
N19540G2X83.595Y120.296I0.293J-0.957
N19550G01X74.962Y102.775
N19560G2X74.065Y102.216I-0.897J0.442
N19570G01X71.101
N19580G2X70.101Y103.217I0.000J1.000
N19590G01Z-1.100F20.0
N19600G01Y117.191F500.0
N19610G2X70.809Y118.148I1.000J0.000
N19620G01X82.404Y121.695
N19630G2X83.595Y120.296I0.293J-0.957
N19640G01X74.962Y102.775
N19650G2X74.065Y102.216I-0.897J0.442
N19660G01X71.101
N19670G2X70.101Y103.217I0.000J1.000
N19680G01Z-1.200F20.0
N19690G01Y117.191F500.0
N19700G2X70.809Y118.148I1.000J0.000
N19710G01X82.404Y121.695
N19720G2X83.595Y120.296I0.293J-0.957
N19730G01X74.962Y102.775
N19740G2X74.065Y102.216I-0.897J0.442
N19750G01X71.101
N19760G2X70.101Y103.217I0.000J1.000
N19770G01Z-1.300F20.0
N19780G01Y117.191F500.0
N19790G2X70.809Y118.148I1.000J0.000
N19800G01X82.404Y121.695
N19810G2X83.595Y120.296I0.293J-0.957
N19820G01X74.962Y102.775
N19830G2X74.065Y102.216I-0.897J0.442
N19840G01X71.101
N19850G2X70.101Y103.217I0.000J1.000
N19860G01Z-1.400F20.0
N19870G01Y117.191F500.0
N19880G2X70.809Y118.148I1.000J0.000
N19890G01X82.404Y121.695
N19900G2X83.595Y120.296I0.293J-0.957
N19910G01X74.962Y102.775
N19920G2X74.065Y102.216I-0.897J0.442
N19930G01X71.101
N19940G2X70.101Y103.217I0.000J1.000
N19950G01Z-1.500F20.0
N19960G01Y117.191F500.0
N19970G2X70.809Y118.148I1.000J0.000
N19980G01X82.404Y121.695
N19990G2X83.595Y120.296I0.293J-0.957
N20000G01X74.962Y102.775
N20010G2X74.065Y102.216I-0.897J0.442
N20020G01X71.101
N20030G2X70.101Y103.217I0.000J1.000
N20040G01Z-1.600F20.0
N20050G01Y117.191F500.0
N20060G2X70.809Y118.148I1.000J0.000
N20070G01X82.404Y121.695
N20080G2X83.595Y120.296I0.293J-0.957
N20090G01X74.962Y102.775
N20100G2X74.065Y102.216I-0.897J0.442
N20110G01X71.101
N20120G2X70.101Y103.217I0.000J1.000
N20130G00Z6.000
N20140G00X64.102Y98.217
N20150G01Z-0.100F20.0
N20160G2X63.601Y97.716I-0.500J0.000F500.0
N20170G2X63.101Y98.217I0.000J0.500
N20180G2X63.601Y98.717I0.500J0.000
N20190G2X64.102Y98.217I0.000J-0.501
N20200G01Z-0.200F20.0
N20210G2X63.601Y97.716I-0.500J0.000F500.0
N20220G2X63.101Y98.217I0.000J0.500
N20230G2X63.601Y98.717I0.500J0.000
N20240G2X64.102Y98.217I0.000J-0.501
N20250G01Z-0.300F20.0
N20260G2X63.601Y97.716I-0.500J0.000F500.0
N20270G2X63.101Y98.217I0.000J0.500
N20280G2X63.601Y98.717I0.500J0.000
N20290G2X64.102Y98.217I0.000J-0.501
N20300G01Z-0.400F20.0
N20310G2X63.601Y97.716I-0.500J0.000F500.0
N20320G2X63.101Y98.217I0.000J0.500
N20330G2X63.601Y98.717I0.500J0.000
N20340G2X64.102Y98.217I0.000J-0.501
N20350G01Z-0.500F20.0
N20360G2X63.601Y97.716I-0.500J0.000F500.0
N20370G2X63.101Y98.217I0.000J0.500
N20380G2X63.601Y98.717I0.500J0.000
N20390G2X64.102Y98.217I0.000J-0.501
N20400G01Z-0.600F20.0
N20410G2X63.601Y97.716I-0.500J0.000F500.0
N20420G2X63.101Y98.217I0.000J0.500
N20430G2X63.601Y98.717I0.500J0.000
N20440G2X64.102Y98.217I0.000J-0.501
N20450G01Z-0.700F20.0
N20460G2X63.601Y97.716I-0.500J0.000F500.0
N20470G2X63.101Y98.217I0.000J0.500
N20480G2X63.601Y98.717I0.500J0.000
N20490G2X64.102Y98.217I0.000J-0.501
N20500G01Z-0.800F20.0
N20510G2X63.601Y97.716I-0.500J0.000F500.0
N20520G2X63.101Y98.217I0.000J0.500
N20530G2X63.601Y98.717I0.500J0.000
N20540G2X64.102Y98.217I0.000J-0.501
N20550G01Z-0.900F20.0
N20560G2X63.601Y97.716I-0.500J0.000F500.0
N20570G2X63.101Y98.217I0.000J0.500
N20580G2X63.601Y98.717I0.500J0.000
N20590G2X64.102Y98.217I0.000J-0.501
N20600G01Z-1.000F20.0
N20610G2X63.601Y97.716I-0.500J0.000F500.0
N20620G2X63.101Y98.217I0.000J0.500
N20630G2X63.601Y98.717I0.500J0.000
N20640G2X64.102Y98.217I0.000J-0.501
N20650G01Z-1.100F20.0
N20660G2X63.601Y97.716I-0.500J0.000F500.0
N20670G2X63.101Y98.217I0.000J0.500
N20680G2X63.601Y98.717I0.500J0.000
N20690G2X64.102Y98.217I0.000J-0.501
N20700G01Z-1.200F20.0
N20710G2X63.601Y97.716I-0.500J0.000F500.0
N20720G2X63.101Y98.217I0.000J0.500
N20730G2X63.601Y98.717I0.500J0.000
N20740G2X64.102Y98.217I0.000J-0.501
N20750G01Z-1.300F20.0
N20760G2X63.601Y97.716I-0.500J0.000F500.0
N20770G2X63.101Y98.217I0.000J0.500
N20780G2X63.601Y98.717I0.500J0.000
N20790G2X64.102Y98.217I0.000J-0.501
N20800G01Z-1.400F20.0
N20810G2X63.601Y97.716I-0.500J0.000F500.0
N20820G2X63.101Y98.217I0.000J0.500
N20830G2X63.601Y98.717I0.500J0.000
N20840G2X64.102Y98.217I0.000J-0.501
N20850G01Z-1.500F20.0
N20860G2X63.601Y97.716I-0.500J0.000F500.0
N20870G2X63.101Y98.217I0.000J0.500
N20880G2X63.601Y98.717I0.500J0.000
N20890G2X64.102Y98.217I0.000J-0.501
N20900G01Z-1.600F20.0
N20910G2X63.601Y97.716I-0.500J0.000F500.0
N20920G2X63.101Y98.217I0.000J0.500
N20930G2X63.601Y98.717I0.500J0.000
N20940G2X64.102Y98.217I0.000J-0.501
N20950G00Z6.000
N20960G00X60.240Y102.775
N20970G01Z-0.100F20.0
N20980G01X51.608Y120.296F500.0
N20990G2X52.798Y121.695I0.897J0.442
N21000G01X64.394Y118.148
N21010G2X65.102Y117.191I-0.293J-0.957
N21020G01Y103.217
N21030G2X64.101Y102.216I-1.001J0.000
N21040G01X61.138
N21050G2X60.240Y102.775I0.000J1.000
N21060G01Z-0.200F20.0
N21070G01X51.608Y120.296F500.0
N21080G2X52.798Y121.695I0.897J0.442
N21090G01X64.394Y118.148
N21100G2X65.102Y117.191I-0.293J-0.957
N21110G01Y103.217
N21120G2X64.101Y102.216I-1.001J0.000
N21130G01X61.138
N21140G2X60.240Y102.775I0.000J1.000
N21150G01Z-0.300F20.0
N21160G01X51.608Y120.296F500.0
N21170G2X52.798Y121.695I0.897J0.442
N21180G01X64.394Y118.148
N21190G2X65.102Y117.191I-0.293J-0.957
N21200G01Y103.217
N21210G2X64.101Y102.216I-1.001J0.000
N21220G01X61.138
N21230G2X60.240Y102.775I0.000J1.000
N21240G01Z-0.400F20.0
N21250G01X51.608Y120.296F500.0
N21260G2X52.798Y121.695I0.897J0.442
N21270G01X64.394Y118.148
N21280G2X65.102Y117.191I-0.293J-0.957
N21290G01Y103.217
N21300G2X64.101Y102.216I-1.001J0.000
N21310G01X61.138
N21320G2X60.240Y102.775I0.000J1.000
N21330G01Z-0.500F20.0
N21340G01X51.608Y120.296F500.0
N21350G2X52.798Y121.695I0.897J0.442
N21360G01X64.394Y118.148
N21370G2X65.102Y117.191I-0.293J-0.957
N21380G01Y103.217
N21390G2X64.101Y102.216I-1.001J0.000
N21400G01X61.138
N21410G2X60.240Y102.775I0.000J1.000
N21420G01Z-0.600F20.0
N21430G01X51.608Y120.296F500.0
N21440G2X52.798Y121.695I0.897J0.442
N21450G01X64.394Y118.148
N21460G2X65.102Y117.191I-0.293J-0.957
N21470G01Y103.217
N21480G2X64.101Y102.216I-1.001J0.000
N21490G01X61.138
N21500G2X60.240Y102.775I0.000J1.000
N21510G01Z-0.700F20.0
N21520G01X51.608Y120.296F500.0
N21530G2X52.798Y121.695I0.897J0.442
N21540G01X64.394Y118.148
N21550G2X65.102Y117.191I-0.293J-0.957
N21560G01Y103.217
N21570G2X64.101Y102.216I-1.001J0.000
N21580G01X61.138
N21590G2X60.240Y102.775I0.000J1.000
N21600G01Z-0.800F20.0
N21610G01X51.608Y120.296F500.0
N21620G2X52.798Y121.695I0.897J0.442
N21630G01X64.394Y118.148
N21640G2X65.102Y117.191I-0.293J-0.957
N21650G01Y103.217
N21660G2X64.101Y102.216I-1.001J0.000
N21670G01X61.138
N21680G2X60.240Y102.775I0.000J1.000
N21690G01Z-0.900F20.0
N21700G01X51.608Y120.296F500.0
N21710G2X52.798Y121.695I0.897J0.442
N21720G01X64.394Y118.148
N21730G2X65.102Y117.191I-0.293J-0.957
N21740G01Y103.217
N21750G2X64.101Y102.216I-1.001J0.000
N21760G01X61.138
N21770G2X60.240Y102.775I0.000J1.000
N21780G01Z-1.000F20.0
N21790G01X51.608Y120.296F500.0
N21800G2X52.798Y121.695I0.897J0.442
N21810G01X64.394Y118.148
N21820G2X65.102Y117.191I-0.293J-0.957
N21830G01Y103.217
N21840G2X64.101Y102.216I-1.001J0.000
N21850G01X61.138
N21860G2X60.240Y102.775I0.000J1.000
N21870G01Z-1.100F20.0
N21880G01X51.608Y120.296F500.0
N21890G2X52.798Y121.695I0.897J0.442
N21900G01X64.394Y118.148
N21910G2X65.102Y117.191I-0.293J-0.957
N21920G01Y103.217
N21930G2X64.101Y102.216I-1.001J0.000
N21940G01X61.138
N21950G2X60.240Y102.775I0.000J1.000
N21960G01Z-1.200F20.0
N21970G01X51.608Y120.296F500.0
N21980G2X52.798Y121.695I0.897J0.442
N21990G01X64.394Y118.148
N22000G2X65.102Y117.191I-0.293J-0.957
N22010G01Y103.217
N22020G2X64.101Y102.216I-1.001J0.000
N22030G01X61.138
N22040G2X60.240Y102.775I0.000J1.000
N22050G01Z-1.300F20.0
N22060G01X51.608Y120.296F500.0
N22070G2X52.798Y121.695I0.897J0.442
N22080G01X64.394Y118.148
N22090G2X65.102Y117.191I-0.293J-0.957
N22100G01Y103.217
N22110G2X64.101Y102.216I-1.001J0.000
N22120G01X61.138
N22130G2X60.240Y102.775I0.000J1.000
N22140G01Z-1.400F20.0
N22150G01X51.608Y120.296F500.0
N22160G2X52.798Y121.695I0.897J0.442
N22170G01X64.394Y118.148
N22180G2X65.102Y117.191I-0.293J-0.957
N22190G01Y103.217
N22200G2X64.101Y102.216I-1.001J0.000
N22210G01X61.138
N22220G2X60.240Y102.775I0.000J1.000
N22230G01Z-1.500F20.0
N22240G01X51.608Y120.296F500.0
N22250G2X52.798Y121.695I0.897J0.442
N22260G01X64.394Y118.148
N22270G2X65.102Y117.191I-0.293J-0.957
N22280G01Y103.217
N22290G2X64.101Y102.216I-1.001J0.000
N22300G01X61.138
N22310G2X60.240Y102.775I0.000J1.000
N22320G01Z-1.600F20.0
N22330G01X51.608Y120.296F500.0
N22340G2X52.798Y121.695I0.897J0.442
N22350G01X64.394Y118.148
N22360G2X65.102Y117.191I-0.293J-0.957
N22370G01Y103.217
N22380G2X64.101Y102.216I-1.001J0.000
N22390G01X61.138
N22400G2X60.240Y102.775I0.000J1.000
N22410G00Z6.000
N22420G00X48.027Y108.217
N22430G01Z-0.100F20.0
N22440G2X47.927Y108.116I-0.100J0.000F500.0
N22450G2X47.826Y108.217I0.000J0.100
N22460G2X47.927Y108.317I0.101J0.000
N22470G2X48.027Y108.217I0.000J-0.101
N22480G01Z-0.200F20.0
N22490G2X47.927Y108.116I-0.100J0.000F500.0
N22500G2X47.826Y108.217I0.000J0.100
N22510G2X47.927Y108.317I0.101J0.000
N22520G2X48.027Y108.217I0.000J-0.101
N22530G01Z-0.300F20.0
N22540G2X47.927Y108.116I-0.100J0.000F500.0
N22550G2X47.826Y108.217I0.000J0.100
N22560G2X47.927Y108.317I0.101J0.000
N22570G2X48.027Y108.217I0.000J-0.101
N22580G01Z-0.400F20.0
N22590G2X47.927Y108.116I-0.100J0.000F500.0
N22600G2X47.826Y108.217I0.000J0.100
N22610G2X47.927Y108.317I0.101J0.000
N22620G2X48.027Y108.217I0.000J-0.101
N22630G01Z-0.500F20.0
N22640G2X47.927Y108.116I-0.100J0.000F500.0
N22650G2X47.826Y108.217I0.000J0.100
N22660G2X47.927Y108.317I0.101J0.000
N22670G2X48.027Y108.217I0.000J-0.101
N22680G01Z-0.600F20.0
N22690G2X47.927Y108.116I-0.100J0.000F500.0
N22700G2X47.826Y108.217I0.000J0.100
N22710G2X47.927Y108.317I0.101J0.000
N22720G2X48.027Y108.217I0.000J-0.101
N22730G01Z-0.700F20.0
N22740G2X47.927Y108.116I-0.100J0.000F500.0
N22750G2X47.826Y108.217I0.000J0.100
N22760G2X47.927Y108.317I0.101J0.000
N22770G2X48.027Y108.217I0.000J-0.101
N22780G01Z-0.800F20.0
N22790G2X47.927Y108.116I-0.100J0.000F500.0
N22800G2X47.826Y108.217I0.000J0.100
N22810G2X47.927Y108.317I0.101J0.000
N22820G2X48.027Y108.217I0.000J-0.101
N22830G01Z-0.900F20.0
N22840G2X47.927Y108.116I-0.100J0.000F500.0
N22850G2X47.826Y108.217I0.000J0.100
N22860G2X47.927Y108.317I0.101J0.000
N22870G2X48.027Y108.217I0.000J-0.101
N22880G01Z-1.000F20.0
N22890G2X47.927Y108.116I-0.100J0.000F500.0
N22900G2X47.826Y108.217I0.000J0.100
N22910G2X47.927Y108.317I0.101J0.000
N22920G2X48.027Y108.217I0.000J-0.101
N22930G01Z-1.100F20.0
N22940G2X47.927Y108.116I-0.100J0.000F500.0
N22950G2X47.826Y108.217I0.000J0.100
N22960G2X47.927Y108.317I0.101J0.000
N22970G2X48.027Y108.217I0.000J-0.101
N22980G01Z-1.200F20.0
N22990G2X47.927Y108.116I-0.100J0.000F500.0
N23000G2X47.826Y108.217I0.000J0.100
N23010G2X47.927Y108.317I0.101J0.000
N23020G2X48.027Y108.217I0.000J-0.101
N23030G01Z-1.300F20.0
N23040G2X47.927Y108.116I-0.100J0.000F500.0
N23050G2X47.826Y108.217I0.000J0.100
N23060G2X47.927Y108.317I0.101J0.000
N23070G2X48.027Y108.217I0.000J-0.101
N23080G01Z-1.400F20.0
N23090G2X47.927Y108.116I-0.100J0.000F500.0
N23100G2X47.826Y108.217I0.000J0.100
N23110G2X47.927Y108.317I0.101J0.000
N23120G2X48.027Y108.217I0.000J-0.101
N23130G01Z-1.500F20.0
N23140G2X47.927Y108.116I-0.100J0.000F500.0
N23150G2X47.826Y108.217I0.000J0.100
N23160G2X47.927Y108.317I0.101J0.000
N23170G2X48.027Y108.217I0.000J-0.101
N23180G01Z-1.600F20.0
N23190G2X47.927Y108.116I-0.100J0.000F500.0
N23200G2X47.826Y108.217I0.000J0.100
N23210G2X47.927Y108.317I0.101J0.000
N23220G2X48.027Y108.217I0.000J-0.101
N23230G00Z6.000
N23240G00X43.785Y106.459
N23250G01Z-0.100F20.0
N23260G2X43.684Y106.359I-0.101J0.000F500.0
N23270G2X43.584Y106.459I0.000J0.101
N23280G2X43.684Y106.560I0.100J0.000
N23290G2X43.785Y106.459I0.000J-0.101
N23300G01Z-0.200F20.0
N23310G2X43.684Y106.359I-0.101J0.000F500.0
N23320G2X43.584Y106.459I0.000J0.101
N23330G2X43.684Y106.560I0.100J0.000
N23340G2X43.785Y106.459I0.000J-0.101
N23350G01Z-0.300F20.0
N23360G2X43.684Y106.359I-0.101J0.000F500.0
N23370G2X43.584Y106.459I0.000J0.101
N23380G2X43.684Y106.560I0.100J0.000
N23390G2X43.785Y106.459I0.000J-0.101
N23400G01Z-0.400F20.0
N23410G2X43.684Y106.359I-0.101J0.000F500.0
N23420G2X43.584Y106.459I0.000J0.101
N23430G2X43.684Y106.560I0.100J0.000
N23440G2X43.785Y106.459I0.000J-0.101
N23450G01Z-0.500F20.0
N23460G2X43.684Y106.359I-0.101J0.000F500.0
N23470G2X43.584Y106.459I0.000J0.101
N23480G2X43.684Y106.560I0.100J0.000
N23490G2X43.785Y106.459I0.000J-0.101
N23500G01Z-0.600F20.0
N23510G2X43.684Y106.359I-0.101J0.000F500.0
N23520G2X43.584Y106.459I0.000J0.101
N23530G2X43.684Y106.560I0.100J0.000
N23540G2X43.785Y106.459I0.000J-0.101
N23550G01Z-0.700F20.0
N23560G2X43.684Y106.359I-0.101J0.000F500.0
N23570G2X43.584Y106.459I0.000J0.101
N23580G2X43.684Y106.560I0.100J0.000
N23590G2X43.785Y106.459I0.000J-0.101
N23600G01Z-0.800F20.0
N23610G2X43.684Y106.359I-0.101J0.000F500.0
N23620G2X43.584Y106.459I0.000J0.101
N23630G2X43.684Y106.560I0.100J0.000
N23640G2X43.785Y106.459I0.000J-0.101
N23650G01Z-0.900F20.0
N23660G2X43.684Y106.359I-0.101J0.000F500.0
N23670G2X43.584Y106.459I0.000J0.101
N23680G2X43.684Y106.560I0.100J0.000
N23690G2X43.785Y106.459I0.000J-0.101
N23700G01Z-1.000F20.0
N23710G2X43.684Y106.359I-0.101J0.000F500.0
N23720G2X43.584Y106.459I0.000J0.101
N23730G2X43.684Y106.560I0.100J0.000
N23740G2X43.785Y106.459I0.000J-0.101
N23750G01Z-1.100F20.0
N23760G2X43.684Y106.359I-0.101J0.000F500.0
N23770G2X43.584Y106.459I0.000J0.101
N23780G2X43.684Y106.560I0.100J0.000
N23790G2X43.785Y106.459I0.000J-0.101
N23800G01Z-1.200F20.0
N23810G2X43.684Y106.359I-0.101J0.000F500.0
N23820G2X43.584Y106.459I0.000J0.101
N23830G2X43.684Y106.560I0.100J0.000
N23840G2X43.785Y106.459I0.000J-0.101
N23850G01Z-1.300F20.0
N23860G2X43.684Y106.359I-0.101J0.000F500.0
N23870G2X43.584Y106.459I0.000J0.101
N23880G2X43.684Y106.560I0.100J0.000
N23890G2X43.785Y106.459I0.000J-0.101
N23900G01Z-1.400F20.0
N23910G2X43.684Y106.359I-0.101J0.000F500.0
N23920G2X43.584Y106.459I0.000J0.101
N23930G2X43.684Y106.560I0.100J0.000
N23940G2X43.785Y106.459I0.000J-0.101
N23950G01Z-1.500F20.0
N23960G2X43.684Y106.359I-0.101J0.000F500.0
N23970G2X43.584Y106.459I0.000J0.101
N23980G2X43.684Y106.560I0.100J0.000
N23990G2X43.785Y106.459I0.000J-0.101
N24000G01Z-1.600F20.0
N24010G2X43.684Y106.359I-0.101J0.000F500.0
N24020G2X43.584Y106.459I0.000J0.101
N24030G2X43.684Y106.560I0.100J0.000
N24040G2X43.785Y106.459I0.000J-0.101
N24050G00Z6.000
N24060G00X42.027Y102.217
N24070G01Z-0.100F20.0
N24080G2X41.927Y102.116I-0.100J0.000F500.0
N24090G2X41.826Y102.217I0.000J0.100
N24100G2X41.927Y102.317I0.101J0.000
N24110G2X42.027Y102.217I0.000J-0.101
N24120G01Z-0.200F20.0
N24130G2X41.927Y102.116I-0.100J0.000F500.0
N24140G2X41.826Y102.217I0.000J0.100
N24150G2X41.927Y102.317I0.101J0.000
N24160G2X42.027Y102.217I0.000J-0.101
N24170G01Z-0.300F20.0
N24180G2X41.927Y102.116I-0.100J0.000F500.0
N24190G2X41.826Y102.217I0.000J0.100
N24200G2X41.927Y102.317I0.101J0.000
N24210G2X42.027Y102.217I0.000J-0.101
N24220G01Z-0.400F20.0
N24230G2X41.927Y102.116I-0.100J0.000F500.0
N24240G2X41.826Y102.217I0.000J0.100
N24250G2X41.927Y102.317I0.101J0.000
N24260G2X42.027Y102.217I0.000J-0.101
N24270G01Z-0.500F20.0
N24280G2X41.927Y102.116I-0.100J0.000F500.0
N24290G2X41.826Y102.217I0.000J0.100
N24300G2X41.927Y102.317I0.101J0.000
N24310G2X42.027Y102.217I0.000J-0.101
N24320G01Z-0.600F20.0
N24330G2X41.927Y102.116I-0.100J0.000F500.0
N24340G2X41.826Y102.217I0.000J0.100
N24350G2X41.927Y102.317I0.101J0.000
N24360G2X42.027Y102.217I0.000J-0.101
N24370G01Z-0.700F20.0
N24380G2X41.927Y102.116I-0.100J0.000F500.0
N24390G2X41.826Y102.217I0.000J0.100
N24400G2X41.927Y102.317I0.101J0.000
N24410G2X42.027Y102.217I0.000J-0.101
N24420G01Z-0.800F20.0
N24430G2X41.927Y102.116I-0.100J0.000F500.0
N24440G2X41.826Y102.217I0.000J0.100
N24450G2X41.927Y102.317I0.101J0.000
N24460G2X42.027Y102.217I0.000J-0.101
N24470G01Z-0.900F20.0
N24480G2X41.927Y102.116I-0.100J0.000F500.0
N24490G2X41.826Y102.217I0.000J0.100
N24500G2X41.927Y102.317I0.101J0.000
N24510G2X42.027Y102.217I0.000J-0.101
N24520G01Z-1.000F20.0
N24530G2X41.927Y102.116I-0.100J0.000F500.0
N24540G2X41.826Y102.217I0.000J0.100
N24550G2X41.927Y102.317I0.101J0.000
N24560G2X42.027Y102.217I0.000J-0.101
N24570G01Z-1.100F20.0
N24580G2X41.927Y102.116I-0.100J0.000F500.0
N24590G2X41.826Y102.217I0.000J0.100
N24600G2X41.927Y102.317I0.101J0.000
N24610G2X42.027Y102.217I0.000J-0.101
N24620G01Z-1.200F20.0
N24630G2X41.927Y102.116I-0.100J0.000F500.0
N24640G2X41.826Y102.217I0.000J0.100
N24650G2X41.927Y102.317I0.101J0.000
N24660G2X42.027Y102.217I0.000J-0.101
N24670G01Z-1.300F20.0
N24680G2X41.927Y102.116I-0.100J0.000F500.0
N24690G2X41.826Y102.217I0.000J0.100
N24700G2X41.927Y102.317I0.101J0.000
N24710G2X42.027Y102.217I0.000J-0.101
N24720G01Z-1.400F20.0
N24730G2X41.927Y102.116I-0.100J0.000F500.0
N24740G2X41.826Y102.217I0.000J0.100
N24750G2X41.927Y102.317I0.101J0.000
N24760G2X42.027Y102.217I0.000J-0.101
N24770G01Z-1.500F20.0
N24780G2X41.927Y102.116I-0.100J0.000F500.0
N24790G2X41.826Y102.217I0.000J0.100
N24800G2X41.927Y102.317I0.101J0.000
N24810G2X42.027Y102.217I0.000J-0.101
N24820G01Z-1.600F20.0
N24830G2X41.927Y102.116I-0.100J0.000F500.0
N24840G2X41.826Y102.217I0.000J0.100
N24850G2X41.927Y102.317I0.101J0.000
N24860G2X42.027Y102.217I0.000J-0.101
N24870G00Z6.000
N24880G00X43.785Y97.974
N24890G01Z-0.100F20.0
N24900G2X43.684Y97.874I-0.101J0.000F500.0
N24910G2X43.584Y97.974I0.000J0.101
N24920G2X43.684Y98.075I0.100J0.000
N24930G2X43.785Y97.974I0.000J-0.101
N24940G01Z-0.200F20.0
N24950G2X43.684Y97.874I-0.101J0.000F500.0
N24960G2X43.584Y97.974I0.000J0.101
N24970G2X43.684Y98.075I0.100J0.000
N24980G2X43.785Y97.974I0.000J-0.101
N24990G01Z-0.300F20.0
N25000G2X43.684Y97.874I-0.101J0.000F500.0
N25010G2X43.584Y97.974I0.000J0.101
N25020G2X43.684Y98.075I0.100J0.000
N25030G2X43.785Y97.974I0.000J-0.101
N25040G01Z-0.400F20.0
N25050G2X43.684Y97.874I-0.101J0.000F500.0
N25060G2X43.584Y97.974I0.000J0.101
N25070G2X43.684Y98.075I0.100J0.000
N25080G2X43.785Y97.974I0.000J-0.101
N25090G01Z-0.500F20.0
N25100G2X43.684Y97.874I-0.101J0.000F500.0
N25110G2X43.584Y97.974I0.000J0.101
N25120G2X43.684Y98.075I0.100J0.000
N25130G2X43.785Y97.974I0.000J-0.101
N25140G01Z-0.600F20.0
N25150G2X43.684Y97.874I-0.101J0.000F500.0
N25160G2X43.584Y97.974I0.000J0.101
N25170G2X43.684Y98.075I0.100J0.000
N25180G2X43.785Y97.974I0.000J-0.101
N25190G01Z-0.700F20.0
N25200G2X43.684Y97.874I-0.101J0.000F500.0
N25210G2X43.584Y97.974I0.000J0.101
N25220G2X43.684Y98.075I0.100J0.000
N25230G2X43.785Y97.974I0.000J-0.101
N25240G01Z-0.800F20.0
N25250G2X43.684Y97.874I-0.101J0.000F500.0
N25260G2X43.584Y97.974I0.000J0.101
N25270G2X43.684Y98.075I0.100J0.000
N25280G2X43.785Y97.974I0.000J-0.101
N25290G01Z-0.900F20.0
N25300G2X43.684Y97.874I-0.101J0.000F500.0
N25310G2X43.584Y97.974I0.000J0.101
N25320G2X43.684Y98.075I0.100J0.000
N25330G2X43.785Y97.974I0.000J-0.101
N25340G01Z-1.000F20.0
N25350G2X43.684Y97.874I-0.101J0.000F500.0
N25360G2X43.584Y97.974I0.000J0.101
N25370G2X43.684Y98.075I0.100J0.000
N25380G2X43.785Y97.974I0.000J-0.101
N25390G01Z-1.100F20.0
N25400G2X43.684Y97.874I-0.101J0.000F500.0
N25410G2X43.584Y97.974I0.000J0.101
N25420G2X43.684Y98.075I0.100J0.000
N25430G2X43.785Y97.974I0.000J-0.101
N25440G01Z-1.200F20.0
N25450G2X43.684Y97.874I-0.101J0.000F500.0
N25460G2X43.584Y97.974I0.000J0.101
N25470G2X43.684Y98.075I0.100J0.000
N25480G2X43.785Y97.974I0.000J-0.101
N25490G01Z-1.300F20.0
N25500G2X43.684Y97.874I-0.101J0.000F500.0
N25510G2X43.584Y97.974I0.000J0.101
N25520G2X43.684Y98.075I0.100J0.000
N25530G2X43.785Y97.974I0.000J-0.101
N25540G01Z-1.400F20.0
N25550G2X43.684Y97.874I-0.101J0.000F500.0
N25560G2X43.584Y97.974I0.000J0.101
N25570G2X43.684Y98.075I0.100J0.000
N25580G2X43.785Y97.974I0.000J-0.101
N25590G01Z-1.500F20.0
N25600G2X43.684Y97.874I-0.101J0.000F500.0
N25610G2X43.584Y97.974I0.000J0.101
N25620G2X43.684Y98.075I0.100J0.000
N25630G2X43.785Y97.974I0.000J-0.101
N25640G01Z-1.600F20.0
N25650G2X43.684Y97.874I-0.101J0.000F500.0
N25660G2X43.584Y97.974I0.000J0.101
N25670G2X43.684Y98.075I0.100J0.000
N25680G2X43.785Y97.974I0.000J-0.101
N25690G00Z6.000
N25700G00X48.027Y96.217
N25710G01Z-0.100F20.0
N25720G2X47.927Y96.116I-0.100J0.000F500.0
N25730G2X47.826Y96.217I0.000J0.100
N25740G2X47.927Y96.317I0.101J0.000
N25750G2X48.027Y96.217I0.000J-0.101
N25760G01Z-0.200F20.0
N25770G2X47.927Y96.116I-0.100J0.000F500.0
N25780G2X47.826Y96.217I0.000J0.100
N25790G2X47.927Y96.317I0.101J0.000
N25800G2X48.027Y96.217I0.000J-0.101
N25810G01Z-0.300F20.0
N25820G2X47.927Y96.116I-0.100J0.000F500.0
N25830G2X47.826Y96.217I0.000J0.100
N25840G2X47.927Y96.317I0.101J0.000
N25850G2X48.027Y96.217I0.000J-0.101
N25860G01Z-0.400F20.0
N25870G2X47.927Y96.116I-0.100J0.000F500.0
N25880G2X47.826Y96.217I0.000J0.100
N25890G2X47.927Y96.317I0.101J0.000
N25900G2X48.027Y96.217I0.000J-0.101
N25910G01Z-0.500F20.0
N25920G2X47.927Y96.116I-0.100J0.000F500.0
N25930G2X47.826Y96.217I0.000J0.100
N25940G2X47.927Y96.317I0.101J0.000
N25950G2X48.027Y96.217I0.000J-0.101
N25960G01Z-0.600F20.0
N25970G2X47.927Y96.116I-0.100J0.000F500.0
N25980G2X47.826Y96.217I0.000J0.100
N25990G2X47.927Y96.317I0.101J0.000
N26000G2X48.027Y96.217I0.000J-0.101
N26010G01Z-0.700F20.0
N26020G2X47.927Y96.116I-0.100J0.000F500.0
N26030G2X47.826Y96.217I0.000J0.100
N26040G2X47.927Y96.317I0.101J0.000
N26050G2X48.027Y96.217I0.000J-0.101
N26060G01Z-0.800F20.0
N26070G2X47.927Y96.116I-0.100J0.000F500.0
N26080G2X47.826Y96.217I0.000J0.100
N26090G2X47.927Y96.317I0.101J0.000
N26100G2X48.027Y96.217I0.000J-0.101
N26110G01Z-0.900F20.0
N26120G2X47.927Y96.116I-0.100J0.000F500.0
N26130G2X47.826Y96.217I0.000J0.100
N26140G2X47.927Y96.317I0.101J0.000
N26150G2X48.027Y96.217I0.000J-0.101
N26160G01Z-1.000F20.0
N26170G2X47.927Y96.116I-0.100J0.000F500.0
N26180G2X47.826Y96.217I0.000J0.100
N26190G2X47.927Y96.317I0.101J0.000
N26200G2X48.027Y96.217I0.000J-0.101
N26210G01Z-1.100F20.0
N26220G2X47.927Y96.116I-0.100J0.000F500.0
N26230G2X47.826Y96.217I0.000J0.100
N26240G2X47.927Y96.317I0.101J0.000
N26250G2X48.027Y96.217I0.000J-0.101
N26260G01Z-1.200F20.0
N26270G2X47.927Y96.116I-0.100J0.000F500.0
N26280G2X47.826Y96.217I0.000J0.100
N26290G2X47.927Y96.317I0.101J0.000
N26300G2X48.027Y96.217I0.000J-0.101
N26310G01Z-1.300F20.0
N26320G2X47.927Y96.116I-0.100J0.000F500.0
N26330G2X47.826Y96.217I0.000J0.100
N26340G2X47.927Y96.317I0.101J0.000
N26350G2X48.027Y96.217I0.000J-0.101
N26360G01Z-1.400F20.0
N26370G2X47.927Y96.116I-0.100J0.000F500.0
N26380G2X47.826Y96.217I0.000J0.100
N26390G2X47.927Y96.317I0.101J0.000
N26400G2X48.027Y96.217I0.000J-0.101
N26410G01Z-1.500F20.0
N26420G2X47.927Y96.116I-0.100J0.000F500.0
N26430G2X47.826Y96.217I0.000J0.100
N26440G2X47.927Y96.317I0.101J0.000
N26450G2X48.027Y96.217I0.000J-0.101
N26460G01Z-1.600F20.0
N26470G2X47.927Y96.116I-0.100J0.000F500.0
N26480G2X47.826Y96.217I0.000J0.100
N26490G2X47.927Y96.317I0.101J0.000
N26500G2X48.027Y96.217I0.000J-0.101
N26510G00Z6.000
N26520G00X44.140Y89.517
N26530G01Z-0.100F20.0
N26540G2X44.039Y89.416I-0.100J0.000F500.0
N26550G2X43.939Y89.517I0.000J0.101
N26560G2X44.039Y89.617I0.101J0.000
N26570G2X44.140Y89.517I0.000J-0.101
N26580G01Z-0.200F20.0
N26590G2X44.039Y89.416I-0.100J0.000F500.0
N26600G2X43.939Y89.517I0.000J0.101
N26610G2X44.039Y89.617I0.101J0.000
N26620G2X44.140Y89.517I0.000J-0.101
N26630G01Z-0.300F20.0
N26640G2X44.039Y89.416I-0.100J0.000F500.0
N26650G2X43.939Y89.517I0.000J0.101
N26660G2X44.039Y89.617I0.101J0.000
N26670G2X44.140Y89.517I0.000J-0.101
N26680G01Z-0.400F20.0
N26690G2X44.039Y89.416I-0.100J0.000F500.0
N26700G2X43.939Y89.517I0.000J0.101
N26710G2X44.039Y89.617I0.101J0.000
N26720G2X44.140Y89.517I0.000J-0.101
N26730G01Z-0.500F20.0
N26740G2X44.039Y89.416I-0.100J0.000F500.0
N26750G2X43.939Y89.517I0.000J0.101
N26760G2X44.039Y89.617I0.101J0.000
N26770G2X44.140Y89.517I0.000J-0.101
N26780G01Z-0.600F20.0
N26790G2X44.039Y89.416I-0.100J0.000F500.0
N26800G2X43.939Y89.517I0.000J0.101
N26810G2X44.039Y89.617I0.101J0.000
N26820G2X44.140Y89.517I0.000J-0.101
N26830G01Z-0.700F20.0
N26840G2X44.039Y89.416I-0.100J0.000F500.0
N26850G2X43.939Y89.517I0.000J0.101
N26860G2X44.039Y89.617I0.101J0.000
N26870G2X44.140Y89.517I0.000J-0.101
N26880G01Z-0.800F20.0
N26890G2X44.039Y89.416I-0.100J0.000F500.0
N26900G2X43.939Y89.517I0.000J0.101
N26910G2X44.039Y89.617I0.101J0.000
N26920G2X44.140Y89.517I0.000J-0.101
N26930G01Z-0.900F20.0
N26940G2X44.039Y89.416I-0.100J0.000F500.0
N26950G2X43.939Y89.517I0.000J0.101
N26960G2X44.039Y89.617I0.101J0.000
N26970G2X44.140Y89.517I0.000J-0.101
N26980G01Z-1.000F20.0
N26990G2X44.039Y89.416I-0.100J0.000F500.0
N27000G2X43.939Y89.517I0.000J0.101
N27010G2X44.039Y89.617I0.101J0.000
N27020G2X44.140Y89.517I0.000J-0.101
N27030G01Z-1.100F20.0
N27040G2X44.039Y89.416I-0.100J0.000F500.0
N27050G2X43.939Y89.517I0.000J0.101
N27060G2X44.039Y89.617I0.101J0.000
N27070G2X44.140Y89.517I0.000J-0.101
N27080G01Z-1.200F20.0
N27090G2X44.039Y89.416I-0.100J0.000F500.0
N27100G2X43.939Y89.517I0.000J0.101
N27110G2X44.039Y89.617I0.101J0.000
N27120G2X44.140Y89.517I0.000J-0.101
N27130G01Z-1.300F20.0
N27140G2X44.039Y89.416I-0.100J0.000F500.0
N27150G2X43.939Y89.517I0.000J0.101
N27160G2X44.039Y89.617I0.101J0.000
N27170G2X44.140Y89.517I0.000J-0.101
N27180G01Z-1.400F20.0
N27190G2X44.039Y89.416I-0.100J0.000F500.0
N27200G2X43.939Y89.517I0.000J0.101
N27210G2X44.039Y89.617I0.101J0.000
N27220G2X44.140Y89.517I0.000J-0.101
N27230G01Z-1.500F20.0
N27240G2X44.039Y89.416I-0.100J0.000F500.0
N27250G2X43.939Y89.517I0.000J0.101
N27260G2X44.039Y89.617I0.101J0.000
N27270G2X44.140Y89.517I0.000J-0.101
N27280G01Z-1.600F20.0
N27290G2X44.039Y89.416I-0.100J0.000F500.0
N27300G2X43.939Y89.517I0.000J0.101
N27310G2X44.039Y89.617I0.101J0.000
N27320G2X44.140Y89.517I0.000J-0.101
N27330G00Z6.000
N27340G00X31.426Y99.217
N27350G01Z-0.100F20.0
N27360G01Y111.968F500.0
N27370G2X32.720Y112.925I1.000J0.000
N27380G01X41.227Y110.322
N27390G2X41.634Y108.650I-0.293J-0.957
N27400G3X39.342Y99.517I6.293J-6.434
N27410G2X38.388Y98.216I-0.954J-0.300
N27420G01X32.427
N27430G2X31.426Y99.217I0.000J1.000
N27440G01Z-0.200F20.0
N27450G01Y111.968F500.0
N27460G2X32.720Y112.925I1.000J0.000
N27470G01X41.227Y110.322
N27480G2X41.634Y108.650I-0.293J-0.957
N27490G3X39.342Y99.517I6.293J-6.434
N27500G2X38.388Y98.216I-0.954J-0.300
N27510G01X32.427
N27520G2X31.426Y99.217I0.000J1.000
N27530G01Z-0.300F20.0
N27540G01Y111.968F500.0
N27550G2X32.720Y112.925I1.000J0.000
N27560G01X41.227Y110.322
N27570G2X41.634Y108.650I-0.293J-0.957
N27580G3X39.342Y99.517I6.293J-6.434
N27590G2X38.388Y98.216I-0.954J-0.300
N27600G01X32.427
N27610G2X31.426Y99.217I0.000J1.000
N27620G01Z-0.400F20.0
N27630G01Y111.968F500.0
N27640G2X32.720Y112.925I1.000J0.000
N27650G01X41.227Y110.322
N27660G2X41.634Y108.650I-0.293J-0.957
N27670G3X39.342Y99.517I6.293J-6.434
N27680G2X38.388Y98.216I-0.954J-0.300
N27690G01X32.427
N27700G2X31.426Y99.217I0.000J1.000
N27710G01Z-0.500F20.0
N27720G01Y111.968F500.0
N27730G2X32.720Y112.925I1.000J0.000
N27740G01X41.227Y110.322
N27750G2X41.634Y108.650I-0.293J-0.957
N27760G3X39.342Y99.517I6.293J-6.434
N27770G2X38.388Y98.216I-0.954J-0.300
N27780G01X32.427
N27790G2X31.426Y99.217I0.000J1.000
N27800G01Z-0.600F20.0
N27810G01Y111.968F500.0
N27820G2X32.720Y112.925I1.000J0.000
N27830G01X41.227Y110.322
N27840G2X41.634Y108.650I-0.293J-0.957
N27850G3X39.342Y99.517I6.293J-6.434
N27860G2X38.388Y98.216I-0.954J-0.300
N27870G01X32.427
N27880G2X31.426Y99.217I0.000J1.000
N27890G01Z-0.700F20.0
N27900G01Y111.968F500.0
N27910G2X32.720Y112.925I1.000J0.000
N27920G01X41.227Y110.322
N27930G2X41.634Y108.650I-0.293J-0.957
N27940G3X39.342Y99.517I6.293J-6.434
N27950G2X38.388Y98.216I-0.954J-0.300
N27960G01X32.427
N27970G2X31.426Y99.217I0.000J1.000
N27980G01Z-0.800F20.0
N27990G01Y111.968F500.0
N28000G2X32.720Y112.925I1.000J0.000
N28010G01X41.227Y110.322
N28020G2X41.634Y108.650I-0.293J-0.957
N28030G3X39.342Y99.517I6.293J-6.434
N28040G2X38.388Y98.216I-0.954J-0.300
N28050G01X32.427
N28060G2X31.426Y99.217I0.000J1.000
N28070G01Z-0.900F20.0
N28080G01Y111.968F500.0
N28090G2X32.720Y112.925I1.000J0.000
N28100G01X41.227Y110.322
N28110G2X41.634Y108.650I-0.293J-0.957
N28120G3X39.342Y99.517I6.293J-6.434
N28130G2X38.388Y98.216I-0.954J-0.300
N28140G01X32.427
N28150G2X31.426Y99.217I0.000J1.000
N28160G01Z-1.000F20.0
N28170G01Y111.968F500.0
N28180G2X32.720Y112.925I1.000J0.000
N28190G01X41.227Y110.322
N28200G2X41.634Y108.650I-0.293J-0.957
N28210G3X39.342Y99.517I6.293J-6.434
N28220G2X38.388Y98.216I-0.954J-0.300
N28230G01X32.427
N28240G2X31.426Y99.217I0.000J1.000
N28250G01Z-1.100F20.0
N28260G01Y111.968F500.0
N28270G2X32.720Y112.925I1.000J0.000
N28280G01X41.227Y110.322
N28290G2X41.634Y108.650I-0.293J-0.957
N28300G3X39.342Y99.517I6.293J-6.434
N28310G2X38.388Y98.216I-0.954J-0.300
N28320G01X32.427
N28330G2X31.426Y99.217I0.000J1.000
N28340G01Z-1.200F20.0
N28350G01Y111.968F500.0
N28360G2X32.720Y112.925I1.000J0.000
N28370G01X41.227Y110.322
N28380G2X41.634Y108.650I-0.293J-0.957
N28390G3X39.342Y99.517I6.293J-6.434
N28400G2X38.388Y98.216I-0.954J-0.300
N28410G01X32.427
N28420G2X31.426Y99.217I0.000J1.000
N28430G01Z-1.300F20.0
N28440G01Y111.968F500.0
N28450G2X32.720Y112.925I1.000J0.000
N28460G01X41.227Y110.322
N28470G2X41.634Y108.650I-0.293J-0.957
N28480G3X39.342Y99.517I6.293J-6.434
N28490G2X38.388Y98.216I-0.954J-0.300
N28500G01X32.427
N28510G2X31.426Y99.217I0.000J1.000
N28520G01Z-1.400F20.0
N28530G01Y111.968F500.0
N28540G2X32.720Y112.925I1.000J0.000
N28550G01X41.227Y110.322
N28560G2X41.634Y108.650I-0.293J-0.957
N28570G3X39.342Y99.517I6.293J-6.434
N28580G2X38.388Y98.216I-0.954J-0.300
N28590G01X32.427
N28600G2X31.426Y99.217I0.000J1.000
N28610G01Z-1.500F20.0
N28620G01Y111.968F500.0
N28630G2X32.720Y112.925I1.000J0.000
N28640G01X41.227Y110.322
N28650G2X41.634Y108.650I-0.293J-0.957
N28660G3X39.342Y99.517I6.293J-6.434
N28670G2X38.388Y98.216I-0.954J-0.300
N28680G01X32.427
N28690G2X31.426Y99.217I0.000J1.000
N28700G01Z-1.600F20.0
N28710G01Y111.968F500.0
N28720G2X32.720Y112.925I1.000J0.000
N28730G01X41.227Y110.322
N28740G2X41.634Y108.650I-0.293J-0.957
N28750G3X39.342Y99.517I6.293J-6.434
N28760G2X38.388Y98.216I-0.954J-0.300
N28770G01X32.427
N28780G2X31.426Y99.217I0.000J1.000
N28790G00Z6.000
N28800G00X19.466Y98.216
N28810G01Z-0.100F20.0
N28820G2X18.512Y99.517I0.000J1.000F500.0
N28830G3X16.220Y108.650I-8.585J2.700
N28840G2X16.627Y110.322I0.700J0.715
N28850G01X25.134Y112.925
N28860G2X26.427Y111.968I0.293J-0.957
N28870G01Y99.217
N28880G2X25.427Y98.216I-1.000J0.000
N28890G01X19.466
N28900G01Z-0.200F20.0
N28910G2X18.512Y99.517I0.000J1.000F500.0
N28920G3X16.220Y108.650I-8.585J2.700
N28930G2X16.627Y110.322I0.700J0.715
N28940G01X25.134Y112.925
N28950G2X26.427Y111.968I0.293J-0.957
N28960G01Y99.217
N28970G2X25.427Y98.216I-1.000J0.000
N28980G01X19.466
N28990G01Z-0.300F20.0
N29000G2X18.512Y99.517I0.000J1.000F500.0
N29010G3X16.220Y108.650I-8.585J2.700
N29020G2X16.627Y110.322I0.700J0.715
N29030G01X25.134Y112.925
N29040G2X26.427Y111.968I0.293J-0.957
N29050G01Y99.217
N29060G2X25.427Y98.216I-1.000J0.000
N29070G01X19.466
N29080G01Z-0.400F20.0
N29090G2X18.512Y99.517I0.000J1.000F500.0
N29100G3X16.220Y108.650I-8.585J2.700
N29110G2X16.627Y110.322I0.700J0.715
N29120G01X25.134Y112.925
N29130G2X26.427Y111.968I0.293J-0.957
N29140G01Y99.217
N29150G2X25.427Y98.216I-1.000J0.000
N29160G01X19.466
N29170G01Z-0.500F20.0
N29180G2X18.512Y99.517I0.000J1.000F500.0
N29190G3X16.220Y108.650I-8.585J2.700
N29200G2X16.627Y110.322I0.700J0.715
N29210G01X25.134Y112.925
N29220G2X26.427Y111.968I0.293J-0.957
N29230G01Y99.217
N29240G2X25.427Y98.216I-1.000J0.000
N29250G01X19.466
N29260G01Z-0.600F20.0
N29270G2X18.512Y99.517I0.000J1.000F500.0
N29280G3X16.220Y108.650I-8.585J2.700
N29290G2X16.627Y110.322I0.700J0.715
N29300G01X25.134Y112.925
N29310G2X26.427Y111.968I0.293J-0.957
N29320G01Y99.217
N29330G2X25.427Y98.216I-1.000J0.000
N29340G01X19.466
N29350G01Z-0.700F20.0
N29360G2X18.512Y99.517I0.000J1.000F500.0
N29370G3X16.220Y108.650I-8.585J2.700
N29380G2X16.627Y110.322I0.700J0.715
N29390G01X25.134Y112.925
N29400G2X26.427Y111.968I0.293J-0.957
N29410G01Y99.217
N29420G2X25.427Y98.216I-1.000J0.000
N29430G01X19.466
N29440G01Z-0.800F20.0
N29450G2X18.512Y99.517I0.000J1.000F500.0
N29460G3X16.220Y108.650I-8.585J2.700
N29470G2X16.627Y110.322I0.700J0.715
N29480G01X25.134Y112.925
N29490G2X26.427Y111.968I0.293J-0.957
N29500G01Y99.217
N29510G2X25.427Y98.216I-1.000J0.000
N29520G01X19.466
N29530G01Z-0.900F20.0
N29540G2X18.512Y99.517I0.000J1.000F500.0
N29550G3X16.220Y108.650I-8.585J2.700
N29560G2X16.627Y110.322I0.700J0.715
N29570G01X25.134Y112.925
N29580G2X26.427Y111.968I0.293J-0.957
N29590G01Y99.217
N29600G2X25.427Y98.216I-1.000J0.000
N29610G01X19.466
N29620G01Z-1.000F20.0
N29630G2X18.512Y99.517I0.000J1.000F500.0
N29640G3X16.220Y108.650I-8.585J2.700
N29650G2X16.627Y110.322I0.700J0.715
N29660G01X25.134Y112.925
N29670G2X26.427Y111.968I0.293J-0.957
N29680G01Y99.217
N29690G2X25.427Y98.216I-1.000J0.000
N29700G01X19.466
N29710G01Z-1.100F20.0
N29720G2X18.512Y99.517I0.000J1.000F500.0
N29730G3X16.220Y108.650I-8.585J2.700
N29740G2X16.627Y110.322I0.700J0.715
N29750G01X25.134Y112.925
N29760G2X26.427Y111.968I0.293J-0.957
N29770G01Y99.217
N29780G2X25.427Y98.216I-1.000J0.000
N29790G01X19.466
N29800G01Z-1.200F20.0
N29810G2X18.512Y99.517I0.000J1.000F500.0
N29820G3X16.220Y108.650I-8.585J2.700
N29830G2X16.627Y110.322I0.700J0.715
N29840G01X25.134Y112.925
N29850G2X26.427Y111.968I0.293J-0.957
N29860G01Y99.217
N29870G2X25.427Y98.216I-1.000J0.000
N29880G01X19.466
N29890G01Z-1.300F20.0
N29900G2X18.512Y99.517I0.000J1.000F500.0
N29910G3X16.220Y108.650I-8.585J2.700
N29920G2X16.627Y110.322I0.700J0.715
N29930G01X25.134Y112.925
N29940G2X26.427Y111.968I0.293J-0.957
N29950G01Y99.217
N29960G2X25.427Y98.216I-1.000J0.000
N29970G01X19.466
N29980G01Z-1.400F20.0
N29990G2X18.512Y99.517I0.000J1.000F500.0
N30000G3X16.220Y108.650I-8.585J2.700
N30010G2X16.627Y110.322I0.700J0.715
N30020G01X25.134Y112.925
N30030G2X26.427Y111.968I0.293J-0.957
N30040G01Y99.217
N30050G2X25.427Y98.216I-1.000J0.000
N30060G01X19.466
N30070G01Z-1.500F20.0
N30080G2X18.512Y99.517I0.000J1.000F500.0
N30090G3X16.220Y108.650I-8.585J2.700
N30100G2X16.627Y110.322I0.700J0.715
N30110G01X25.134Y112.925
N30120G2X26.427Y111.968I0.293J-0.957
N30130G01Y99.217
N30140G2X25.427Y98.216I-1.000J0.000
N30150G01X19.466
N30160G01Z-1.600F20.0
N30170G2X18.512Y99.517I0.000J1.000F500.0
N30180G3X16.220Y108.650I-8.585J2.700
N30190G2X16.627Y110.322I0.700J0.715
N30200G01X25.134Y112.925
N30210G2X26.427Y111.968I0.293J-0.957
N30220G01Y99.217
N30230G2X25.427Y98.216I-1.000J0.000
N30240G01X19.466
N30250G00Z6.000
N30260G00X14.270Y97.974
N30270G01Z-0.100F20.0
N30280G2X14.170Y97.874I-0.101J0.000F500.0
N30290G2X14.069Y97.974I0.000J0.101
N30300G2X14.170Y98.075I0.101J0.000
N30310G2X14.270Y97.974I0.000J-0.101
N30320G01Z-0.200F20.0
N30330G2X14.170Y97.874I-0.101J0.000F500.0
N30340G2X14.069Y97.974I0.000J0.101
N30350G2X14.170Y98.075I0.101J0.000
N30360G2X14.270Y97.974I0.000J-0.101
N30370G01Z-0.300F20.0
N30380G2X14.170Y97.874I-0.101J0.000F500.0
N30390G2X14.069Y97.974I0.000J0.101
N30400G2X14.170Y98.075I0.101J0.000
N30410G2X14.270Y97.974I0.000J-0.101
N30420G01Z-0.400F20.0
N30430G2X14.170Y97.874I-0.101J0.000F500.0
N30440G2X14.069Y97.974I0.000J0.101
N30450G2X14.170Y98.075I0.101J0.000
N30460G2X14.270Y97.974I0.000J-0.101
N30470G01Z-0.500F20.0
N30480G2X14.170Y97.874I-0.101J0.000F500.0
N30490G2X14.069Y97.974I0.000J0.101
N30500G2X14.170Y98.075I0.101J0.000
N30510G2X14.270Y97.974I0.000J-0.101
N30520G01Z-0.600F20.0
N30530G2X14.170Y97.874I-0.101J0.000F500.0
N30540G2X14.069Y97.974I0.000J0.101
N30550G2X14.170Y98.075I0.101J0.000
N30560G2X14.270Y97.974I0.000J-0.101
N30570G01Z-0.700F20.0
N30580G2X14.170Y97.874I-0.101J0.000F500.0
N30590G2X14.069Y97.974I0.000J0.101
N30600G2X14.170Y98.075I0.101J0.000
