( Profile 1 )
( USBCNC Postprocessor )
N20G00G21G17G90G40G49
N30G80
N40G00G43Z20.000H1
N50S16000M03
N60G94
N70X0.000Y0.000F500.0
N80G00X8.080Y12.463Z6.000
N90G01Z-0.100F20.0
N100G01Y33.477F500.0
N110G2X9.788Y34.185I1.000J0.000
N120G01X20.295Y23.678
N130G2Y22.263I-0.707J-0.707
N140G01X9.788Y11.755
N150G2X8.080Y12.463I-0.707J0.707
N160G01Z-0.200F20.0
N170G01Y33.477F500.0
N180G2X9.788Y34.185I1.000J0.000
N190G01X20.295Y23.678
N200G2Y22.263I-0.707J-0.707
N210G01X9.788Y11.755
N220G2X8.080Y12.463I-0.707J0.707
N230G01Z-0.300F20.0
N240G01Y33.477F500.0
N250G2X9.788Y34.185I1.000J0.000
N260G01X20.295Y23.678
N270G2Y22.263I-0.707J-0.707
N280G01X9.788Y11.755
N290G2X8.080Y12.463I-0.707J0.707
N300G01Z-0.400F20.0
N310G01Y33.477F500.0
N320G2X9.788Y34.185I1.000J0.000
N330G01X20.295Y23.678
N340G2Y22.263I-0.707J-0.707
N350G01X9.788Y11.755
N360G2X8.080Y12.463I-0.707J0.707
N370G01Z-0.500F20.0
N380G01Y33.477F500.0
N390G2X9.788Y34.185I1.000J0.000
N400G01X20.295Y23.678
N410G2Y22.263I-0.707J-0.707
N420G01X9.788Y11.755
N430G2X8.080Y12.463I-0.707J0.707
N440G01Z-0.600F20.0
N450G01Y33.477F500.0
N460G2X9.788Y34.185I1.000J0.000
N470G01X20.295Y23.678
N480G2Y22.263I-0.707J-0.707
N490G01X9.788Y11.755
N500G2X8.080Y12.463I-0.707J0.707
N510G01Z-0.700F20.0
N520G01Y33.477F500.0
N530G2X9.788Y34.185I1.000J0.000
N540G01X20.295Y23.678
N550G2Y22.263I-0.707J-0.707
N560G01X9.788Y11.755
N570G2X8.080Y12.463I-0.707J0.707
N580G01Z-0.800F20.0
N590G01Y33.477F500.0
N600G2X9.788Y34.185I1.000J0.000
N610G01X20.295Y23.678
N620G2Y22.263I-0.707J-0.707
N630G01X9.788Y11.755
N640G2X8.080Y12.463I-0.707J0.707
N650G01Z-0.900F20.0
N660G01Y33.477F500.0
N670G2X9.788Y34.185I1.000J0.000
N680G01X20.295Y23.678
N690G2Y22.263I-0.707J-0.707
N700G01X9.788Y11.755
N710G2X8.080Y12.463I-0.707J0.707
N720G01Z-1.000F20.0
N730G01Y33.477F500.0
N740G2X9.788Y34.185I1.000J0.000
N750G01X20.295Y23.678
N760G2Y22.263I-0.707J-0.707
N770G01X9.788Y11.755
N780G2X8.080Y12.463I-0.707J0.707
N790G01Z-1.100F20.0
N800G01Y33.477F500.0
N810G2X9.788Y34.185I1.000J0.000
N820G01X20.295Y23.678
N830G2Y22.263I-0.707J-0.707
N840G01X9.788Y11.755
N850G2X8.080Y12.463I-0.707J0.707
N860G01Z-1.200F20.0
N870G01Y33.477F500.0
N880G2X9.788Y34.185I1.000J0.000
N890G01X20.295Y23.678
N900G2Y22.263I-0.707J-0.707
N910G01X9.788Y11.755
N920G2X8.080Y12.463I-0.707J0.707
N930G01Z-1.300F20.0
N940G01Y33.477F500.0
N950G2X9.788Y34.185I1.000J0.000
N960G01X20.295Y23.678
N970G2Y22.263I-0.707J-0.707
N980G01X9.788Y11.755
N990G2X8.080Y12.463I-0.707J0.707
N1000G01Z-1.400F20.0
N1010G01Y33.477F500.0
N1020G2X9.788Y34.185I1.000J0.000
N1030G01X20.295Y23.678
N1040G2Y22.263I-0.707J-0.707
N1050G01X9.788Y11.755
N1060G2X8.080Y12.463I-0.707J0.707
N1070G01Z-1.500F20.0
N1080G01Y33.477F500.0
N1090G2X9.788Y34.185I1.000J0.000
N1100G01X20.295Y23.678
N1110G2Y22.263I-0.707J-0.707
N1120G01X9.788Y11.755
N1130G2X8.080Y12.463I-0.707J0.707
N1140G01Z-1.600F20.0
N1150G01Y33.477F500.0
N1160G2X9.788Y34.185I1.000J0.000
N1170G01X20.295Y23.678
N1180G2Y22.263I-0.707J-0.707
N1190G01X9.788Y11.755
N1200G2X8.080Y12.463I-0.707J0.707
N1210G01Z-1.700F20.0
N1220G01Y33.477F500.0
N1230G2X9.788Y34.185I1.000J0.000
N1240G01X20.295Y23.678
N1250G2Y22.263I-0.707J-0.707
N1260G01X9.788Y11.755
N1270G2X8.080Y12.463I-0.707J0.707
N1280G01Z-1.800F20.0
N1290G01Y33.477F500.0
N1300G2X9.788Y34.185I1.000J0.000
N1310G01X20.295Y23.678
N1320G2Y22.263I-0.707J-0.707
N1330G01X9.788Y11.755
N1340G2X8.080Y12.463I-0.707J0.707
N1350G01Z-1.900F20.0
N1360G01Y33.477F500.0
N1370G2X9.788Y34.185I1.000J0.000
N1380G01X20.295Y23.678
N1390G2Y22.263I-0.707J-0.707
N1400G01X9.788Y11.755
N1410G2X8.080Y12.463I-0.707J0.707
N1420G01Z-2.000F20.0
N1430G01Y33.477F500.0
N1440G2X9.788Y34.185I1.000J0.000
N1450G01X20.295Y23.678
N1460G2Y22.263I-0.707J-0.707
N1470G01X9.788Y11.755
N1480G2X8.080Y12.463I-0.707J0.707
N1490G01Z-2.100F20.0
N1500G01Y33.477F500.0
N1510G2X9.788Y34.185I1.000J0.000
N1520G01X20.295Y23.678
N1530G2Y22.263I-0.707J-0.707
N1540G01X9.788Y11.755
N1550G2X8.080Y12.463I-0.707J0.707
N1560G01Z-2.200F20.0
N1570G01Y33.477F500.0
N1580G2X9.788Y34.185I1.000J0.000
N1590G01X20.295Y23.678
N1600G2Y22.263I-0.707J-0.707
N1610G01X9.788Y11.755
N1620G2X8.080Y12.463I-0.707J0.707
N1630G01Z-2.300F20.0
N1640G01Y33.477F500.0
N1650G2X9.788Y34.185I1.000J0.000
N1660G01X20.295Y23.678
N1670G2Y22.263I-0.707J-0.707
N1680G01X9.788Y11.755
N1690G2X8.080Y12.463I-0.707J0.707
N1700G01Z-2.400F20.0
N1710G01Y33.477F500.0
N1720G2X9.788Y34.185I1.000J0.000
N1730G01X20.295Y23.678
N1740G2Y22.263I-0.707J-0.707
N1750G01X9.788Y11.755
N1760G2X8.080Y12.463I-0.707J0.707
N1770G01Z-2.500F20.0
N1780G01Y33.477F500.0
N1790G2X9.788Y34.185I1.000J0.000
N1800G01X20.295Y23.678
N1810G2Y22.263I-0.707J-0.707
N1820G01X9.788Y11.755
N1830G2X8.080Y12.463I-0.707J0.707
N1840G01Z-2.600F20.0
N1850G01Y33.477F500.0
N1860G2X9.788Y34.185I1.000J0.000
N1870G01X20.295Y23.678
N1880G2Y22.263I-0.707J-0.707
N1890G01X9.788Y11.755
N1900G2X8.080Y12.463I-0.707J0.707
N1910G01Z-2.700F20.0
N1920G01Y33.477F500.0
N1930G2X9.788Y34.185I1.000J0.000
N1940G01X20.295Y23.678
N1950G2Y22.263I-0.707J-0.707
N1960G01X9.788Y11.755
N1970G2X8.080Y12.463I-0.707J0.707
N1980G01Z-2.800F20.0
N1990G01Y33.477F500.0
N2000G2X9.788Y34.185I1.000J0.000
N2010G01X20.295Y23.678
N2020G2Y22.263I-0.707J-0.707
N2030G01X9.788Y11.755
N2040G2X8.080Y12.463I-0.707J0.707
N2050G01Z-2.900F20.0
N2060G01Y33.477F500.0
N2070G2X9.788Y34.185I1.000J0.000
N2080G01X20.295Y23.678
N2090G2Y22.263I-0.707J-0.707
N2100G01X9.788Y11.755
N2110G2X8.080Y12.463I-0.707J0.707
N2120G01Z-3.000F20.0
N2130G01Y33.477F500.0
N2140G2X9.788Y34.185I1.000J0.000
N2150G01X20.295Y23.678
N2160G2Y22.263I-0.707J-0.707
N2170G01X9.788Y11.755
N2180G2X8.080Y12.463I-0.707J0.707
N2190G01Z-3.100F20.0
N2200G01Y33.477F500.0
N2210G2X9.788Y34.185I1.000J0.000
N2220G01X20.295Y23.678
N2230G2Y22.263I-0.707J-0.707
N2240G01X9.788Y11.755
N2250G2X8.080Y12.463I-0.707J0.707
N2260G00Z6.000
N2270G00X13.323Y7.220
N2280G01Z-0.100F20.0
N2290G2X12.616Y8.928I0.000J1.001F500.0
N2300G01X23.123Y19.435
N2310G2X24.538I0.707J-0.707
N2320G01X35.045Y8.928
N2330G2X34.338Y7.220I-0.707J-0.707
N2340G01X13.323
N2350G01Z-0.200F20.0
N2360G2X12.616Y8.928I0.000J1.001F500.0
N2370G01X23.123Y19.435
N2380G2X24.538I0.707J-0.707
N2390G01X35.045Y8.928
N2400G2X34.338Y7.220I-0.707J-0.707
N2410G01X13.323
N2420G01Z-0.300F20.0
N2430G2X12.616Y8.928I0.000J1.001F500.0
N2440G01X23.123Y19.435
N2450G2X24.538I0.707J-0.707
N2460G01X35.045Y8.928
N2470G2X34.338Y7.220I-0.707J-0.707
N2480G01X13.323
N2490G01Z-0.400F20.0
N2500G2X12.616Y8.928I0.000J1.001F500.0
N2510G01X23.123Y19.435
N2520G2X24.538I0.707J-0.707
N2530G01X35.045Y8.928
N2540G2X34.338Y7.220I-0.707J-0.707
N2550G01X13.323
N2560G01Z-0.500F20.0
N2570G2X12.616Y8.928I0.000J1.001F500.0
N2580G01X23.123Y19.435
N2590G2X24.538I0.707J-0.707
N2600G01X35.045Y8.928
N2610G2X34.338Y7.220I-0.707J-0.707
N2620G01X13.323
N2630G01Z-0.600F20.0
N2640G2X12.616Y8.928I0.000J1.001F500.0
N2650G01X23.123Y19.435
N2660G2X24.538I0.707J-0.707
N2670G01X35.045Y8.928
N2680G2X34.338Y7.220I-0.707J-0.707
N2690G01X13.323
N2700G01Z-0.700F20.0
N2710G2X12.616Y8.928I0.000J1.001F500.0
N2720G01X23.123Y19.435
N2730G2X24.538I0.707J-0.707
N2740G01X35.045Y8.928
N2750G2X34.338Y7.220I-0.707J-0.707
N2760G01X13.323
N2770G01Z-0.800F20.0
N2780G2X12.616Y8.928I0.000J1.001F500.0
N2790G01X23.123Y19.435
N2800G2X24.538I0.707J-0.707
N2810G01X35.045Y8.928
N2820G2X34.338Y7.220I-0.707J-0.707
N2830G01X13.323
N2840G01Z-0.900F20.0
N2850G2X12.616Y8.928I0.000J1.001F500.0
N2860G01X23.123Y19.435
N2870G2X24.538I0.707J-0.707
N2880G01X35.045Y8.928
N2890G2X34.338Y7.220I-0.707J-0.707
N2900G01X13.323
N2910G01Z-1.000F20.0
N2920G2X12.616Y8.928I0.000J1.001F500.0
N2930G01X23.123Y19.435
N2940G2X24.538I0.707J-0.707
N2950G01X35.045Y8.928
N2960G2X34.338Y7.220I-0.707J-0.707
N2970G01X13.323
N2980G01Z-1.100F20.0
N2990G2X12.616Y8.928I0.000J1.001F500.0
N3000G01X23.123Y19.435
N3010G2X24.538I0.707J-0.707
N3020G01X35.045Y8.928
N3030G2X34.338Y7.220I-0.707J-0.707
N3040G01X13.323
N3050G01Z-1.200F20.0
N3060G2X12.616Y8.928I0.000J1.001F500.0
N3070G01X23.123Y19.435
N3080G2X24.538I0.707J-0.707
N3090G01X35.045Y8.928
N3100G2X34.338Y7.220I-0.707J-0.707
N3110G01X13.323
N3120G01Z-1.300F20.0
N3130G2X12.616Y8.928I0.000J1.001F500.0
N3140G01X23.123Y19.435
N3150G2X24.538I0.707J-0.707
N3160G01X35.045Y8.928
N3170G2X34.338Y7.220I-0.707J-0.707
N3180G01X13.323
N3190G01Z-1.400F20.0
N3200G2X12.616Y8.928I0.000J1.001F500.0
N3210G01X23.123Y19.435
N3220G2X24.538I0.707J-0.707
N3230G01X35.045Y8.928
N3240G2X34.338Y7.220I-0.707J-0.707
N3250G01X13.323
N3260G01Z-1.500F20.0
N3270G2X12.616Y8.928I0.000J1.001F500.0
N3280G01X23.123Y19.435
N3290G2X24.538I0.707J-0.707
N3300G01X35.045Y8.928
N3310G2X34.338Y7.220I-0.707J-0.707
N3320G01X13.323
N3330G01Z-1.600F20.0
N3340G2X12.616Y8.928I0.000J1.001F500.0
N3350G01X23.123Y19.435
N3360G2X24.538I0.707J-0.707
N3370G01X35.045Y8.928
N3380G2X34.338Y7.220I-0.707J-0.707
N3390G01X13.323
N3400G01Z-1.700F20.0
N3410G2X12.616Y8.928I0.000J1.001F500.0
N3420G01X23.123Y19.435
N3430G2X24.538I0.707J-0.707
N3440G01X35.045Y8.928
N3450G2X34.338Y7.220I-0.707J-0.707
N3460G01X13.323
N3470G01Z-1.800F20.0
N3480G2X12.616Y8.928I0.000J1.001F500.0
N3490G01X23.123Y19.435
N3500G2X24.538I0.707J-0.707
N3510G01X35.045Y8.928
N3520G2X34.338Y7.220I-0.707J-0.707
N3530G01X13.323
N3540G01Z-1.900F20.0
N3550G2X12.616Y8.928I0.000J1.001F500.0
N3560G01X23.123Y19.435
N3570G2X24.538I0.707J-0.707
N3580G01X35.045Y8.928
N3590G2X34.338Y7.220I-0.707J-0.707
N3600G01X13.323
N3610G01Z-2.000F20.0
N3620G2X12.616Y8.928I0.000J1.001F500.0
N3630G01X23.123Y19.435
N3640G2X24.538I0.707J-0.707
N3650G01X35.045Y8.928
N3660G2X34.338Y7.220I-0.707J-0.707
N3670G01X13.323
N3680G01Z-2.100F20.0
N3690G2X12.616Y8.928I0.000J1.001F500.0
N3700G01X23.123Y19.435
N3710G2X24.538I0.707J-0.707
N3720G01X35.045Y8.928
N3730G2X34.338Y7.220I-0.707J-0.707
N3740G01X13.323
N3750G01Z-2.200F20.0
N3760G2X12.616Y8.928I0.000J1.001F500.0
N3770G01X23.123Y19.435
N3780G2X24.538I0.707J-0.707
N3790G01X35.045Y8.928
N3800G2X34.338Y7.220I-0.707J-0.707
N3810G01X13.323
N3820G01Z-2.300F20.0
N3830G2X12.616Y8.928I0.000J1.001F500.0
N3840G01X23.123Y19.435
N3850G2X24.538I0.707J-0.707
N3860G01X35.045Y8.928
N3870G2X34.338Y7.220I-0.707J-0.707
N3880G01X13.323
N3890G01Z-2.400F20.0
N3900G2X12.616Y8.928I0.000J1.001F500.0
N3910G01X23.123Y19.435
N3920G2X24.538I0.707J-0.707
N3930G01X35.045Y8.928
N3940G2X34.338Y7.220I-0.707J-0.707
N3950G01X13.323
N3960G01Z-2.500F20.0
N3970G2X12.616Y8.928I0.000J1.001F500.0
N3980G01X23.123Y19.435
N3990G2X24.538I0.707J-0.707
N4000G01X35.045Y8.928
N4010G2X34.338Y7.220I-0.707J-0.707
N4020G01X13.323
N4030G01Z-2.600F20.0
N4040G2X12.616Y8.928I0.000J1.001F500.0
N4050G01X23.123Y19.435
N4060G2X24.538I0.707J-0.707
N4070G01X35.045Y8.928
N4080G2X34.338Y7.220I-0.707J-0.707
N4090G01X13.323
N4100G01Z-2.700F20.0
N4110G2X12.616Y8.928I0.000J1.001F500.0
N4120G01X23.123Y19.435
N4130G2X24.538I0.707J-0.707
N4140G01X35.045Y8.928
N4150G2X34.338Y7.220I-0.707J-0.707
N4160G01X13.323
N4170G01Z-2.800F20.0
N4180G2X12.616Y8.928I0.000J1.001F500.0
N4190G01X23.123Y19.435
N4200G2X24.538I0.707J-0.707
N4210G01X35.045Y8.928
N4220G2X34.338Y7.220I-0.707J-0.707
N4230G01X13.323
N4240G01Z-2.900F20.0
N4250G2X12.616Y8.928I0.000J1.001F500.0
N4260G01X23.123Y19.435
N4270G2X24.538I0.707J-0.707
N4280G01X35.045Y8.928
N4290G2X34.338Y7.220I-0.707J-0.707
N4300G01X13.323
N4310G01Z-3.000F20.0
N4320G2X12.616Y8.928I0.000J1.001F500.0
N4330G01X23.123Y19.435
N4340G2X24.538I0.707J-0.707
N4350G01X35.045Y8.928
N4360G2X34.338Y7.220I-0.707J-0.707
N4370G01X13.323
N4380G01Z-3.100F20.0
N4390G2X12.616Y8.928I0.000J1.001F500.0
N4400G01X23.123Y19.435
N4410G2X24.538I0.707J-0.707
N4420G01X35.045Y8.928
N4430G2X34.338Y7.220I-0.707J-0.707
N4440G01X13.323
N4450G00Z6.000
N4460G00X12.616Y37.013
N4470G01Z-0.100F20.0
N4480G2X13.323Y38.721I0.707J0.707F500.0
N4490G01X34.338
N4500G2X35.045Y37.013I0.000J-1.001
N4510G01X24.538Y26.505
N4520G2X23.123I-0.707J0.707
N4530G01X12.616Y37.013
N4540G01Z-0.200F20.0
N4550G2X13.323Y38.721I0.707J0.707F500.0
N4560G01X34.338
N4570G2X35.045Y37.013I0.000J-1.001
N4580G01X24.538Y26.505
N4590G2X23.123I-0.707J0.707
N4600G01X12.616Y37.013
N4610G01Z-0.300F20.0
N4620G2X13.323Y38.721I0.707J0.707F500.0
N4630G01X34.338
N4640G2X35.045Y37.013I0.000J-1.001
N4650G01X24.538Y26.505
N4660G2X23.123I-0.707J0.707
N4670G01X12.616Y37.013
N4680G01Z-0.400F20.0
N4690G2X13.323Y38.721I0.707J0.707F500.0
N4700G01X34.338
N4710G2X35.045Y37.013I0.000J-1.001
N4720G01X24.538Y26.505
N4730G2X23.123I-0.707J0.707
N4740G01X12.616Y37.013
N4750G01Z-0.500F20.0
N4760G2X13.323Y38.721I0.707J0.707F500.0
N4770G01X34.338
N4780G2X35.045Y37.013I0.000J-1.001
N4790G01X24.538Y26.505
N4800G2X23.123I-0.707J0.707
N4810G01X12.616Y37.013
N4820G01Z-0.600F20.0
N4830G2X13.323Y38.721I0.707J0.707F500.0
N4840G01X34.338
N4850G2X35.045Y37.013I0.000J-1.001
N4860G01X24.538Y26.505
N4870G2X23.123I-0.707J0.707
N4880G01X12.616Y37.013
N4890G01Z-0.700F20.0
N4900G2X13.323Y38.721I0.707J0.707F500.0
N4910G01X34.338
N4920G2X35.045Y37.013I0.000J-1.001
N4930G01X24.538Y26.505
N4940G2X23.123I-0.707J0.707
N4950G01X12.616Y37.013
N4960G01Z-0.800F20.0
N4970G2X13.323Y38.721I0.707J0.707F500.0
N4980G01X34.338
N4990G2X35.045Y37.013I0.000J-1.001
N5000G01X24.538Y26.505
N5010G2X23.123I-0.707J0.707
N5020G01X12.616Y37.013
N5030G01Z-0.900F20.0
N5040G2X13.323Y38.721I0.707J0.707F500.0
N5050G01X34.338
N5060G2X35.045Y37.013I0.000J-1.001
N5070G01X24.538Y26.505
N5080G2X23.123I-0.707J0.707
N5090G01X12.616Y37.013
N5100G01Z-1.000F20.0
N5110G2X13.323Y38.721I0.707J0.707F500.0
N5120G01X34.338
N5130G2X35.045Y37.013I0.000J-1.001
N5140G01X24.538Y26.505
N5150G2X23.123I-0.707J0.707
N5160G01X12.616Y37.013
N5170G01Z-1.100F20.0
N5180G2X13.323Y38.721I0.707J0.707F500.0
N5190G01X34.338
N5200G2X35.045Y37.013I0.000J-1.001
N5210G01X24.538Y26.505
N5220G2X23.123I-0.707J0.707
N5230G01X12.616Y37.013
N5240G01Z-1.200F20.0
N5250G2X13.323Y38.721I0.707J0.707F500.0
N5260G01X34.338
N5270G2X35.045Y37.013I0.000J-1.001
N5280G01X24.538Y26.505
N5290G2X23.123I-0.707J0.707
N5300G01X12.616Y37.013
N5310G01Z-1.300F20.0
N5320G2X13.323Y38.721I0.707J0.707F500.0
N5330G01X34.338
N5340G2X35.045Y37.013I0.000J-1.001
N5350G01X24.538Y26.505
N5360G2X23.123I-0.707J0.707
N5370G01X12.616Y37.013
N5380G01Z-1.400F20.0
N5390G2X13.323Y38.721I0.707J0.707F500.0
N5400G01X34.338
N5410G2X35.045Y37.013I0.000J-1.001
N5420G01X24.538Y26.505
N5430G2X23.123I-0.707J0.707
N5440G01X12.616Y37.013
N5450G01Z-1.500F20.0
N5460G2X13.323Y38.721I0.707J0.707F500.0
N5470G01X34.338
N5480G2X35.045Y37.013I0.000J-1.001
N5490G01X24.538Y26.505
N5500G2X23.123I-0.707J0.707
N5510G01X12.616Y37.013
N5520G01Z-1.600F20.0
N5530G2X13.323Y38.721I0.707J0.707F500.0
N5540G01X34.338
N5550G2X35.045Y37.013I0.000J-1.001
N5560G01X24.538Y26.505
N5570G2X23.123I-0.707J0.707
N5580G01X12.616Y37.013
N5590G01Z-1.700F20.0
N5600G2X13.323Y38.721I0.707J0.707F500.0
N5610G01X34.338
N5620G2X35.045Y37.013I0.000J-1.001
N5630G01X24.538Y26.505
N5640G2X23.123I-0.707J0.707
N5650G01X12.616Y37.013
N5660G01Z-1.800F20.0
N5670G2X13.323Y38.721I0.707J0.707F500.0
N5680G01X34.338
N5690G2X35.045Y37.013I0.000J-1.001
N5700G01X24.538Y26.505
N5710G2X23.123I-0.707J0.707
N5720G01X12.616Y37.013
N5730G01Z-1.900F20.0
N5740G2X13.323Y38.721I0.707J0.707F500.0
N5750G01X34.338
N5760G2X35.045Y37.013I0.000J-1.001
N5770G01X24.538Y26.505
N5780G2X23.123I-0.707J0.707
N5790G01X12.616Y37.013
N5800G01Z-2.000F20.0
N5810G2X13.323Y38.721I0.707J0.707F500.0
N5820G01X34.338
N5830G2X35.045Y37.013I0.000J-1.001
N5840G01X24.538Y26.505
N5850G2X23.123I-0.707J0.707
N5860G01X12.616Y37.013
N5870G01Z-2.100F20.0
N5880G2X13.323Y38.721I0.707J0.707F500.0
N5890G01X34.338
N5900G2X35.045Y37.013I0.000J-1.001
N5910G01X24.538Y26.505
N5920G2X23.123I-0.707J0.707
N5930G01X12.616Y37.013
N5940G01Z-2.200F20.0
N5950G2X13.323Y38.721I0.707J0.707F500.0
N5960G01X34.338
N5970G2X35.045Y37.013I0.000J-1.001
N5980G01X24.538Y26.505
N5990G2X23.123I-0.707J0.707
N6000G01X12.616Y37.013
N6010G01Z-2.300F20.0
N6020G2X13.323Y38.721I0.707J0.707F500.0
N6030G01X34.338
N6040G2X35.045Y37.013I0.000J-1.001
N6050G01X24.538Y26.505
N6060G2X23.123I-0.707J0.707
N6070G01X12.616Y37.013
N6080G01Z-2.400F20.0
N6090G2X13.323Y38.721I0.707J0.707F500.0
N6100G01X34.338
N6110G2X35.045Y37.013I0.000J-1.001
N6120G01X24.538Y26.505
N6130G2X23.123I-0.707J0.707
N6140G01X12.616Y37.013
N6150G01Z-2.500F20.0
N6160G2X13.323Y38.721I0.707J0.707F500.0
N6170G01X34.338
N6180G2X35.045Y37.013I0.000J-1.001
N6190G01X24.538Y26.505
N6200G2X23.123I-0.707J0.707
N6210G01X12.616Y37.013
N6220G01Z-2.600F20.0
N6230G2X13.323Y38.721I0.707J0.707F500.0
N6240G01X34.338
N6250G2X35.045Y37.013I0.000J-1.001
N6260G01X24.538Y26.505
N6270G2X23.123I-0.707J0.707
N6280G01X12.616Y37.013
N6290G01Z-2.700F20.0
N6300G2X13.323Y38.721I0.707J0.707F500.0
N6310G01X34.338
N6320G2X35.045Y37.013I0.000J-1.001
N6330G01X24.538Y26.505
N6340G2X23.123I-0.707J0.707
N6350G01X12.616Y37.013
N6360G01Z-2.800F20.0
N6370G2X13.323Y38.721I0.707J0.707F500.0
N6380G01X34.338
N6390G2X35.045Y37.013I0.000J-1.001
N6400G01X24.538Y26.505
N6410G2X23.123I-0.707J0.707
N6420G01X12.616Y37.013
N6430G01Z-2.900F20.0
N6440G2X13.323Y38.721I0.707J0.707F500.0
N6450G01X34.338
N6460G2X35.045Y37.013I0.000J-1.001
N6470G01X24.538Y26.505
N6480G2X23.123I-0.707J0.707
N6490G01X12.616Y37.013
N6500G01Z-3.000F20.0
N6510G2X13.323Y38.721I0.707J0.707F500.0
N6520G01X34.338
N6530G2X35.045Y37.013I0.000J-1.001
N6540G01X24.538Y26.505
N6550G2X23.123I-0.707J0.707
N6560G01X12.616Y37.013
N6570G01Z-3.100F20.0
N6580G2X13.323Y38.721I0.707J0.707F500.0
N6590G01X34.338
N6600G2X35.045Y37.013I0.000J-1.001
N6610G01X24.538Y26.505
N6620G2X23.123I-0.707J0.707
N6630G01X12.616Y37.013
N6640G00Z6.000
N6650G00X37.873Y11.755
N6660G01Z-0.100F20.0
N6670G01X27.366Y22.263F500.0
N6680G2Y23.678I0.707J0.707
N6690G01X37.873Y34.185
N6700G2X39.581Y33.477I0.707J-0.707
N6710G01Y12.463
N6720G2X37.873Y11.755I-1.000J0.000
N6730G01Z-0.200F20.0
N6740G01X27.366Y22.263F500.0
N6750G2Y23.678I0.707J0.707
N6760G01X37.873Y34.185
N6770G2X39.581Y33.477I0.707J-0.707
N6780G01Y12.463
N6790G2X37.873Y11.755I-1.000J0.000
N6800G01Z-0.300F20.0
N6810G01X27.366Y22.263F500.0
N6820G2Y23.678I0.707J0.707
N6830G01X37.873Y34.185
N6840G2X39.581Y33.477I0.707J-0.707
N6850G01Y12.463
N6860G2X37.873Y11.755I-1.000J0.000
N6870G01Z-0.400F20.0
N6880G01X27.366Y22.263F500.0
N6890G2Y23.678I0.707J0.707
N6900G01X37.873Y34.185
N6910G2X39.581Y33.477I0.707J-0.707
N6920G01Y12.463
N6930G2X37.873Y11.755I-1.000J0.000
N6940G01Z-0.500F20.0
N6950G01X27.366Y22.263F500.0
N6960G2Y23.678I0.707J0.707
N6970G01X37.873Y34.185
N6980G2X39.581Y33.477I0.707J-0.707
N6990G01Y12.463
N7000G2X37.873Y11.755I-1.000J0.000
N7010G01Z-0.600F20.0
N7020G01X27.366Y22.263F500.0
N7030G2Y23.678I0.707J0.707
N7040G01X37.873Y34.185
N7050G2X39.581Y33.477I0.707J-0.707
N7060G01Y12.463
N7070G2X37.873Y11.755I-1.000J0.000
N7080G01Z-0.700F20.0
N7090G01X27.366Y22.263F500.0
N7100G2Y23.678I0.707J0.707
N7110G01X37.873Y34.185
N7120G2X39.581Y33.477I0.707J-0.707
N7130G01Y12.463
N7140G2X37.873Y11.755I-1.000J0.000
N7150G01Z-0.800F20.0
N7160G01X27.366Y22.263F500.0
N7170G2Y23.678I0.707J0.707
N7180G01X37.873Y34.185
N7190G2X39.581Y33.477I0.707J-0.707
N7200G01Y12.463
N7210G2X37.873Y11.755I-1.000J0.000
N7220G01Z-0.900F20.0
N7230G01X27.366Y22.263F500.0
N7240G2Y23.678I0.707J0.707
N7250G01X37.873Y34.185
N7260G2X39.581Y33.477I0.707J-0.707
N7270G01Y12.463
N7280G2X37.873Y11.755I-1.000J0.000
N7290G01Z-1.000F20.0
N7300G01X27.366Y22.263F500.0
N7310G2Y23.678I0.707J0.707
N7320G01X37.873Y34.185
N7330G2X39.581Y33.477I0.707J-0.707
N7340G01Y12.463
N7350G2X37.873Y11.755I-1.000J0.000
N7360G01Z-1.100F20.0
N7370G01X27.366Y22.263F500.0
N7380G2Y23.678I0.707J0.707
N7390G01X37.873Y34.185
N7400G2X39.581Y33.477I0.707J-0.707
N7410G01Y12.463
N7420G2X37.873Y11.755I-1.000J0.000
N7430G01Z-1.200F20.0
N7440G01X27.366Y22.263F500.0
N7450G2Y23.678I0.707J0.707
N7460G01X37.873Y34.185
N7470G2X39.581Y33.477I0.707J-0.707
N7480G01Y12.463
N7490G2X37.873Y11.755I-1.000J0.000
N7500G01Z-1.300F20.0
N7510G01X27.366Y22.263F500.0
N7520G2Y23.678I0.707J0.707
N7530G01X37.873Y34.185
N7540G2X39.581Y33.477I0.707J-0.707
N7550G01Y12.463
N7560G2X37.873Y11.755I-1.000J0.000
N7570G01Z-1.400F20.0
N7580G01X27.366Y22.263F500.0
N7590G2Y23.678I0.707J0.707
N7600G01X37.873Y34.185
N7610G2X39.581Y33.477I0.707J-0.707
N7620G01Y12.463
N7630G2X37.873Y11.755I-1.000J0.000
N7640G01Z-1.500F20.0
N7650G01X27.366Y22.263F500.0
N7660G2Y23.678I0.707J0.707
N7670G01X37.873Y34.185
N7680G2X39.581Y33.477I0.707J-0.707
N7690G01Y12.463
N7700G2X37.873Y11.755I-1.000J0.000
N7710G01Z-1.600F20.0
N7720G01X27.366Y22.263F500.0
N7730G2Y23.678I0.707J0.707
N7740G01X37.873Y34.185
N7750G2X39.581Y33.477I0.707J-0.707
N7760G01Y12.463
N7770G2X37.873Y11.755I-1.000J0.000
N7780G01Z-1.700F20.0
N7790G01X27.366Y22.263F500.0
N7800G2Y23.678I0.707J0.707
N7810G01X37.873Y34.185
N7820G2X39.581Y33.477I0.707J-0.707
N7830G01Y12.463
N7840G2X37.873Y11.755I-1.000J0.000
N7850G01Z-1.800F20.0
N7860G01X27.366Y22.263F500.0
N7870G2Y23.678I0.707J0.707
N7880G01X37.873Y34.185
N7890G2X39.581Y33.477I0.707J-0.707
N7900G01Y12.463
N7910G2X37.873Y11.755I-1.000J0.000
N7920G01Z-1.900F20.0
N7930G01X27.366Y22.263F500.0
N7940G2Y23.678I0.707J0.707
N7950G01X37.873Y34.185
N7960G2X39.581Y33.477I0.707J-0.707
N7970G01Y12.463
N7980G2X37.873Y11.755I-1.000J0.000
N7990G01Z-2.000F20.0
N8000G01X27.366Y22.263F500.0
N8010G2Y23.678I0.707J0.707
N8020G01X37.873Y34.185
N8030G2X39.581Y33.477I0.707J-0.707
N8040G01Y12.463
N8050G2X37.873Y11.755I-1.000J0.000
N8060G01Z-2.100F20.0
N8070G01X27.366Y22.263F500.0
N8080G2Y23.678I0.707J0.707
N8090G01X37.873Y34.185
N8100G2X39.581Y33.477I0.707J-0.707
N8110G01Y12.463
N8120G2X37.873Y11.755I-1.000J0.000
N8130G01Z-2.200F20.0
N8140G01X27.366Y22.263F500.0
N8150G2Y23.678I0.707J0.707
N8160G01X37.873Y34.185
N8170G2X39.581Y33.477I0.707J-0.707
N8180G01Y12.463
N8190G2X37.873Y11.755I-1.000J0.000
N8200G01Z-2.300F20.0
N8210G01X27.366Y22.263F500.0
N8220G2Y23.678I0.707J0.707
N8230G01X37.873Y34.185
N8240G2X39.581Y33.477I0.707J-0.707
N8250G01Y12.463
N8260G2X37.873Y11.755I-1.000J0.000
N8270G01Z-2.400F20.0
N8280G01X27.366Y22.263F500.0
N8290G2Y23.678I0.707J0.707
N8300G01X37.873Y34.185
N8310G2X39.581Y33.477I0.707J-0.707
N8320G01Y12.463
N8330G2X37.873Y11.755I-1.000J0.000
N8340G01Z-2.500F20.0
N8350G01X27.366Y22.263F500.0
N8360G2Y23.678I0.707J0.707
N8370G01X37.873Y34.185
N8380G2X39.581Y33.477I0.707J-0.707
N8390G01Y12.463
N8400G2X37.873Y11.755I-1.000J0.000
N8410G01Z-2.600F20.0
N8420G01X27.366Y22.263F500.0
N8430G2Y23.678I0.707J0.707
N8440G01X37.873Y34.185
N8450G2X39.581Y33.477I0.707J-0.707
N8460G01Y12.463
N8470G2X37.873Y11.755I-1.000J0.000
N8480G01Z-2.700F20.0
N8490G01X27.366Y22.263F500.0
N8500G2Y23.678I0.707J0.707
N8510G01X37.873Y34.185
N8520G2X39.581Y33.477I0.707J-0.707
N8530G01Y12.463
N8540G2X37.873Y11.755I-1.000J0.000
N8550G01Z-2.800F20.0
N8560G01X27.366Y22.263F500.0
N8570G2Y23.678I0.707J0.707
N8580G01X37.873Y34.185
N8590G2X39.581Y33.477I0.707J-0.707
N8600G01Y12.463
N8610G2X37.873Y11.755I-1.000J0.000
N8620G01Z-2.900F20.0
N8630G01X27.366Y22.263F500.0
N8640G2Y23.678I0.707J0.707
N8650G01X37.873Y34.185
N8660G2X39.581Y33.477I0.707J-0.707
N8670G01Y12.463
N8680G2X37.873Y11.755I-1.000J0.000
N8690G01Z-3.000F20.0
N8700G01X27.366Y22.263F500.0
N8710G2Y23.678I0.707J0.707
N8720G01X37.873Y34.185
N8730G2X39.581Y33.477I0.707J-0.707
N8740G01Y12.463
N8750G2X37.873Y11.755I-1.000J0.000
N8760G01Z-3.100F20.0
N8770G01X27.366Y22.263F500.0
N8780G2Y23.678I0.707J0.707
N8790G01X37.873Y34.185
N8800G2X39.581Y33.477I0.707J-0.707
N8810G01Y12.463
N8820G2X37.873Y11.755I-1.000J0.000
N8830G00Z6.000
N8840G00X52.780Y12.463
N8850G01Z-0.100F20.0
N8860G01Y33.477F500.0
N8870G2X54.488Y34.185I1.001J0.000
N8880G01X64.995Y23.678
N8890G2Y22.263I-0.707J-0.707
N8900G01X54.488Y11.755
N8910G2X52.780Y12.463I-0.707J0.707
N8920G01Z-0.200F20.0
N8930G01Y33.477F500.0
N8940G2X54.488Y34.185I1.001J0.000
N8950G01X64.995Y23.678
N8960G2Y22.263I-0.707J-0.707
N8970G01X54.488Y11.755
N8980G2X52.780Y12.463I-0.707J0.707
N8990G01Z-0.300F20.0
N9000G01Y33.477F500.0
N9010G2X54.488Y34.185I1.001J0.000
N9020G01X64.995Y23.678
N9030G2Y22.263I-0.707J-0.707
N9040G01X54.488Y11.755
N9050G2X52.780Y12.463I-0.707J0.707
N9060G01Z-0.400F20.0
N9070G01Y33.477F500.0
N9080G2X54.488Y34.185I1.001J0.000
N9090G01X64.995Y23.678
N9100G2Y22.263I-0.707J-0.707
N9110G01X54.488Y11.755
N9120G2X52.780Y12.463I-0.707J0.707
N9130G01Z-0.500F20.0
N9140G01Y33.477F500.0
N9150G2X54.488Y34.185I1.001J0.000
N9160G01X64.995Y23.678
N9170G2Y22.263I-0.707J-0.707
N9180G01X54.488Y11.755
N9190G2X52.780Y12.463I-0.707J0.707
N9200G01Z-0.600F20.0
N9210G01Y33.477F500.0
N9220G2X54.488Y34.185I1.001J0.000
N9230G01X64.995Y23.678
N9240G2Y22.263I-0.707J-0.707
N9250G01X54.488Y11.755
N9260G2X52.780Y12.463I-0.707J0.707
N9270G01Z-0.700F20.0
N9280G01Y33.477F500.0
N9290G2X54.488Y34.185I1.001J0.000
N9300G01X64.995Y23.678
N9310G2Y22.263I-0.707J-0.707
N9320G01X54.488Y11.755
N9330G2X52.780Y12.463I-0.707J0.707
N9340G01Z-0.800F20.0
N9350G01Y33.477F500.0
N9360G2X54.488Y34.185I1.001J0.000
N9370G01X64.995Y23.678
N9380G2Y22.263I-0.707J-0.707
N9390G01X54.488Y11.755
N9400G2X52.780Y12.463I-0.707J0.707
N9410G01Z-0.900F20.0
N9420G01Y33.477F500.0
N9430G2X54.488Y34.185I1.001J0.000
N9440G01X64.995Y23.678
N9450G2Y22.263I-0.707J-0.707
N9460G01X54.488Y11.755
N9470G2X52.780Y12.463I-0.707J0.707
N9480G01Z-1.000F20.0
N9490G01Y33.477F500.0
N9500G2X54.488Y34.185I1.001J0.000
N9510G01X64.995Y23.678
N9520G2Y22.263I-0.707J-0.707
N9530G01X54.488Y11.755
N9540G2X52.780Y12.463I-0.707J0.707
N9550G01Z-1.100F20.0
N9560G01Y33.477F500.0
N9570G2X54.488Y34.185I1.001J0.000
N9580G01X64.995Y23.678
N9590G2Y22.263I-0.707J-0.707
N9600G01X54.488Y11.755
N9610G2X52.780Y12.463I-0.707J0.707
N9620G01Z-1.200F20.0
N9630G01Y33.477F500.0
N9640G2X54.488Y34.185I1.001J0.000
N9650G01X64.995Y23.678
N9660G2Y22.263I-0.707J-0.707
N9670G01X54.488Y11.755
N9680G2X52.780Y12.463I-0.707J0.707
N9690G01Z-1.300F20.0
N9700G01Y33.477F500.0
N9710G2X54.488Y34.185I1.001J0.000
N9720G01X64.995Y23.678
N9730G2Y22.263I-0.707J-0.707
N9740G01X54.488Y11.755
N9750G2X52.780Y12.463I-0.707J0.707
N9760G01Z-1.400F20.0
N9770G01Y33.477F500.0
N9780G2X54.488Y34.185I1.001J0.000
N9790G01X64.995Y23.678
N9800G2Y22.263I-0.707J-0.707
N9810G01X54.488Y11.755
N9820G2X52.780Y12.463I-0.707J0.707
N9830G01Z-1.500F20.0
N9840G01Y33.477F500.0
N9850G2X54.488Y34.185I1.001J0.000
N9860G01X64.995Y23.678
N9870G2Y22.263I-0.707J-0.707
N9880G01X54.488Y11.755
N9890G2X52.780Y12.463I-0.707J0.707
N9900G01Z-1.600F20.0
N9910G01Y33.477F500.0
N9920G2X54.488Y34.185I1.001J0.000
N9930G01X64.995Y23.678
N9940G2Y22.263I-0.707J-0.707
N9950G01X54.488Y11.755
N9960G2X52.780Y12.463I-0.707J0.707
N9970G01Z-1.700F20.0
N9980G01Y33.477F500.0
N9990G2X54.488Y34.185I1.001J0.000
N10000G01X64.995Y23.678
N10010G2Y22.263I-0.707J-0.707
N10020G01X54.488Y11.755
N10030G2X52.780Y12.463I-0.707J0.707
N10040G01Z-1.800F20.0
N10050G01Y33.477F500.0
N10060G2X54.488Y34.185I1.001J0.000
N10070G01X64.995Y23.678
N10080G2Y22.263I-0.707J-0.707
N10090G01X54.488Y11.755
N10100G2X52.780Y12.463I-0.707J0.707
N10110G01Z-1.900F20.0
N10120G01Y33.477F500.0
N10130G2X54.488Y34.185I1.001J0.000
N10140G01X64.995Y23.678
N10150G2Y22.263I-0.707J-0.707
N10160G01X54.488Y11.755
N10170G2X52.780Y12.463I-0.707J0.707
N10180G01Z-2.000F20.0
N10190G01Y33.477F500.0
N10200G2X54.488Y34.185I1.001J0.000
N10210G01X64.995Y23.678
N10220G2Y22.263I-0.707J-0.707
N10230G01X54.488Y11.755
N10240G2X52.780Y12.463I-0.707J0.707
N10250G01Z-2.100F20.0
N10260G01Y33.477F500.0
N10270G2X54.488Y34.185I1.001J0.000
N10280G01X64.995Y23.678
N10290G2Y22.263I-0.707J-0.707
N10300G01X54.488Y11.755
N10310G2X52.780Y12.463I-0.707J0.707
N10320G01Z-2.200F20.0
N10330G01Y33.477F500.0
N10340G2X54.488Y34.185I1.001J0.000
N10350G01X64.995Y23.678
N10360G2Y22.263I-0.707J-0.707
N10370G01X54.488Y11.755
N10380G2X52.780Y12.463I-0.707J0.707
N10390G01Z-2.300F20.0
N10400G01Y33.477F500.0
N10410G2X54.488Y34.185I1.001J0.000
N10420G01X64.995Y23.678
N10430G2Y22.263I-0.707J-0.707
N10440G01X54.488Y11.755
N10450G2X52.780Y12.463I-0.707J0.707
N10460G01Z-2.400F20.0
N10470G01Y33.477F500.0
N10480G2X54.488Y34.185I1.001J0.000
N10490G01X64.995Y23.678
N10500G2Y22.263I-0.707J-0.707
N10510G01X54.488Y11.755
N10520G2X52.780Y12.463I-0.707J0.707
N10530G01Z-2.500F20.0
N10540G01Y33.477F500.0
N10550G2X54.488Y34.185I1.001J0.000
N10560G01X64.995Y23.678
N10570G2Y22.263I-0.707J-0.707
N10580G01X54.488Y11.755
N10590G2X52.780Y12.463I-0.707J0.707
N10600G01Z-2.600F20.0
N10610G01Y33.477F500.0
N10620G2X54.488Y34.185I1.001J0.000
N10630G01X64.995Y23.678
N10640G2Y22.263I-0.707J-0.707
N10650G01X54.488Y11.755
N10660G2X52.780Y12.463I-0.707J0.707
N10670G01Z-2.700F20.0
N10680G01Y33.477F500.0
N10690G2X54.488Y34.185I1.001J0.000
N10700G01X64.995Y23.678
N10710G2Y22.263I-0.707J-0.707
N10720G01X54.488Y11.755
N10730G2X52.780Y12.463I-0.707J0.707
N10740G01Z-2.800F20.0
N10750G01Y33.477F500.0
N10760G2X54.488Y34.185I1.001J0.000
N10770G01X64.995Y23.678
N10780G2Y22.263I-0.707J-0.707
N10790G01X54.488Y11.755
N10800G2X52.780Y12.463I-0.707J0.707
N10810G01Z-2.900F20.0
N10820G01Y33.477F500.0
N10830G2X54.488Y34.185I1.001J0.000
N10840G01X64.995Y23.678
N10850G2Y22.263I-0.707J-0.707
N10860G01X54.488Y11.755
N10870G2X52.780Y12.463I-0.707J0.707
N10880G01Z-3.000F20.0
N10890G01Y33.477F500.0
N10900G2X54.488Y34.185I1.001J0.000
N10910G01X64.995Y23.678
N10920G2Y22.263I-0.707J-0.707
N10930G01X54.488Y11.755
N10940G2X52.780Y12.463I-0.707J0.707
N10950G01Z-3.100F20.0
N10960G01Y33.477F500.0
N10970G2X54.488Y34.185I1.001J0.000
N10980G01X64.995Y23.678
N10990G2Y22.263I-0.707J-0.707
N11000G01X54.488Y11.755
N11010G2X52.780Y12.463I-0.707J0.707
N11020G00Z6.000
N11030G00X58.023Y7.220
N11040G01Z-0.100F20.0
N11050G2X57.316Y8.928I0.000J1.001F500.0
N11060G01X67.823Y19.435
N11070G2X69.238I0.707J-0.707
N11080G01X79.745Y8.928
N11090G2X79.038Y7.220I-0.707J-0.707
N11100G01X58.023
N11110G01Z-0.200F20.0
N11120G2X57.316Y8.928I0.000J1.001F500.0
N11130G01X67.823Y19.435
N11140G2X69.238I0.707J-0.707
N11150G01X79.745Y8.928
N11160G2X79.038Y7.220I-0.707J-0.707
N11170G01X58.023
N11180G01Z-0.300F20.0
N11190G2X57.316Y8.928I0.000J1.001F500.0
N11200G01X67.823Y19.435
N11210G2X69.238I0.707J-0.707
N11220G01X79.745Y8.928
N11230G2X79.038Y7.220I-0.707J-0.707
N11240G01X58.023
N11250G01Z-0.400F20.0
N11260G2X57.316Y8.928I0.000J1.001F500.0
N11270G01X67.823Y19.435
N11280G2X69.238I0.707J-0.707
N11290G01X79.745Y8.928
N11300G2X79.038Y7.220I-0.707J-0.707
N11310G01X58.023
N11320G01Z-0.500F20.0
N11330G2X57.316Y8.928I0.000J1.001F500.0
N11340G01X67.823Y19.435
N11350G2X69.238I0.707J-0.707
N11360G01X79.745Y8.928
N11370G2X79.038Y7.220I-0.707J-0.707
N11380G01X58.023
N11390G01Z-0.600F20.0
N11400G2X57.316Y8.928I0.000J1.001F500.0
N11410G01X67.823Y19.435
N11420G2X69.238I0.707J-0.707
N11430G01X79.745Y8.928
N11440G2X79.038Y7.220I-0.707J-0.707
N11450G01X58.023
N11460G01Z-0.700F20.0
N11470G2X57.316Y8.928I0.000J1.001F500.0
N11480G01X67.823Y19.435
N11490G2X69.238I0.707J-0.707
N11500G01X79.745Y8.928
N11510G2X79.038Y7.220I-0.707J-0.707
N11520G01X58.023
N11530G01Z-0.800F20.0
N11540G2X57.316Y8.928I0.000J1.001F500.0
N11550G01X67.823Y19.435
N11560G2X69.238I0.707J-0.707
N11570G01X79.745Y8.928
N11580G2X79.038Y7.220I-0.707J-0.707
N11590G01X58.023
N11600G01Z-0.900F20.0
N11610G2X57.316Y8.928I0.000J1.001F500.0
N11620G01X67.823Y19.435
N11630G2X69.238I0.707J-0.707
N11640G01X79.745Y8.928
N11650G2X79.038Y7.220I-0.707J-0.707
N11660G01X58.023
N11670G01Z-1.000F20.0
N11680G2X57.316Y8.928I0.000J1.001F500.0
N11690G01X67.823Y19.435
N11700G2X69.238I0.707J-0.707
N11710G01X79.745Y8.928
N11720G2X79.038Y7.220I-0.707J-0.707
N11730G01X58.023
N11740G01Z-1.100F20.0
N11750G2X57.316Y8.928I0.000J1.001F500.0
N11760G01X67.823Y19.435
N11770G2X69.238I0.707J-0.707
N11780G01X79.745Y8.928
N11790G2X79.038Y7.220I-0.707J-0.707
N11800G01X58.023
N11810G01Z-1.200F20.0
N11820G2X57.316Y8.928I0.000J1.001F500.0
N11830G01X67.823Y19.435
N11840G2X69.238I0.707J-0.707
N11850G01X79.745Y8.928
N11860G2X79.038Y7.220I-0.707J-0.707
N11870G01X58.023
N11880G01Z-1.300F20.0
N11890G2X57.316Y8.928I0.000J1.001F500.0
N11900G01X67.823Y19.435
N11910G2X69.238I0.707J-0.707
N11920G01X79.745Y8.928
N11930G2X79.038Y7.220I-0.707J-0.707
N11940G01X58.023
N11950G01Z-1.400F20.0
N11960G2X57.316Y8.928I0.000J1.001F500.0
N11970G01X67.823Y19.435
N11980G2X69.238I0.707J-0.707
N11990G01X79.745Y8.928
N12000G2X79.038Y7.220I-0.707J-0.707
N12010G01X58.023
N12020G01Z-1.500F20.0
N12030G2X57.316Y8.928I0.000J1.001F500.0
N12040G01X67.823Y19.435
N12050G2X69.238I0.707J-0.707
N12060G01X79.745Y8.928
N12070G2X79.038Y7.220I-0.707J-0.707
N12080G01X58.023
N12090G01Z-1.600F20.0
N12100G2X57.316Y8.928I0.000J1.001F500.0
N12110G01X67.823Y19.435
N12120G2X69.238I0.707J-0.707
N12130G01X79.745Y8.928
N12140G2X79.038Y7.220I-0.707J-0.707
N12150G01X58.023
N12160G01Z-1.700F20.0
N12170G2X57.316Y8.928I0.000J1.001F500.0
N12180G01X67.823Y19.435
N12190G2X69.238I0.707J-0.707
N12200G01X79.745Y8.928
N12210G2X79.038Y7.220I-0.707J-0.707
N12220G01X58.023
N12230G01Z-1.800F20.0
N12240G2X57.316Y8.928I0.000J1.001F500.0
N12250G01X67.823Y19.435
N12260G2X69.238I0.707J-0.707
N12270G01X79.745Y8.928
N12280G2X79.038Y7.220I-0.707J-0.707
N12290G01X58.023
N12300G01Z-1.900F20.0
N12310G2X57.316Y8.928I0.000J1.001F500.0
N12320G01X67.823Y19.435
N12330G2X69.238I0.707J-0.707
N12340G01X79.745Y8.928
N12350G2X79.038Y7.220I-0.707J-0.707
N12360G01X58.023
N12370G01Z-2.000F20.0
N12380G2X57.316Y8.928I0.000J1.001F500.0
N12390G01X67.823Y19.435
N12400G2X69.238I0.707J-0.707
N12410G01X79.745Y8.928
N12420G2X79.038Y7.220I-0.707J-0.707
N12430G01X58.023
N12440G01Z-2.100F20.0
N12450G2X57.316Y8.928I0.000J1.001F500.0
N12460G01X67.823Y19.435
N12470G2X69.238I0.707J-0.707
N12480G01X79.745Y8.928
N12490G2X79.038Y7.220I-0.707J-0.707
N12500G01X58.023
N12510G01Z-2.200F20.0
N12520G2X57.316Y8.928I0.000J1.001F500.0
N12530G01X67.823Y19.435
N12540G2X69.238I0.707J-0.707
N12550G01X79.745Y8.928
N12560G2X79.038Y7.220I-0.707J-0.707
N12570G01X58.023
N12580G01Z-2.300F20.0
N12590G2X57.316Y8.928I0.000J1.001F500.0
N12600G01X67.823Y19.435
N12610G2X69.238I0.707J-0.707
N12620G01X79.745Y8.928
N12630G2X79.038Y7.220I-0.707J-0.707
N12640G01X58.023
N12650G01Z-2.400F20.0
N12660G2X57.316Y8.928I0.000J1.001F500.0
N12670G01X67.823Y19.435
N12680G2X69.238I0.707J-0.707
N12690G01X79.745Y8.928
N12700G2X79.038Y7.220I-0.707J-0.707
N12710G01X58.023
N12720G01Z-2.500F20.0
N12730G2X57.316Y8.928I0.000J1.001F500.0
N12740G01X67.823Y19.435
N12750G2X69.238I0.707J-0.707
N12760G01X79.745Y8.928
N12770G2X79.038Y7.220I-0.707J-0.707
N12780G01X58.023
N12790G01Z-2.600F20.0
N12800G2X57.316Y8.928I0.000J1.001F500.0
N12810G01X67.823Y19.435
N12820G2X69.238I0.707J-0.707
N12830G01X79.745Y8.928
N12840G2X79.038Y7.220I-0.707J-0.707
N12850G01X58.023
N12860G01Z-2.700F20.0
N12870G2X57.316Y8.928I0.000J1.001F500.0
N12880G01X67.823Y19.435
N12890G2X69.238I0.707J-0.707
N12900G01X79.745Y8.928
N12910G2X79.038Y7.220I-0.707J-0.707
N12920G01X58.023
N12930G01Z-2.800F20.0
N12940G2X57.316Y8.928I0.000J1.001F500.0
N12950G01X67.823Y19.435
N12960G2X69.238I0.707J-0.707
N12970G01X79.745Y8.928
N12980G2X79.038Y7.220I-0.707J-0.707
N12990G01X58.023
N13000G01Z-2.900F20.0
N13010G2X57.316Y8.928I0.000J1.001F500.0
N13020G01X67.823Y19.435
N13030G2X69.238I0.707J-0.707
N13040G01X79.745Y8.928
N13050G2X79.038Y7.220I-0.707J-0.707
N13060G01X58.023
N13070G01Z-3.000F20.0
N13080G2X57.316Y8.928I0.000J1.001F500.0
N13090G01X67.823Y19.435
N13100G2X69.238I0.707J-0.707
N13110G01X79.745Y8.928
N13120G2X79.038Y7.220I-0.707J-0.707
N13130G01X58.023
N13140G01Z-3.100F20.0
N13150G2X57.316Y8.928I0.000J1.001F500.0
N13160G01X67.823Y19.435
N13170G2X69.238I0.707J-0.707
N13180G01X79.745Y8.928
N13190G2X79.038Y7.220I-0.707J-0.707
N13200G01X58.023
N13210G00Z6.000
N13220G00X67.823Y26.505
N13230G01Z-0.100F20.0
N13240G01X57.316Y37.013F500.0
N13250G2X58.023Y38.721I0.707J0.707
N13260G01X79.038
N13270G2X79.745Y37.013I0.000J-1.001
N13280G01X69.238Y26.505
N13290G2X67.823I-0.707J0.707
N13300G01Z-0.200F20.0
N13310G01X57.316Y37.013F500.0
N13320G2X58.023Y38.721I0.707J0.707
N13330G01X79.038
N13340G2X79.745Y37.013I0.000J-1.001
N13350G01X69.238Y26.505
N13360G2X67.823I-0.707J0.707
N13370G01Z-0.300F20.0
N13380G01X57.316Y37.013F500.0
N13390G2X58.023Y38.721I0.707J0.707
N13400G01X79.038
N13410G2X79.745Y37.013I0.000J-1.001
N13420G01X69.238Y26.505
N13430G2X67.823I-0.707J0.707
N13440G01Z-0.400F20.0
N13450G01X57.316Y37.013F500.0
N13460G2X58.023Y38.721I0.707J0.707
N13470G01X79.038
N13480G2X79.745Y37.013I0.000J-1.001
N13490G01X69.238Y26.505
N13500G2X67.823I-0.707J0.707
N13510G01Z-0.500F20.0
N13520G01X57.316Y37.013F500.0
N13530G2X58.023Y38.721I0.707J0.707
N13540G01X79.038
N13550G2X79.745Y37.013I0.000J-1.001
N13560G01X69.238Y26.505
N13570G2X67.823I-0.707J0.707
N13580G01Z-0.600F20.0
N13590G01X57.316Y37.013F500.0
N13600G2X58.023Y38.721I0.707J0.707
N13610G01X79.038
N13620G2X79.745Y37.013I0.000J-1.001
N13630G01X69.238Y26.505
N13640G2X67.823I-0.707J0.707
N13650G01Z-0.700F20.0
N13660G01X57.316Y37.013F500.0
N13670G2X58.023Y38.721I0.707J0.707
N13680G01X79.038
N13690G2X79.745Y37.013I0.000J-1.001
N13700G01X69.238Y26.505
N13710G2X67.823I-0.707J0.707
N13720G01Z-0.800F20.0
N13730G01X57.316Y37.013F500.0
N13740G2X58.023Y38.721I0.707J0.707
N13750G01X79.038
N13760G2X79.745Y37.013I0.000J-1.001
N13770G01X69.238Y26.505
N13780G2X67.823I-0.707J0.707
N13790G01Z-0.900F20.0
N13800G01X57.316Y37.013F500.0
N13810G2X58.023Y38.721I0.707J0.707
N13820G01X79.038
N13830G2X79.745Y37.013I0.000J-1.001
N13840G01X69.238Y26.505
N13850G2X67.823I-0.707J0.707
N13860G01Z-1.000F20.0
N13870G01X57.316Y37.013F500.0
N13880G2X58.023Y38.721I0.707J0.707
N13890G01X79.038
N13900G2X79.745Y37.013I0.000J-1.001
N13910G01X69.238Y26.505
N13920G2X67.823I-0.707J0.707
N13930G01Z-1.100F20.0
N13940G01X57.316Y37.013F500.0
N13950G2X58.023Y38.721I0.707J0.707
N13960G01X79.038
N13970G2X79.745Y37.013I0.000J-1.001
N13980G01X69.238Y26.505
N13990G2X67.823I-0.707J0.707
N14000G01Z-1.200F20.0
N14010G01X57.316Y37.013F500.0
N14020G2X58.023Y38.721I0.707J0.707
N14030G01X79.038
N14040G2X79.745Y37.013I0.000J-1.001
N14050G01X69.238Y26.505
N14060G2X67.823I-0.707J0.707
N14070G01Z-1.300F20.0
N14080G01X57.316Y37.013F500.0
N14090G2X58.023Y38.721I0.707J0.707
N14100G01X79.038
N14110G2X79.745Y37.013I0.000J-1.001
N14120G01X69.238Y26.505
N14130G2X67.823I-0.707J0.707
N14140G01Z-1.400F20.0
N14150G01X57.316Y37.013F500.0
N14160G2X58.023Y38.721I0.707J0.707
N14170G01X79.038
N14180G2X79.745Y37.013I0.000J-1.001
N14190G01X69.238Y26.505
N14200G2X67.823I-0.707J0.707
N14210G01Z-1.500F20.0
N14220G01X57.316Y37.013F500.0
N14230G2X58.023Y38.721I0.707J0.707
N14240G01X79.038
N14250G2X79.745Y37.013I0.000J-1.001
N14260G01X69.238Y26.505
N14270G2X67.823I-0.707J0.707
N14280G01Z-1.600F20.0
N14290G01X57.316Y37.013F500.0
N14300G2X58.023Y38.721I0.707J0.707
N14310G01X79.038
N14320G2X79.745Y37.013I0.000J-1.001
N14330G01X69.238Y26.505
N14340G2X67.823I-0.707J0.707
N14350G01Z-1.700F20.0
N14360G01X57.316Y37.013F500.0
N14370G2X58.023Y38.721I0.707J0.707
N14380G01X79.038
N14390G2X79.745Y37.013I0.000J-1.001
N14400G01X69.238Y26.505
N14410G2X67.823I-0.707J0.707
N14420G01Z-1.800F20.0
N14430G01X57.316Y37.013F500.0
N14440G2X58.023Y38.721I0.707J0.707
N14450G01X79.038
N14460G2X79.745Y37.013I0.000J-1.001
N14470G01X69.238Y26.505
N14480G2X67.823I-0.707J0.707
N14490G01Z-1.900F20.0
N14500G01X57.316Y37.013F500.0
N14510G2X58.023Y38.721I0.707J0.707
N14520G01X79.038
N14530G2X79.745Y37.013I0.000J-1.001
N14540G01X69.238Y26.505
N14550G2X67.823I-0.707J0.707
N14560G01Z-2.000F20.0
N14570G01X57.316Y37.013F500.0
N14580G2X58.023Y38.721I0.707J0.707
N14590G01X79.038
N14600G2X79.745Y37.013I0.000J-1.001
N14610G01X69.238Y26.505
N14620G2X67.823I-0.707J0.707
N14630G01Z-2.100F20.0
N14640G01X57.316Y37.013F500.0
N14650G2X58.023Y38.721I0.707J0.707
N14660G01X79.038
N14670G2X79.745Y37.013I0.000J-1.001
N14680G01X69.238Y26.505
N14690G2X67.823I-0.707J0.707
N14700G01Z-2.200F20.0
N14710G01X57.316Y37.013F500.0
N14720G2X58.023Y38.721I0.707J0.707
N14730G01X79.038
N14740G2X79.745Y37.013I0.000J-1.001
N14750G01X69.238Y26.505
N14760G2X67.823I-0.707J0.707
N14770G01Z-2.300F20.0
N14780G01X57.316Y37.013F500.0
N14790G2X58.023Y38.721I0.707J0.707
N14800G01X79.038
N14810G2X79.745Y37.013I0.000J-1.001
N14820G01X69.238Y26.505
N14830G2X67.823I-0.707J0.707
N14840G01Z-2.400F20.0
N14850G01X57.316Y37.013F500.0
N14860G2X58.023Y38.721I0.707J0.707
N14870G01X79.038
N14880G2X79.745Y37.013I0.000J-1.001
N14890G01X69.238Y26.505
N14900G2X67.823I-0.707J0.707
N14910G01Z-2.500F20.0
N14920G01X57.316Y37.013F500.0
N14930G2X58.023Y38.721I0.707J0.707
N14940G01X79.038
N14950G2X79.745Y37.013I0.000J-1.001
N14960G01X69.238Y26.505
N14970G2X67.823I-0.707J0.707
N14980G01Z-2.600F20.0
N14990G01X57.316Y37.013F500.0
N15000G2X58.023Y38.721I0.707J0.707
N15010G01X79.038
N15020G2X79.745Y37.013I0.000J-1.001
N15030G01X69.238Y26.505
N15040G2X67.823I-0.707J0.707
N15050G01Z-2.700F20.0
N15060G01X57.316Y37.013F500.0
N15070G2X58.023Y38.721I0.707J0.707
N15080G01X79.038
N15090G2X79.745Y37.013I0.000J-1.001
N15100G01X69.238Y26.505
N15110G2X67.823I-0.707J0.707
N15120G01Z-2.800F20.0
N15130G01X57.316Y37.013F500.0
N15140G2X58.023Y38.721I0.707J0.707
N15150G01X79.038
N15160G2X79.745Y37.013I0.000J-1.001
N15170G01X69.238Y26.505
N15180G2X67.823I-0.707J0.707
N15190G01Z-2.900F20.0
N15200G01X57.316Y37.013F500.0
N15210G2X58.023Y38.721I0.707J0.707
N15220G01X79.038
N15230G2X79.745Y37.013I0.000J-1.001
N15240G01X69.238Y26.505
N15250G2X67.823I-0.707J0.707
N15260G01Z-3.000F20.0
N15270G01X57.316Y37.013F500.0
N15280G2X58.023Y38.721I0.707J0.707
N15290G01X79.038
N15300G2X79.745Y37.013I0.000J-1.001
N15310G01X69.238Y26.505
N15320G2X67.823I-0.707J0.707
N15330G01Z-3.100F20.0
N15340G01X57.316Y37.013F500.0
N15350G2X58.023Y38.721I0.707J0.707
N15360G01X79.038
N15370G2X79.745Y37.013I0.000J-1.001
N15380G01X69.238Y26.505
N15390G2X67.823I-0.707J0.707
N15400G00Z6.000
N15410G00X82.573Y11.755
N15420G01Z-0.100F20.0
N15430G01X72.066Y22.263F500.0
N15440G2Y23.678I0.707J0.707
N15450G01X82.573Y34.185
N15460G2X84.281Y33.477I0.707J-0.707
N15470G01Y12.463
N15480G2X82.573Y11.755I-1.001J0.000
N15490G01Z-0.200F20.0
N15500G01X72.066Y22.263F500.0
N15510G2Y23.678I0.707J0.707
N15520G01X82.573Y34.185
N15530G2X84.281Y33.477I0.707J-0.707
N15540G01Y12.463
N15550G2X82.573Y11.755I-1.001J0.000
N15560G01Z-0.300F20.0
N15570G01X72.066Y22.263F500.0
N15580G2Y23.678I0.707J0.707
N15590G01X82.573Y34.185
N15600G2X84.281Y33.477I0.707J-0.707
N15610G01Y12.463
N15620G2X82.573Y11.755I-1.001J0.000
N15630G01Z-0.400F20.0
N15640G01X72.066Y22.263F500.0
N15650G2Y23.678I0.707J0.707
N15660G01X82.573Y34.185
N15670G2X84.281Y33.477I0.707J-0.707
N15680G01Y12.463
N15690G2X82.573Y11.755I-1.001J0.000
N15700G01Z-0.500F20.0
N15710G01X72.066Y22.263F500.0
N15720G2Y23.678I0.707J0.707
N15730G01X82.573Y34.185
N15740G2X84.281Y33.477I0.707J-0.707
N15750G01Y12.463
N15760G2X82.573Y11.755I-1.001J0.000
N15770G01Z-0.600F20.0
N15780G01X72.066Y22.263F500.0
N15790G2Y23.678I0.707J0.707
N15800G01X82.573Y34.185
N15810G2X84.281Y33.477I0.707J-0.707
N15820G01Y12.463
N15830G2X82.573Y11.755I-1.001J0.000
N15840G01Z-0.700F20.0
N15850G01X72.066Y22.263F500.0
N15860G2Y23.678I0.707J0.707
N15870G01X82.573Y34.185
N15880G2X84.281Y33.477I0.707J-0.707
N15890G01Y12.463
N15900G2X82.573Y11.755I-1.001J0.000
N15910G01Z-0.800F20.0
N15920G01X72.066Y22.263F500.0
N15930G2Y23.678I0.707J0.707
N15940G01X82.573Y34.185
N15950G2X84.281Y33.477I0.707J-0.707
N15960G01Y12.463
N15970G2X82.573Y11.755I-1.001J0.000
N15980G01Z-0.900F20.0
N15990G01X72.066Y22.263F500.0
N16000G2Y23.678I0.707J0.707
N16010G01X82.573Y34.185
N16020G2X84.281Y33.477I0.707J-0.707
N16030G01Y12.463
N16040G2X82.573Y11.755I-1.001J0.000
N16050G01Z-1.000F20.0
N16060G01X72.066Y22.263F500.0
N16070G2Y23.678I0.707J0.707
N16080G01X82.573Y34.185
N16090G2X84.281Y33.477I0.707J-0.707
N16100G01Y12.463
N16110G2X82.573Y11.755I-1.001J0.000
N16120G01Z-1.100F20.0
N16130G01X72.066Y22.263F500.0
N16140G2Y23.678I0.707J0.707
N16150G01X82.573Y34.185
N16160G2X84.281Y33.477I0.707J-0.707
N16170G01Y12.463
N16180G2X82.573Y11.755I-1.001J0.000
N16190G01Z-1.200F20.0
N16200G01X72.066Y22.263F500.0
N16210G2Y23.678I0.707J0.707
N16220G01X82.573Y34.185
N16230G2X84.281Y33.477I0.707J-0.707
N16240G01Y12.463
N16250G2X82.573Y11.755I-1.001J0.000
N16260G01Z-1.300F20.0
N16270G01X72.066Y22.263F500.0
N16280G2Y23.678I0.707J0.707
N16290G01X82.573Y34.185
N16300G2X84.281Y33.477I0.707J-0.707
N16310G01Y12.463
N16320G2X82.573Y11.755I-1.001J0.000
N16330G01Z-1.400F20.0
N16340G01X72.066Y22.263F500.0
N16350G2Y23.678I0.707J0.707
N16360G01X82.573Y34.185
N16370G2X84.281Y33.477I0.707J-0.707
N16380G01Y12.463
N16390G2X82.573Y11.755I-1.001J0.000
N16400G01Z-1.500F20.0
N16410G01X72.066Y22.263F500.0
N16420G2Y23.678I0.707J0.707
N16430G01X82.573Y34.185
N16440G2X84.281Y33.477I0.707J-0.707
N16450G01Y12.463
N16460G2X82.573Y11.755I-1.001J0.000
N16470G01Z-1.600F20.0
N16480G01X72.066Y22.263F500.0
N16490G2Y23.678I0.707J0.707
N16500G01X82.573Y34.185
N16510G2X84.281Y33.477I0.707J-0.707
N16520G01Y12.463
N16530G2X82.573Y11.755I-1.001J0.000
N16540G01Z-1.700F20.0
N16550G01X72.066Y22.263F500.0
N16560G2Y23.678I0.707J0.707
N16570G01X82.573Y34.185
N16580G2X84.281Y33.477I0.707J-0.707
N16590G01Y12.463
N16600G2X82.573Y11.755I-1.001J0.000
N16610G01Z-1.800F20.0
N16620G01X72.066Y22.263F500.0
N16630G2Y23.678I0.707J0.707
N16640G01X82.573Y34.185
N16650G2X84.281Y33.477I0.707J-0.707
N16660G01Y12.463
N16670G2X82.573Y11.755I-1.001J0.000
N16680G01Z-1.900F20.0
N16690G01X72.066Y22.263F500.0
N16700G2Y23.678I0.707J0.707
N16710G01X82.573Y34.185
N16720G2X84.281Y33.477I0.707J-0.707
N16730G01Y12.463
N16740G2X82.573Y11.755I-1.001J0.000
N16750G01Z-2.000F20.0
N16760G01X72.066Y22.263F500.0
N16770G2Y23.678I0.707J0.707
N16780G01X82.573Y34.185
N16790G2X84.281Y33.477I0.707J-0.707
N16800G01Y12.463
N16810G2X82.573Y11.755I-1.001J0.000
N16820G01Z-2.100F20.0
N16830G01X72.066Y22.263F500.0
N16840G2Y23.678I0.707J0.707
N16850G01X82.573Y34.185
N16860G2X84.281Y33.477I0.707J-0.707
N16870G01Y12.463
N16880G2X82.573Y11.755I-1.001J0.000
N16890G01Z-2.200F20.0
N16900G01X72.066Y22.263F500.0
N16910G2Y23.678I0.707J0.707
N16920G01X82.573Y34.185
N16930G2X84.281Y33.477I0.707J-0.707
N16940G01Y12.463
N16950G2X82.573Y11.755I-1.001J0.000
N16960G01Z-2.300F20.0
N16970G01X72.066Y22.263F500.0
N16980G2Y23.678I0.707J0.707
N16990G01X82.573Y34.185
N17000G2X84.281Y33.477I0.707J-0.707
N17010G01Y12.463
N17020G2X82.573Y11.755I-1.001J0.000
N17030G01Z-2.400F20.0
N17040G01X72.066Y22.263F500.0
N17050G2Y23.678I0.707J0.707
N17060G01X82.573Y34.185
N17070G2X84.281Y33.477I0.707J-0.707
N17080G01Y12.463
N17090G2X82.573Y11.755I-1.001J0.000
N17100G01Z-2.500F20.0
N17110G01X72.066Y22.263F500.0
N17120G2Y23.678I0.707J0.707
N17130G01X82.573Y34.185
N17140G2X84.281Y33.477I0.707J-0.707
N17150G01Y12.463
N17160G2X82.573Y11.755I-1.001J0.000
N17170G01Z-2.600F20.0
N17180G01X72.066Y22.263F500.0
N17190G2Y23.678I0.707J0.707
N17200G01X82.573Y34.185
N17210G2X84.281Y33.477I0.707J-0.707
N17220G01Y12.463
N17230G2X82.573Y11.755I-1.001J0.000
N17240G01Z-2.700F20.0
N17250G01X72.066Y22.263F500.0
N17260G2Y23.678I0.707J0.707
N17270G01X82.573Y34.185
N17280G2X84.281Y33.477I0.707J-0.707
N17290G01Y12.463
N17300G2X82.573Y11.755I-1.001J0.000
N17310G01Z-2.800F20.0
N17320G01X72.066Y22.263F500.0
N17330G2Y23.678I0.707J0.707
N17340G01X82.573Y34.185
N17350G2X84.281Y33.477I0.707J-0.707
N17360G01Y12.463
N17370G2X82.573Y11.755I-1.001J0.000
N17380G01Z-2.900F20.0
N17390G01X72.066Y22.263F500.0
N17400G2Y23.678I0.707J0.707
N17410G01X82.573Y34.185
N17420G2X84.281Y33.477I0.707J-0.707
N17430G01Y12.463
N17440G2X82.573Y11.755I-1.001J0.000
N17450G01Z-3.000F20.0
N17460G01X72.066Y22.263F500.0
N17470G2Y23.678I0.707J0.707
N17480G01X82.573Y34.185
N17490G2X84.281Y33.477I0.707J-0.707
N17500G01Y12.463
N17510G2X82.573Y11.755I-1.001J0.000
N17520G01Z-3.100F20.0
N17530G01X72.066Y22.263F500.0
N17540G2Y23.678I0.707J0.707
N17550G01X82.573Y34.185
N17560G2X84.281Y33.477I0.707J-0.707
N17570G01Y12.463
N17580G2X82.573Y11.755I-1.001J0.000
N17590G00Z6.000
N17600G00X10.124Y2.513Z6.000
N17610G01Z-0.100F20.0
N17620G3X10.830Y2.221I0.707J0.707F500.0
N17630G01X16.630
N17640G3X17.630Y3.220I0.000J1.000
N17650G2X17.831I0.101J0.000
N17660G01Y1.720
N17670G3X18.830Y0.721I0.999J0.000
N17680G01X28.830
N17690G3X29.830Y1.720I0.000J0.999
N17700G01Y3.220
N17710G2X30.031I0.101J0.000
N17720G3X31.030Y2.221I1.000J0.000
N17730G01X36.830
N17740G3X37.537Y2.513I0.000J1.000
N17750G01X44.287Y9.263
N17760G3X44.580Y9.970I-0.707J0.707
N17770G01Y15.770
N17780G3X43.580Y16.770I-1.000J0.000
N17790G2X43.480Y16.870I0.000J0.101
N17800G2X43.580Y16.971I0.101J0.000
N17810G01X45.080
N17820G3X46.080Y17.970I0.000J1.000
N17830G01Y27.970
N17840G3X45.080Y28.970I-1.000J0.000
N17850G01X43.580
N17860G2Y29.171I0.000J0.101
N17870G3X44.580Y30.170I0.000J0.999
N17880G01Y35.970
N17890G3X44.287Y36.677I-1.000J0.000
N17900G01X37.537Y43.427
N17910G3X36.830Y43.720I-0.707J-0.707
N17920G01X31.030
N17930G3X30.031Y42.720I0.000J-1.000
N17940G2X29.830I-0.101J0.000
N17950G01Y44.220
N17960G3X28.830Y45.220I-1.000J0.000
N17970G01X18.830
N17980G3X17.831Y44.220I0.000J-1.000
N17990G01Y42.720
N18000G2X17.630I-0.101J0.000
N18010G3X16.630Y43.720I-1.000J0.000
N18020G01X10.830
N18030G3X10.124Y43.427I0.000J-1.000
N18040G01X3.374Y36.677
N18050G3X3.081Y35.970I0.707J-0.707
N18060G01Y30.170
N18070G3X4.080Y29.171I1.000J0.000
N18080G2Y28.970I0.000J-0.101
N18090G01X2.580
N18100G3X1.581Y27.970I0.000J-1.000
N18110G01Y17.970
N18120G3X2.580Y16.971I1.000J0.000
N18130G01X4.080
N18140G2Y16.770I0.000J-0.101
N18150G3X3.081Y15.770I0.000J-0.999
N18160G01Y9.970
N18170G3X3.374Y9.263I1.000J0.000
N18180G01X10.124Y2.513
N18190G01Z-0.200F20.0
N18200G3X10.830Y2.221I0.707J0.707F500.0
N18210G01X16.630
N18220G3X17.630Y3.220I0.000J1.000
N18230G2X17.831I0.101J0.000
N18240G01Y1.720
N18250G3X18.830Y0.721I0.999J0.000
N18260G01X28.830
N18270G3X29.830Y1.720I0.000J0.999
N18280G01Y3.220
N18290G2X30.031I0.101J0.000
N18300G3X31.030Y2.221I1.000J0.000
N18310G01X36.830
N18320G3X37.537Y2.513I0.000J1.000
N18330G01X44.287Y9.263
N18340G3X44.580Y9.970I-0.707J0.707
N18350G01Y15.770
N18360G3X43.580Y16.770I-1.000J0.000
N18370G2X43.480Y16.870I0.000J0.101
N18380G2X43.580Y16.971I0.101J0.000
N18390G01X45.080
N18400G3X46.080Y17.970I0.000J1.000
N18410G01Y27.970
N18420G3X45.080Y28.970I-1.000J0.000
N18430G01X43.580
N18440G2Y29.171I0.000J0.101
N18450G3X44.580Y30.170I0.000J0.999
N18460G01Y35.970
N18470G3X44.287Y36.677I-1.000J0.000
N18480G01X37.537Y43.427
N18490G3X36.830Y43.720I-0.707J-0.707
N18500G01X31.030
N18510G3X30.031Y42.720I0.000J-1.000
N18520G2X29.830I-0.101J0.000
N18530G01Y44.220
N18540G3X28.830Y45.220I-1.000J0.000
N18550G01X18.830
N18560G3X17.831Y44.220I0.000J-1.000
N18570G01Y42.720
N18580G2X17.630I-0.101J0.000
N18590G3X16.630Y43.720I-1.000J0.000
N18600G01X10.830
N18610G3X10.124Y43.427I0.000J-1.000
N18620G01X3.374Y36.677
N18630G3X3.081Y35.970I0.707J-0.707
N18640G01Y30.170
N18650G3X4.080Y29.171I1.000J0.000
N18660G2Y28.970I0.000J-0.101
N18670G01X2.580
N18680G3X1.581Y27.970I0.000J-1.000
N18690G01Y17.970
N18700G3X2.580Y16.971I1.000J0.000
N18710G01X4.080
N18720G2Y16.770I0.000J-0.101
N18730G3X3.081Y15.770I0.000J-0.999
N18740G01Y9.970
N18750G3X3.374Y9.263I1.000J0.000
N18760G01X10.124Y2.513
N18770G01Z-0.300F20.0
N18780G3X10.830Y2.221I0.707J0.707F500.0
N18790G01X16.630
N18800G3X17.630Y3.220I0.000J1.000
N18810G2X17.831I0.101J0.000
N18820G01Y1.720
N18830G3X18.830Y0.721I0.999J0.000
N18840G01X28.830
N18850G3X29.830Y1.720I0.000J0.999
N18860G01Y3.220
N18870G2X30.031I0.101J0.000
N18880G3X31.030Y2.221I1.000J0.000
N18890G01X36.830
N18900G3X37.537Y2.513I0.000J1.000
N18910G01X44.287Y9.263
N18920G3X44.580Y9.970I-0.707J0.707
N18930G01Y15.770
N18940G3X43.580Y16.770I-1.000J0.000
N18950G2X43.480Y16.870I0.000J0.101
N18960G2X43.580Y16.971I0.101J0.000
N18970G01X45.080
N18980G3X46.080Y17.970I0.000J1.000
N18990G01Y27.970
N19000G3X45.080Y28.970I-1.000J0.000
N19010G01X43.580
N19020G2Y29.171I0.000J0.101
N19030G3X44.580Y30.170I0.000J0.999
N19040G01Y35.970
N19050G3X44.287Y36.677I-1.000J0.000
N19060G01X37.537Y43.427
N19070G3X36.830Y43.720I-0.707J-0.707
N19080G01X31.030
N19090G3X30.031Y42.720I0.000J-1.000
N19100G2X29.830I-0.101J0.000
N19110G01Y44.220
N19120G3X28.830Y45.220I-1.000J0.000
N19130G01X18.830
N19140G3X17.831Y44.220I0.000J-1.000
N19150G01Y42.720
N19160G2X17.630I-0.101J0.000
N19170G3X16.630Y43.720I-1.000J0.000
N19180G01X10.830
N19190G3X10.124Y43.427I0.000J-1.000
N19200G01X3.374Y36.677
N19210G3X3.081Y35.970I0.707J-0.707
N19220G01Y30.170
N19230G3X4.080Y29.171I1.000J0.000
N19240G2Y28.970I0.000J-0.101
N19250G01X2.580
N19260G3X1.581Y27.970I0.000J-1.000
N19270G01Y17.970
N19280G3X2.580Y16.971I1.000J0.000
N19290G01X4.080
N19300G2Y16.770I0.000J-0.101
N19310G3X3.081Y15.770I0.000J-0.999
N19320G01Y9.970
N19330G3X3.374Y9.263I1.000J0.000
N19340G01X10.124Y2.513
N19350G01Z-0.400F20.0
N19360G3X10.830Y2.221I0.707J0.707F500.0
N19370G01X16.630
N19380G3X17.630Y3.220I0.000J1.000
N19390G2X17.831I0.101J0.000
N19400G01Y1.720
N19410G3X18.830Y0.721I0.999J0.000
N19420G01X28.830
N19430G3X29.830Y1.720I0.000J0.999
N19440G01Y3.220
N19450G2X30.031I0.101J0.000
N19460G3X31.030Y2.221I1.000J0.000
N19470G01X36.830
N19480G3X37.537Y2.513I0.000J1.000
N19490G01X44.287Y9.263
N19500G3X44.580Y9.970I-0.707J0.707
N19510G01Y15.770
N19520G3X43.580Y16.770I-1.000J0.000
N19530G2X43.480Y16.870I0.000J0.101
N19540G2X43.580Y16.971I0.101J0.000
N19550G01X45.080
N19560G3X46.080Y17.970I0.000J1.000
N19570G01Y27.970
N19580G3X45.080Y28.970I-1.000J0.000
N19590G01X43.580
N19600G2Y29.171I0.000J0.101
N19610G3X44.580Y30.170I0.000J0.999
N19620G01Y35.970
N19630G3X44.287Y36.677I-1.000J0.000
N19640G01X37.537Y43.427
N19650G3X36.830Y43.720I-0.707J-0.707
N19660G01X31.030
N19670G3X30.031Y42.720I0.000J-1.000
N19680G2X29.830I-0.101J0.000
N19690G01Y44.220
N19700G3X28.830Y45.220I-1.000J0.000
N19710G01X18.830
N19720G3X17.831Y44.220I0.000J-1.000
N19730G01Y42.720
N19740G2X17.630I-0.101J0.000
N19750G3X16.630Y43.720I-1.000J0.000
N19760G01X10.830
N19770G3X10.124Y43.427I0.000J-1.000
N19780G01X3.374Y36.677
N19790G3X3.081Y35.970I0.707J-0.707
N19800G01Y30.170
N19810G3X4.080Y29.171I1.000J0.000
N19820G2Y28.970I0.000J-0.101
N19830G01X2.580
N19840G3X1.581Y27.970I0.000J-1.000
N19850G01Y17.970
N19860G3X2.580Y16.971I1.000J0.000
N19870G01X4.080
N19880G2Y16.770I0.000J-0.101
N19890G3X3.081Y15.770I0.000J-0.999
N19900G01Y9.970
N19910G3X3.374Y9.263I1.000J0.000
N19920G01X10.124Y2.513
N19930G01Z-0.500F20.0
N19940G3X10.830Y2.221I0.707J0.707F500.0
N19950G01X16.630
N19960G3X17.630Y3.220I0.000J1.000
N19970G2X17.831I0.101J0.000
N19980G01Y1.720
N19990G3X18.830Y0.721I0.999J0.000
N20000G01X28.830
N20010G3X29.830Y1.720I0.000J0.999
N20020G01Y3.220
N20030G2X30.031I0.101J0.000
N20040G3X31.030Y2.221I1.000J0.000
N20050G01X36.830
N20060G3X37.537Y2.513I0.000J1.000
N20070G01X44.287Y9.263
N20080G3X44.580Y9.970I-0.707J0.707
N20090G01Y15.770
N20100G3X43.580Y16.770I-1.000J0.000
N20110G2X43.480Y16.870I0.000J0.101
N20120G2X43.580Y16.971I0.101J0.000
N20130G01X45.080
N20140G3X46.080Y17.970I0.000J1.000
N20150G01Y27.970
N20160G3X45.080Y28.970I-1.000J0.000
N20170G01X43.580
N20180G2Y29.171I0.000J0.101
N20190G3X44.580Y30.170I0.000J0.999
N20200G01Y35.970
N20210G3X44.287Y36.677I-1.000J0.000
N20220G01X37.537Y43.427
N20230G3X36.830Y43.720I-0.707J-0.707
N20240G01X31.030
N20250G3X30.031Y42.720I0.000J-1.000
N20260G2X29.830I-0.101J0.000
N20270G01Y44.220
N20280G3X28.830Y45.220I-1.000J0.000
N20290G01X18.830
N20300G3X17.831Y44.220I0.000J-1.000
N20310G01Y42.720
N20320G2X17.630I-0.101J0.000
N20330G3X16.630Y43.720I-1.000J0.000
N20340G01X10.830
N20350G3X10.124Y43.427I0.000J-1.000
N20360G01X3.374Y36.677
N20370G3X3.081Y35.970I0.707J-0.707
N20380G01Y30.170
N20390G3X4.080Y29.171I1.000J0.000
N20400G2Y28.970I0.000J-0.101
N20410G01X2.580
N20420G3X1.581Y27.970I0.000J-1.000
N20430G01Y17.970
N20440G3X2.580Y16.971I1.000J0.000
N20450G01X4.080
N20460G2Y16.770I0.000J-0.101
N20470G3X3.081Y15.770I0.000J-0.999
N20480G01Y9.970
N20490G3X3.374Y9.263I1.000J0.000
N20500G01X10.124Y2.513
N20510G01Z-0.600F20.0
N20520G3X10.830Y2.221I0.707J0.707F500.0
N20530G01X16.630
N20540G3X17.630Y3.220I0.000J1.000
N20550G2X17.831I0.101J0.000
N20560G01Y1.720
N20570G3X18.830Y0.721I0.999J0.000
N20580G01X28.830
N20590G3X29.830Y1.720I0.000J0.999
N20600G01Y3.220
N20610G2X30.031I0.101J0.000
N20620G3X31.030Y2.221I1.000J0.000
N20630G01X36.830
N20640G3X37.537Y2.513I0.000J1.000
N20650G01X44.287Y9.263
N20660G3X44.580Y9.970I-0.707J0.707
N20670G01Y15.770
N20680G3X43.580Y16.770I-1.000J0.000
N20690G2X43.480Y16.870I0.000J0.101
N20700G2X43.580Y16.971I0.101J0.000
N20710G01X45.080
N20720G3X46.080Y17.970I0.000J1.000
N20730G01Y27.970
N20740G3X45.080Y28.970I-1.000J0.000
N20750G01X43.580
N20760G2Y29.171I0.000J0.101
N20770G3X44.580Y30.170I0.000J0.999
N20780G01Y35.970
N20790G3X44.287Y36.677I-1.000J0.000
N20800G01X37.537Y43.427
N20810G3X36.830Y43.720I-0.707J-0.707
N20820G01X31.030
N20830G3X30.031Y42.720I0.000J-1.000
N20840G2X29.830I-0.101J0.000
N20850G01Y44.220
N20860G3X28.830Y45.220I-1.000J0.000
N20870G01X18.830
N20880G3X17.831Y44.220I0.000J-1.000
N20890G01Y42.720
N20900G2X17.630I-0.101J0.000
N20910G3X16.630Y43.720I-1.000J0.000
N20920G01X10.830
N20930G3X10.124Y43.427I0.000J-1.000
N20940G01X3.374Y36.677
N20950G3X3.081Y35.970I0.707J-0.707
N20960G01Y30.170
N20970G3X4.080Y29.171I1.000J0.000
N20980G2Y28.970I0.000J-0.101
N20990G01X2.580
N21000G3X1.581Y27.970I0.000J-1.000
N21010G01Y17.970
N21020G3X2.580Y16.971I1.000J0.000
N21030G01X4.080
N21040G2Y16.770I0.000J-0.101
N21050G3X3.081Y15.770I0.000J-0.999
N21060G01Y9.970
N21070G3X3.374Y9.263I1.000J0.000
N21080G01X10.124Y2.513
N21090G01Z-0.700F20.0
N21100G3X10.830Y2.221I0.707J0.707F500.0
N21110G01X16.630
N21120G3X17.630Y3.220I0.000J1.000
N21130G2X17.831I0.101J0.000
N21140G01Y1.720
N21150G3X18.830Y0.721I0.999J0.000
N21160G01X28.830
N21170G3X29.830Y1.720I0.000J0.999
N21180G01Y3.220
N21190G2X30.031I0.101J0.000
N21200G3X31.030Y2.221I1.000J0.000
N21210G01X36.830
N21220G3X37.537Y2.513I0.000J1.000
N21230G01X44.287Y9.263
N21240G3X44.580Y9.970I-0.707J0.707
N21250G01Y15.770
N21260G3X43.580Y16.770I-1.000J0.000
N21270G2X43.480Y16.870I0.000J0.101
N21280G2X43.580Y16.971I0.101J0.000
N21290G01X45.080
N21300G3X46.080Y17.970I0.000J1.000
N21310G01Y27.970
N21320G3X45.080Y28.970I-1.000J0.000
N21330G01X43.580
N21340G2Y29.171I0.000J0.101
N21350G3X44.580Y30.170I0.000J0.999
N21360G01Y35.970
N21370G3X44.287Y36.677I-1.000J0.000
N21380G01X37.537Y43.427
N21390G3X36.830Y43.720I-0.707J-0.707
N21400G01X31.030
N21410G3X30.031Y42.720I0.000J-1.000
N21420G2X29.830I-0.101J0.000
N21430G01Y44.220
N21440G3X28.830Y45.220I-1.000J0.000
N21450G01X18.830
N21460G3X17.831Y44.220I0.000J-1.000
N21470G01Y42.720
N21480G2X17.630I-0.101J0.000
N21490G3X16.630Y43.720I-1.000J0.000
N21500G01X10.830
N21510G3X10.124Y43.427I0.000J-1.000
N21520G01X3.374Y36.677
N21530G3X3.081Y35.970I0.707J-0.707
N21540G01Y30.170
N21550G3X4.080Y29.171I1.000J0.000
N21560G2Y28.970I0.000J-0.101
N21570G01X2.580
N21580G3X1.581Y27.970I0.000J-1.000
N21590G01Y17.970
N21600G3X2.580Y16.971I1.000J0.000
N21610G01X4.080
N21620G2Y16.770I0.000J-0.101
N21630G3X3.081Y15.770I0.000J-0.999
N21640G01Y9.970
N21650G3X3.374Y9.263I1.000J0.000
N21660G01X10.124Y2.513
N21670G01Z-0.800F20.0
N21680G3X10.830Y2.221I0.707J0.707F500.0
N21690G01X16.630
N21700G3X17.630Y3.220I0.000J1.000
N21710G2X17.831I0.101J0.000
N21720G01Y1.720
N21730G3X18.830Y0.721I0.999J0.000
N21740G01X28.830
N21750G3X29.830Y1.720I0.000J0.999
N21760G01Y3.220
N21770G2X30.031I0.101J0.000
N21780G3X31.030Y2.221I1.000J0.000
N21790G01X36.830
N21800G3X37.537Y2.513I0.000J1.000
N21810G01X44.287Y9.263
N21820G3X44.580Y9.970I-0.707J0.707
N21830G01Y15.770
N21840G3X43.580Y16.770I-1.000J0.000
N21850G2X43.480Y16.870I0.000J0.101
N21860G2X43.580Y16.971I0.101J0.000
N21870G01X45.080
N21880G3X46.080Y17.970I0.000J1.000
N21890G01Y27.970
N21900G3X45.080Y28.970I-1.000J0.000
N21910G01X43.580
N21920G2Y29.171I0.000J0.101
N21930G3X44.580Y30.170I0.000J0.999
N21940G01Y35.970
N21950G3X44.287Y36.677I-1.000J0.000
N21960G01X37.537Y43.427
N21970G3X36.830Y43.720I-0.707J-0.707
N21980G01X31.030
N21990G3X30.031Y42.720I0.000J-1.000
N22000G2X29.830I-0.101J0.000
N22010G01Y44.220
N22020G3X28.830Y45.220I-1.000J0.000
N22030G01X18.830
N22040G3X17.831Y44.220I0.000J-1.000
N22050G01Y42.720
N22060G2X17.630I-0.101J0.000
N22070G3X16.630Y43.720I-1.000J0.000
N22080G01X10.830
N22090G3X10.124Y43.427I0.000J-1.000
N22100G01X3.374Y36.677
N22110G3X3.081Y35.970I0.707J-0.707
N22120G01Y30.170
N22130G3X4.080Y29.171I1.000J0.000
N22140G2Y28.970I0.000J-0.101
N22150G01X2.580
N22160G3X1.581Y27.970I0.000J-1.000
N22170G01Y17.970
N22180G3X2.580Y16.971I1.000J0.000
N22190G01X4.080
N22200G2Y16.770I0.000J-0.101
N22210G3X3.081Y15.770I0.000J-0.999
N22220G01Y9.970
N22230G3X3.374Y9.263I1.000J0.000
N22240G01X10.124Y2.513
N22250G01Z-0.900F20.0
N22260G3X10.830Y2.221I0.707J0.707F500.0
N22270G01X16.630
N22280G3X17.630Y3.220I0.000J1.000
N22290G2X17.831I0.101J0.000
N22300G01Y1.720
N22310G3X18.830Y0.721I0.999J0.000
N22320G01X28.830
N22330G3X29.830Y1.720I0.000J0.999
N22340G01Y3.220
N22350G2X30.031I0.101J0.000
N22360G3X31.030Y2.221I1.000J0.000
N22370G01X36.830
N22380G3X37.537Y2.513I0.000J1.000
N22390G01X44.287Y9.263
N22400G3X44.580Y9.970I-0.707J0.707
N22410G01Y15.770
N22420G3X43.580Y16.770I-1.000J0.000
N22430G2X43.480Y16.870I0.000J0.101
N22440G2X43.580Y16.971I0.101J0.000
N22450G01X45.080
N22460G3X46.080Y17.970I0.000J1.000
N22470G01Y27.970
N22480G3X45.080Y28.970I-1.000J0.000
N22490G01X43.580
N22500G2Y29.171I0.000J0.101
N22510G3X44.580Y30.170I0.000J0.999
N22520G01Y35.970
N22530G3X44.287Y36.677I-1.000J0.000
N22540G01X37.537Y43.427
N22550G3X36.830Y43.720I-0.707J-0.707
N22560G01X31.030
N22570G3X30.031Y42.720I0.000J-1.000
N22580G2X29.830I-0.101J0.000
N22590G01Y44.220
N22600G3X28.830Y45.220I-1.000J0.000
N22610G01X18.830
N22620G3X17.831Y44.220I0.000J-1.000
N22630G01Y42.720
N22640G2X17.630I-0.101J0.000
N22650G3X16.630Y43.720I-1.000J0.000
N22660G01X10.830
N22670G3X10.124Y43.427I0.000J-1.000
N22680G01X3.374Y36.677
N22690G3X3.081Y35.970I0.707J-0.707
N22700G01Y30.170
N22710G3X4.080Y29.171I1.000J0.000
N22720G2Y28.970I0.000J-0.101
N22730G01X2.580
N22740G3X1.581Y27.970I0.000J-1.000
N22750G01Y17.970
N22760G3X2.580Y16.971I1.000J0.000
N22770G01X4.080
N22780G2Y16.770I0.000J-0.101
N22790G3X3.081Y15.770I0.000J-0.999
N22800G01Y9.970
N22810G3X3.374Y9.263I1.000J0.000
N22820G01X10.124Y2.513
N22830G01Z-1.000F20.0
N22840G3X10.830Y2.221I0.707J0.707F500.0
N22850G01X16.630
N22860G3X17.630Y3.220I0.000J1.000
N22870G2X17.831I0.101J0.000
N22880G01Y1.720
N22890G3X18.830Y0.721I0.999J0.000
N22900G01X28.830
N22910G3X29.830Y1.720I0.000J0.999
N22920G01Y3.220
N22930G2X30.031I0.101J0.000
N22940G3X31.030Y2.221I1.000J0.000
N22950G01X36.830
N22960G3X37.537Y2.513I0.000J1.000
N22970G01X44.287Y9.263
N22980G3X44.580Y9.970I-0.707J0.707
N22990G01Y15.770
N23000G3X43.580Y16.770I-1.000J0.000
N23010G2X43.480Y16.870I0.000J0.101
N23020G2X43.580Y16.971I0.101J0.000
N23030G01X45.080
N23040G3X46.080Y17.970I0.000J1.000
N23050G01Y27.970
N23060G3X45.080Y28.970I-1.000J0.000
N23070G01X43.580
N23080G2Y29.171I0.000J0.101
N23090G3X44.580Y30.170I0.000J0.999
N23100G01Y35.970
N23110G3X44.287Y36.677I-1.000J0.000
N23120G01X37.537Y43.427
N23130G3X36.830Y43.720I-0.707J-0.707
N23140G01X31.030
N23150G3X30.031Y42.720I0.000J-1.000
N23160G2X29.830I-0.101J0.000
N23170G01Y44.220
N23180G3X28.830Y45.220I-1.000J0.000
N23190G01X18.830
N23200G3X17.831Y44.220I0.000J-1.000
N23210G01Y42.720
N23220G2X17.630I-0.101J0.000
N23230G3X16.630Y43.720I-1.000J0.000
N23240G01X10.830
N23250G3X10.124Y43.427I0.000J-1.000
N23260G01X3.374Y36.677
N23270G3X3.081Y35.970I0.707J-0.707
N23280G01Y30.170
N23290G3X4.080Y29.171I1.000J0.000
N23300G2Y28.970I0.000J-0.101
N23310G01X2.580
N23320G3X1.581Y27.970I0.000J-1.000
N23330G01Y17.970
N23340G3X2.580Y16.971I1.000J0.000
N23350G01X4.080
N23360G2Y16.770I0.000J-0.101
N23370G3X3.081Y15.770I0.000J-0.999
N23380G01Y9.970
N23390G3X3.374Y9.263I1.000J0.000
N23400G01X10.124Y2.513
N23410G01Z-1.100F20.0
N23420G3X10.830Y2.221I0.707J0.707F500.0
N23430G01X16.630
N23440G3X17.630Y3.220I0.000J1.000
N23450G2X17.831I0.101J0.000
N23460G01Y1.720
N23470G3X18.830Y0.721I0.999J0.000
N23480G01X28.830
N23490G3X29.830Y1.720I0.000J0.999
N23500G01Y3.220
N23510G2X30.031I0.101J0.000
N23520G3X31.030Y2.221I1.000J0.000
N23530G01X36.830
N23540G3X37.537Y2.513I0.000J1.000
N23550G01X44.287Y9.263
N23560G3X44.580Y9.970I-0.707J0.707
N23570G01Y15.770
N23580G3X43.580Y16.770I-1.000J0.000
N23590G2X43.480Y16.870I0.000J0.101
N23600G2X43.580Y16.971I0.101J0.000
N23610G01X45.080
N23620G3X46.080Y17.970I0.000J1.000
N23630G01Y27.970
N23640G3X45.080Y28.970I-1.000J0.000
N23650G01X43.580
N23660G2Y29.171I0.000J0.101
N23670G3X44.580Y30.170I0.000J0.999
N23680G01Y35.970
N23690G3X44.287Y36.677I-1.000J0.000
N23700G01X37.537Y43.427
N23710G3X36.830Y43.720I-0.707J-0.707
N23720G01X31.030
N23730G3X30.031Y42.720I0.000J-1.000
N23740G2X29.830I-0.101J0.000
N23750G01Y44.220
N23760G3X28.830Y45.220I-1.000J0.000
N23770G01X18.830
N23780G3X17.831Y44.220I0.000J-1.000
N23790G01Y42.720
N23800G2X17.630I-0.101J0.000
N23810G3X16.630Y43.720I-1.000J0.000
N23820G01X10.830
N23830G3X10.124Y43.427I0.000J-1.000
N23840G01X3.374Y36.677
N23850G3X3.081Y35.970I0.707J-0.707
N23860G01Y30.170
N23870G3X4.080Y29.171I1.000J0.000
N23880G2Y28.970I0.000J-0.101
N23890G01X2.580
N23900G3X1.581Y27.970I0.000J-1.000
N23910G01Y17.970
N23920G3X2.580Y16.971I1.000J0.000
N23930G01X4.080
N23940G2Y16.770I0.000J-0.101
N23950G3X3.081Y15.770I0.000J-0.999
N23960G01Y9.970
N23970G3X3.374Y9.263I1.000J0.000
N23980G01X10.124Y2.513
N23990G01Z-1.200F20.0
N24000G3X10.830Y2.221I0.707J0.707F500.0
N24010G01X16.630
N24020G3X17.630Y3.220I0.000J1.000
N24030G2X17.831I0.101J0.000
N24040G01Y1.720
N24050G3X18.830Y0.721I0.999J0.000
N24060G01X28.830
N24070G3X29.830Y1.720I0.000J0.999
N24080G01Y3.220
N24090G2X30.031I0.101J0.000
N24100G3X31.030Y2.221I1.000J0.000
N24110G01X36.830
N24120G3X37.537Y2.513I0.000J1.000
N24130G01X44.287Y9.263
N24140G3X44.580Y9.970I-0.707J0.707
N24150G01Y15.770
N24160G3X43.580Y16.770I-1.000J0.000
N24170G2X43.480Y16.870I0.000J0.101
N24180G2X43.580Y16.971I0.101J0.000
N24190G01X45.080
N24200G3X46.080Y17.970I0.000J1.000
N24210G01Y27.970
N24220G3X45.080Y28.970I-1.000J0.000
N24230G01X43.580
N24240G2Y29.171I0.000J0.101
N24250G3X44.580Y30.170I0.000J0.999
N24260G01Y35.970
N24270G3X44.287Y36.677I-1.000J0.000
N24280G01X37.537Y43.427
N24290G3X36.830Y43.720I-0.707J-0.707
N24300G01X31.030
N24310G3X30.031Y42.720I0.000J-1.000
N24320G2X29.830I-0.101J0.000
N24330G01Y44.220
N24340G3X28.830Y45.220I-1.000J0.000
N24350G01X18.830
N24360G3X17.831Y44.220I0.000J-1.000
N24370G01Y42.720
N24380G2X17.630I-0.101J0.000
N24390G3X16.630Y43.720I-1.000J0.000
N24400G01X10.830
N24410G3X10.124Y43.427I0.000J-1.000
N24420G01X3.374Y36.677
N24430G3X3.081Y35.970I0.707J-0.707
N24440G01Y30.170
N24450G3X4.080Y29.171I1.000J0.000
N24460G2Y28.970I0.000J-0.101
N24470G01X2.580
N24480G3X1.581Y27.970I0.000J-1.000
N24490G01Y17.970
N24500G3X2.580Y16.971I1.000J0.000
N24510G01X4.080
N24520G2Y16.770I0.000J-0.101
N24530G3X3.081Y15.770I0.000J-0.999
N24540G01Y9.970
N24550G3X3.374Y9.263I1.000J0.000
N24560G01X10.124Y2.513
N24570G01Z-1.300F20.0
N24580G3X10.830Y2.221I0.707J0.707F500.0
N24590G01X16.630
N24600G3X17.630Y3.220I0.000J1.000
N24610G2X17.831I0.101J0.000
N24620G01Y1.720
N24630G3X18.830Y0.721I0.999J0.000
N24640G01X28.830
N24650G3X29.830Y1.720I0.000J0.999
N24660G01Y3.220
N24670G2X30.031I0.101J0.000
N24680G3X31.030Y2.221I1.000J0.000
N24690G01X36.830
N24700G3X37.537Y2.513I0.000J1.000
N24710G01X44.287Y9.263
N24720G3X44.580Y9.970I-0.707J0.707
N24730G01Y15.770
N24740G3X43.580Y16.770I-1.000J0.000
N24750G2X43.480Y16.870I0.000J0.101
N24760G2X43.580Y16.971I0.101J0.000
N24770G01X45.080
N24780G3X46.080Y17.970I0.000J1.000
N24790G01Y27.970
N24800G3X45.080Y28.970I-1.000J0.000
N24810G01X43.580
N24820G2Y29.171I0.000J0.101
N24830G3X44.580Y30.170I0.000J0.999
N24840G01Y35.970
N24850G3X44.287Y36.677I-1.000J0.000
N24860G01X37.537Y43.427
N24870G3X36.830Y43.720I-0.707J-0.707
N24880G01X31.030
N24890G3X30.031Y42.720I0.000J-1.000
N24900G2X29.830I-0.101J0.000
N24910G01Y44.220
N24920G3X28.830Y45.220I-1.000J0.000
N24930G01X18.830
N24940G3X17.831Y44.220I0.000J-1.000
N24950G01Y42.720
N24960G2X17.630I-0.101J0.000
N24970G3X16.630Y43.720I-1.000J0.000
N24980G01X10.830
N24990G3X10.124Y43.427I0.000J-1.000
N25000G01X3.374Y36.677
N25010G3X3.081Y35.970I0.707J-0.707
N25020G01Y30.170
N25030G3X4.080Y29.171I1.000J0.000
N25040G2Y28.970I0.000J-0.101
N25050G01X2.580
N25060G3X1.581Y27.970I0.000J-1.000
N25070G01Y17.970
N25080G3X2.580Y16.971I1.000J0.000
N25090G01X4.080
N25100G2Y16.770I0.000J-0.101
N25110G3X3.081Y15.770I0.000J-0.999
N25120G01Y9.970
N25130G3X3.374Y9.263I1.000J0.000
N25140G01X10.124Y2.513
N25150G01Z-1.400F20.0
N25160G3X10.830Y2.221I0.707J0.707F500.0
N25170G01X16.630
N25180G3X17.630Y3.220I0.000J1.000
N25190G2X17.831I0.101J0.000
N25200G01Y1.720
N25210G3X18.830Y0.721I0.999J0.000
N25220G01X28.830
N25230G3X29.830Y1.720I0.000J0.999
N25240G01Y3.220
N25250G2X30.031I0.101J0.000
N25260G3X31.030Y2.221I1.000J0.000
N25270G01X36.830
N25280G3X37.537Y2.513I0.000J1.000
N25290G01X44.287Y9.263
N25300G3X44.580Y9.970I-0.707J0.707
N25310G01Y15.770
N25320G3X43.580Y16.770I-1.000J0.000
N25330G2X43.480Y16.870I0.000J0.101
N25340G2X43.580Y16.971I0.101J0.000
N25350G01X45.080
N25360G3X46.080Y17.970I0.000J1.000
N25370G01Y27.970
N25380G3X45.080Y28.970I-1.000J0.000
N25390G01X43.580
N25400G2Y29.171I0.000J0.101
N25410G3X44.580Y30.170I0.000J0.999
N25420G01Y35.970
N25430G3X44.287Y36.677I-1.000J0.000
N25440G01X37.537Y43.427
N25450G3X36.830Y43.720I-0.707J-0.707
N25460G01X31.030
N25470G3X30.031Y42.720I0.000J-1.000
N25480G2X29.830I-0.101J0.000
N25490G01Y44.220
N25500G3X28.830Y45.220I-1.000J0.000
N25510G01X18.830
N25520G3X17.831Y44.220I0.000J-1.000
N25530G01Y42.720
N25540G2X17.630I-0.101J0.000
N25550G3X16.630Y43.720I-1.000J0.000
N25560G01X10.830
N25570G3X10.124Y43.427I0.000J-1.000
N25580G01X3.374Y36.677
N25590G3X3.081Y35.970I0.707J-0.707
N25600G01Y30.170
N25610G3X4.080Y29.171I1.000J0.000
N25620G2Y28.970I0.000J-0.101
N25630G01X2.580
N25640G3X1.581Y27.970I0.000J-1.000
N25650G01Y17.970
N25660G3X2.580Y16.971I1.000J0.000
N25670G01X4.080
N25680G2Y16.770I0.000J-0.101
N25690G3X3.081Y15.770I0.000J-0.999
N25700G01Y9.970
N25710G3X3.374Y9.263I1.000J0.000
N25720G01X10.124Y2.513
N25730G01Z-1.500F20.0
N25740G3X10.830Y2.221I0.707J0.707F500.0
N25750G01X16.630
N25760G3X17.630Y3.220I0.000J1.000
N25770G2X17.831I0.101J0.000
N25780G01Y1.720
N25790G3X18.830Y0.721I0.999J0.000
N25800G01X28.830
N25810G3X29.830Y1.720I0.000J0.999
N25820G01Y3.220
N25830G2X30.031I0.101J0.000
N25840G3X31.030Y2.221I1.000J0.000
N25850G01X36.830
N25860G3X37.537Y2.513I0.000J1.000
N25870G01X44.287Y9.263
N25880G3X44.580Y9.970I-0.707J0.707
N25890G01Y15.770
N25900G3X43.580Y16.770I-1.000J0.000
N25910G2X43.480Y16.870I0.000J0.101
N25920G2X43.580Y16.971I0.101J0.000
N25930G01X45.080
N25940G3X46.080Y17.970I0.000J1.000
N25950G01Y27.970
N25960G3X45.080Y28.970I-1.000J0.000
N25970G01X43.580
N25980G2Y29.171I0.000J0.101
N25990G3X44.580Y30.170I0.000J0.999
N26000G01Y35.970
N26010G3X44.287Y36.677I-1.000J0.000
N26020G01X37.537Y43.427
N26030G3X36.830Y43.720I-0.707J-0.707
N26040G01X31.030
N26050G3X30.031Y42.720I0.000J-1.000
N26060G2X29.830I-0.101J0.000
N26070G01Y44.220
N26080G3X28.830Y45.220I-1.000J0.000
N26090G01X18.830
N26100G3X17.831Y44.220I0.000J-1.000
N26110G01Y42.720
N26120G2X17.630I-0.101J0.000
N26130G3X16.630Y43.720I-1.000J0.000
N26140G01X10.830
N26150G3X10.124Y43.427I0.000J-1.000
N26160G01X3.374Y36.677
N26170G3X3.081Y35.970I0.707J-0.707
N26180G01Y30.170
N26190G3X4.080Y29.171I1.000J0.000
N26200G2Y28.970I0.000J-0.101
N26210G01X2.580
N26220G3X1.581Y27.970I0.000J-1.000
N26230G01Y17.970
N26240G3X2.580Y16.971I1.000J0.000
N26250G01X4.080
N26260G2Y16.770I0.000J-0.101
N26270G3X3.081Y15.770I0.000J-0.999
N26280G01Y9.970
N26290G3X3.374Y9.263I1.000J0.000
N26300G01X10.124Y2.513
N26310G01Z-1.600F20.0
N26320G3X10.830Y2.221I0.707J0.707F500.0
N26330G01X16.630
N26340G3X17.630Y3.220I0.000J1.000
N26350G2X17.831I0.101J0.000
N26360G01Y1.720
N26370G3X18.830Y0.721I0.999J0.000
N26380G01X28.830
N26390G3X29.830Y1.720I0.000J0.999
N26400G01Y3.220
N26410G2X30.031I0.101J0.000
N26420G3X31.030Y2.221I1.000J0.000
N26430G01X36.830
N26440G3X37.537Y2.513I0.000J1.000
N26450G01X44.287Y9.263
N26460G3X44.580Y9.970I-0.707J0.707
N26470G01Y15.770
N26480G3X43.580Y16.770I-1.000J0.000
N26490G2X43.480Y16.870I0.000J0.101
N26500G2X43.580Y16.971I0.101J0.000
N26510G01X45.080
N26520G3X46.080Y17.970I0.000J1.000
N26530G01Y27.970
N26540G3X45.080Y28.970I-1.000J0.000
N26550G01X43.580
N26560G2Y29.171I0.000J0.101
N26570G3X44.580Y30.170I0.000J0.999
N26580G01Y35.970
N26590G3X44.287Y36.677I-1.000J0.000
N26600G01X37.537Y43.427
N26610G3X36.830Y43.720I-0.707J-0.707
N26620G01X31.030
N26630G3X30.031Y42.720I0.000J-1.000
N26640G2X29.830I-0.101J0.000
N26650G01Y44.220
N26660G3X28.830Y45.220I-1.000J0.000
N26670G01X18.830
N26680G3X17.831Y44.220I0.000J-1.000
N26690G01Y42.720
N26700G2X17.630I-0.101J0.000
N26710G3X16.630Y43.720I-1.000J0.000
N26720G01X10.830
N26730G3X10.124Y43.427I0.000J-1.000
N26740G01X3.374Y36.677
N26750G3X3.081Y35.970I0.707J-0.707
N26760G01Y30.170
N26770G3X4.080Y29.171I1.000J0.000
N26780G2Y28.970I0.000J-0.101
N26790G01X2.580
N26800G3X1.581Y27.970I0.000J-1.000
N26810G01Y17.970
N26820G3X2.580Y16.971I1.000J0.000
N26830G01X4.080
N26840G2Y16.770I0.000J-0.101
N26850G3X3.081Y15.770I0.000J-0.999
N26860G01Y9.970
N26870G3X3.374Y9.263I1.000J0.000
N26880G01X10.124Y2.513
N26890G01Z-1.700F20.0
N26900G3X10.830Y2.221I0.707J0.707F500.0
N26910G01X16.630
N26920G3X17.630Y3.220I0.000J1.000
N26930G2X17.831I0.101J0.000
N26940G01Y1.720
N26950G3X18.830Y0.721I0.999J0.000
N26960G01X28.830
N26970G3X29.830Y1.720I0.000J0.999
N26980G01Y3.220
N26990G2X30.031I0.101J0.000
N27000G3X31.030Y2.221I1.000J0.000
N27010G01X36.830
N27020G3X37.537Y2.513I0.000J1.000
N27030G01X44.287Y9.263
N27040G3X44.580Y9.970I-0.707J0.707
N27050G01Y15.770
N27060G3X43.580Y16.770I-1.000J0.000
N27070G2X43.480Y16.870I0.000J0.101
N27080G2X43.580Y16.971I0.101J0.000
N27090G01X45.080
N27100G3X46.080Y17.970I0.000J1.000
N27110G01Y27.970
N27120G3X45.080Y28.970I-1.000J0.000
N27130G01X43.580
N27140G2Y29.171I0.000J0.101
N27150G3X44.580Y30.170I0.000J0.999
N27160G01Y35.970
N27170G3X44.287Y36.677I-1.000J0.000
N27180G01X37.537Y43.427
N27190G3X36.830Y43.720I-0.707J-0.707
N27200G01X31.030
N27210G3X30.031Y42.720I0.000J-1.000
N27220G2X29.830I-0.101J0.000
N27230G01Y44.220
N27240G3X28.830Y45.220I-1.000J0.000
N27250G01X18.830
N27260G3X17.831Y44.220I0.000J-1.000
N27270G01Y42.720
N27280G2X17.630I-0.101J0.000
N27290G3X16.630Y43.720I-1.000J0.000
N27300G01X10.830
N27310G3X10.124Y43.427I0.000J-1.000
N27320G01X3.374Y36.677
N27330G3X3.081Y35.970I0.707J-0.707
N27340G01Y30.170
N27350G3X4.080Y29.171I1.000J0.000
N27360G2Y28.970I0.000J-0.101
N27370G01X2.580
N27380G3X1.581Y27.970I0.000J-1.000
N27390G01Y17.970
N27400G3X2.580Y16.971I1.000J0.000
N27410G01X4.080
N27420G2Y16.770I0.000J-0.101
N27430G3X3.081Y15.770I0.000J-0.999
N27440G01Y9.970
N27450G3X3.374Y9.263I1.000J0.000
N27460G01X10.124Y2.513
N27470G01Z-1.800F20.0
N27480G3X10.830Y2.221I0.707J0.707F500.0
N27490G01X16.630
N27500G3X17.630Y3.220I0.000J1.000
N27510G2X17.831I0.101J0.000
N27520G01Y1.720
N27530G3X18.830Y0.721I0.999J0.000
N27540G01X28.830
N27550G3X29.830Y1.720I0.000J0.999
N27560G01Y3.220
N27570G2X30.031I0.101J0.000
N27580G3X31.030Y2.221I1.000J0.000
N27590G01X36.830
N27600G3X37.537Y2.513I0.000J1.000
N27610G01X44.287Y9.263
N27620G3X44.580Y9.970I-0.707J0.707
N27630G01Y15.770
N27640G3X43.580Y16.770I-1.000J0.000
N27650G2X43.480Y16.870I0.000J0.101
N27660G2X43.580Y16.971I0.101J0.000
N27670G01X45.080
N27680G3X46.080Y17.970I0.000J1.000
N27690G01Y27.970
N27700G3X45.080Y28.970I-1.000J0.000
N27710G01X43.580
N27720G2Y29.171I0.000J0.101
N27730G3X44.580Y30.170I0.000J0.999
N27740G01Y35.970
N27750G3X44.287Y36.677I-1.000J0.000
N27760G01X37.537Y43.427
N27770G3X36.830Y43.720I-0.707J-0.707
N27780G01X31.030
N27790G3X30.031Y42.720I0.000J-1.000
N27800G2X29.830I-0.101J0.000
N27810G01Y44.220
N27820G3X28.830Y45.220I-1.000J0.000
N27830G01X18.830
N27840G3X17.831Y44.220I0.000J-1.000
N27850G01Y42.720
N27860G2X17.630I-0.101J0.000
N27870G3X16.630Y43.720I-1.000J0.000
N27880G01X10.830
N27890G3X10.124Y43.427I0.000J-1.000
N27900G01X3.374Y36.677
N27910G3X3.081Y35.970I0.707J-0.707
N27920G01Y30.170
N27930G3X4.080Y29.171I1.000J0.000
N27940G2Y28.970I0.000J-0.101
N27950G01X2.580
N27960G3X1.581Y27.970I0.000J-1.000
N27970G01Y17.970
N27980G3X2.580Y16.971I1.000J0.000
N27990G01X4.080
N28000G2Y16.770I0.000J-0.101
N28010G3X3.081Y15.770I0.000J-0.999
N28020G01Y9.970
N28030G3X3.374Y9.263I1.000J0.000
N28040G01X10.124Y2.513
N28050G01Z-1.900F20.0
N28060G3X10.830Y2.221I0.707J0.707F500.0
N28070G01X16.630
N28080G3X17.630Y3.220I0.000J1.000
N28090G2X17.831I0.101J0.000
N28100G01Y1.720
N28110G3X18.830Y0.721I0.999J0.000
N28120G01X28.830
N28130G3X29.830Y1.720I0.000J0.999
N28140G01Y3.220
N28150G2X30.031I0.101J0.000
N28160G3X31.030Y2.221I1.000J0.000
N28170G01X36.830
N28180G3X37.537Y2.513I0.000J1.000
N28190G01X44.287Y9.263
N28200G3X44.580Y9.970I-0.707J0.707
N28210G01Y15.770
N28220G3X43.580Y16.770I-1.000J0.000
N28230G2X43.480Y16.870I0.000J0.101
N28240G2X43.580Y16.971I0.101J0.000
N28250G01X45.080
N28260G3X46.080Y17.970I0.000J1.000
N28270G01Y27.970
N28280G3X45.080Y28.970I-1.000J0.000
N28290G01X43.580
N28300G2Y29.171I0.000J0.101
N28310G3X44.580Y30.170I0.000J0.999
N28320G01Y35.970
N28330G3X44.287Y36.677I-1.000J0.000
N28340G01X37.537Y43.427
N28350G3X36.830Y43.720I-0.707J-0.707
N28360G01X31.030
N28370G3X30.031Y42.720I0.000J-1.000
N28380G2X29.830I-0.101J0.000
N28390G01Y44.220
N28400G3X28.830Y45.220I-1.000J0.000
N28410G01X18.830
N28420G3X17.831Y44.220I0.000J-1.000
N28430G01Y42.720
N28440G2X17.630I-0.101J0.000
N28450G3X16.630Y43.720I-1.000J0.000
N28460G01X10.830
N28470G3X10.124Y43.427I0.000J-1.000
N28480G01X3.374Y36.677
N28490G3X3.081Y35.970I0.707J-0.707
N28500G01Y30.170
N28510G3X4.080Y29.171I1.000J0.000
N28520G2Y28.970I0.000J-0.101
N28530G01X2.580
N28540G3X1.581Y27.970I0.000J-1.000
N28550G01Y17.970
N28560G3X2.580Y16.971I1.000J0.000
N28570G01X4.080
N28580G2Y16.770I0.000J-0.101
N28590G3X3.081Y15.770I0.000J-0.999
N28600G01Y9.970
N28610G3X3.374Y9.263I1.000J0.000
N28620G01X10.124Y2.513
N28630G01Z-2.000F20.0
N28640G3X10.830Y2.221I0.707J0.707F500.0
N28650G01X16.630
N28660G3X17.630Y3.220I0.000J1.000
N28670G2X17.831I0.101J0.000
N28680G01Y1.720
N28690G3X18.830Y0.721I0.999J0.000
N28700G01X28.830
N28710G3X29.830Y1.720I0.000J0.999
N28720G01Y3.220
N28730G2X30.031I0.101J0.000
N28740G3X31.030Y2.221I1.000J0.000
N28750G01X36.830
N28760G3X37.537Y2.513I0.000J1.000
N28770G01X44.287Y9.263
N28780G3X44.580Y9.970I-0.707J0.707
N28790G01Y15.770
N28800G3X43.580Y16.770I-1.000J0.000
N28810G2X43.480Y16.870I0.000J0.101
N28820G2X43.580Y16.971I0.101J0.000
N28830G01X45.080
N28840G3X46.080Y17.970I0.000J1.000
N28850G01Y27.970
N28860G3X45.080Y28.970I-1.000J0.000
N28870G01X43.580
N28880G2Y29.171I0.000J0.101
N28890G3X44.580Y30.170I0.000J0.999
N28900G01Y35.970
N28910G3X44.287Y36.677I-1.000J0.000
N28920G01X37.537Y43.427
N28930G3X36.830Y43.720I-0.707J-0.707
N28940G01X31.030
N28950G3X30.031Y42.720I0.000J-1.000
N28960G2X29.830I-0.101J0.000
N28970G01Y44.220
N28980G3X28.830Y45.220I-1.000J0.000
N28990G01X18.830
N29000G3X17.831Y44.220I0.000J-1.000
N29010G01Y42.720
N29020G2X17.630I-0.101J0.000
N29030G3X16.630Y43.720I-1.000J0.000
N29040G01X10.830
N29050G3X10.124Y43.427I0.000J-1.000
N29060G01X3.374Y36.677
N29070G3X3.081Y35.970I0.707J-0.707
N29080G01Y30.170
N29090G3X4.080Y29.171I1.000J0.000
N29100G2Y28.970I0.000J-0.101
N29110G01X2.580
N29120G3X1.581Y27.970I0.000J-1.000
N29130G01Y17.970
N29140G3X2.580Y16.971I1.000J0.000
N29150G01X4.080
N29160G2Y16.770I0.000J-0.101
N29170G3X3.081Y15.770I0.000J-0.999
N29180G01Y9.970
N29190G3X3.374Y9.263I1.000J0.000
N29200G01X10.124Y2.513
N29210G01Z-2.100F20.0
N29220G3X10.830Y2.221I0.707J0.707F500.0
N29230G01X16.630
N29240G3X17.630Y3.220I0.000J1.000
N29250G2X17.831I0.101J0.000
N29260G01Y1.720
N29270G3X18.830Y0.721I0.999J0.000
N29280G01X28.830
N29290G3X29.830Y1.720I0.000J0.999
N29300G01Y3.220
N29310G2X30.031I0.101J0.000
N29320G3X31.030Y2.221I1.000J0.000
N29330G01X36.830
N29340G3X37.537Y2.513I0.000J1.000
N29350G01X44.287Y9.263
N29360G3X44.580Y9.970I-0.707J0.707
N29370G01Y15.770
N29380G3X43.580Y16.770I-1.000J0.000
N29390G2X43.480Y16.870I0.000J0.101
N29400G2X43.580Y16.971I0.101J0.000
N29410G01X45.080
N29420G3X46.080Y17.970I0.000J1.000
N29430G01Y27.970
N29440G3X45.080Y28.970I-1.000J0.000
N29450G01X43.580
N29460G2Y29.171I0.000J0.101
N29470G3X44.580Y30.170I0.000J0.999
N29480G01Y35.970
N29490G3X44.287Y36.677I-1.000J0.000
N29500G01X37.537Y43.427
N29510G3X36.830Y43.720I-0.707J-0.707
N29520G01X31.030
N29530G3X30.031Y42.720I0.000J-1.000
N29540G2X29.830I-0.101J0.000
N29550G01Y44.220
N29560G3X28.830Y45.220I-1.000J0.000
N29570G01X18.830
N29580G3X17.831Y44.220I0.000J-1.000
N29590G01Y42.720
N29600G2X17.630I-0.101J0.000
N29610G3X16.630Y43.720I-1.000J0.000
N29620G01X10.830
N29630G3X10.124Y43.427I0.000J-1.000
N29640G01X3.374Y36.677
N29650G3X3.081Y35.970I0.707J-0.707
N29660G01Y30.170
N29670G3X4.080Y29.171I1.000J0.000
N29680G2Y28.970I0.000J-0.101
N29690G01X2.580
N29700G3X1.581Y27.970I0.000J-1.000
N29710G01Y17.970
N29720G3X2.580Y16.971I1.000J0.000
N29730G01X4.080
N29740G2Y16.770I0.000J-0.101
N29750G3X3.081Y15.770I0.000J-0.999
N29760G01Y9.970
N29770G3X3.374Y9.263I1.000J0.000
N29780G01X10.124Y2.513
N29790G01Z-2.200F20.0
N29800G3X10.830Y2.221I0.707J0.707F500.0
N29810G01X16.630
N29820G3X17.630Y3.220I0.000J1.000
N29830G2X17.831I0.101J0.000
N29840G01Y1.720
N29850G3X18.830Y0.721I0.999J0.000
N29860G01X28.830
N29870G3X29.830Y1.720I0.000J0.999
N29880G01Y3.220
N29890G2X30.031I0.101J0.000
N29900G3X31.030Y2.221I1.000J0.000
N29910G01X36.830
N29920G3X37.537Y2.513I0.000J1.000
N29930G01X44.287Y9.263
N29940G3X44.580Y9.970I-0.707J0.707
N29950G01Y15.770
N29960G3X43.580Y16.770I-1.000J0.000
N29970G2X43.480Y16.870I0.000J0.101
N29980G2X43.580Y16.971I0.101J0.000
N29990G01X45.080
N30000G3X46.080Y17.970I0.000J1.000
N30010G01Y27.970
N30020G3X45.080Y28.970I-1.000J0.000
N30030G01X43.580
N30040G2Y29.171I0.000J0.101
N30050G3X44.580Y30.170I0.000J0.999
N30060G01Y35.970
N30070G3X44.287Y36.677I-1.000J0.000
N30080G01X37.537Y43.427
N30090G3X36.830Y43.720I-0.707J-0.707
N30100G01X31.030
N30110G3X30.031Y42.720I0.000J-1.000
N30120G2X29.830I-0.101J0.000
N30130G01Y44.220
N30140G3X28.830Y45.220I-1.000J0.000
N30150G01X18.830
N30160G3X17.831Y44.220I0.000J-1.000
N30170G01Y42.720
N30180G2X17.630I-0.101J0.000
N30190G3X16.630Y43.720I-1.000J0.000
N30200G01X10.830
N30210G3X10.124Y43.427I0.000J-1.000
N30220G01X3.374Y36.677
N30230G3X3.081Y35.970I0.707J-0.707
N30240G01Y30.170
N30250G3X4.080Y29.171I1.000J0.000
N30260G2Y28.970I0.000J-0.101
N30270G01X2.580
N30280G3X1.581Y27.970I0.000J-1.000
N30290G01Y17.970
N30300G3X2.580Y16.971I1.000J0.000
N30310G01X4.080
N30320G2Y16.770I0.000J-0.101
N30330G3X3.081Y15.770I0.000J-0.999
N30340G01Y9.970
N30350G3X3.374Y9.263I1.000J0.000
N30360G01X10.124Y2.513
N30370G01Z-2.300F20.0
N30380G3X10.830Y2.221I0.707J0.707F500.0
N30390G01X16.630
N30400G3X17.630Y3.220I0.000J1.000
N30410G2X17.831I0.101J0.000
N30420G01Y1.720
N30430G3X18.830Y0.721I0.999J0.000
N30440G01X28.830
N30450G3X29.830Y1.720I0.000J0.999
N30460G01Y3.220
N30470G2X30.031I0.101J0.000
N30480G3X31.030Y2.221I1.000J0.000
N30490G01X36.830
N30500G3X37.537Y2.513I0.000J1.000
N30510G01X44.287Y9.263
N30520G3X44.580Y9.970I-0.707J0.707
N30530G01Y15.770
N30540G3X43.580Y16.770I-1.000J0.000
N30550G2X43.480Y16.870I0.000J0.101
N30560G2X43.580Y16.971I0.101J0.000
N30570G01X45.080
N30580G3X46.080Y17.970I0.000J1.000
N30590G01Y27.970
N30600G3X45.080Y28.970I-1.000J0.000
N30610G01X43.580
N30620G2Y29.171I0.000J0.101
N30630G3X44.580Y30.170I0.000J0.999
N30640G01Y35.970
N30650G3X44.287Y36.677I-1.000J0.000
N30660G01X37.537Y43.427
N30670G3X36.830Y43.720I-0.707J-0.707
N30680G01X31.030
N30690G3X30.031Y42.720I0.000J-1.000
N30700G2X29.830I-0.101J0.000
N30710G01Y44.220
N30720G3X28.830Y45.220I-1.000J0.000
N30730G01X18.830
N30740G3X17.831Y44.220I0.000J-1.000
N30750G01Y42.720
N30760G2X17.630I-0.101J0.000
N30770G3X16.630Y43.720I-1.000J0.000
N30780G01X10.830
N30790G3X10.124Y43.427I0.000J-1.000
N30800G01X3.374Y36.677
N30810G3X3.081Y35.970I0.707J-0.707
N30820G01Y30.170
N30830G3X4.080Y29.171I1.000J0.000
N30840G2Y28.970I0.000J-0.101
N30850G01X2.580
N30860G3X1.581Y27.970I0.000J-1.000
N30870G01Y17.970
N30880G3X2.580Y16.971I1.000J0.000
N30890G01X4.080
N30900G2Y16.770I0.000J-0.101
N30910G3X3.081Y15.770I0.000J-0.999
N30920G01Y9.970
N30930G3X3.374Y9.263I1.000J0.000
N30940G01X10.124Y2.513
N30950G01Z-2.400F20.0
N30960G3X10.830Y2.221I0.707J0.707F500.0
N30970G01X16.630
N30980G3X17.630Y3.220I0.000J1.000
N30990G2X17.831I0.101J0.000
N31000G01Y1.720
N31010G3X18.830Y0.721I0.999J0.000
N31020G01X28.830
N31030G3X29.830Y1.720I0.000J0.999
N31040G01Y3.220
N31050G2X30.031I0.101J0.000
N31060G3X31.030Y2.221I1.000J0.000
N31070G01X36.830
N31080G3X37.537Y2.513I0.000J1.000
N31090G01X44.287Y9.263
N31100G3X44.580Y9.970I-0.707J0.707
N31110G01Y15.770
N31120G3X43.580Y16.770I-1.000J0.000
N31130G2X43.480Y16.870I0.000J0.101
N31140G2X43.580Y16.971I0.101J0.000
N31150G01X45.080
N31160G3X46.080Y17.970I0.000J1.000
N31170G01Y27.970
N31180G3X45.080Y28.970I-1.000J0.000
N31190G01X43.580
N31200G2Y29.171I0.000J0.101
N31210G3X44.580Y30.170I0.000J0.999
N31220G01Y35.970
N31230G3X44.287Y36.677I-1.000J0.000
N31240G01X37.537Y43.427
N31250G3X36.830Y43.720I-0.707J-0.707
N31260G01X31.030
N31270G3X30.031Y42.720I0.000J-1.000
N31280G2X29.830I-0.101J0.000
N31290G01Y44.220
N31300G3X28.830Y45.220I-1.000J0.000
N31310G01X18.830
N31320G3X17.831Y44.220I0.000J-1.000
N31330G01Y42.720
N31340G2X17.630I-0.101J0.000
N31350G3X16.630Y43.720I-1.000J0.000
N31360G01X10.830
N31370G3X10.124Y43.427I0.000J-1.000
N31380G01X3.374Y36.677
N31390G3X3.081Y35.970I0.707J-0.707
N31400G01Y30.170
N31410G3X4.080Y29.171I1.000J0.000
N31420G2Y28.970I0.000J-0.101
N31430G01X2.580
N31440G3X1.581Y27.970I0.000J-1.000
N31450G01Y17.970
N31460G3X2.580Y16.971I1.000J0.000
N31470G01X4.080
N31480G2Y16.770I0.000J-0.101
N31490G3X3.081Y15.770I0.000J-0.999
N31500G01Y9.970
N31510G3X3.374Y9.263I1.000J0.000
N31520G01X10.124Y2.513
N31530G01Z-2.500F20.0
N31540G3X10.830Y2.221I0.707J0.707F500.0
N31550G01X16.630
N31560G3X17.630Y3.220I0.000J1.000
N31570G2X17.831I0.101J0.000
N31580G01Y1.720
N31590G3X18.830Y0.721I0.999J0.000
N31600G01X28.830
N31610G3X29.830Y1.720I0.000J0.999
N31620G01Y3.220
N31630G2X30.031I0.101J0.000
N31640G3X31.030Y2.221I1.000J0.000
N31650G01X36.830
N31660G3X37.537Y2.513I0.000J1.000
N31670G01X44.287Y9.263
N31680G3X44.580Y9.970I-0.707J0.707
N31690G01Y15.770
N31700G3X43.580Y16.770I-1.000J0.000
N31710G2X43.480Y16.870I0.000J0.101
N31720G2X43.580Y16.971I0.101J0.000
N31730G01X45.080
N31740G3X46.080Y17.970I0.000J1.000
N31750G01Y27.970
N31760G3X45.080Y28.970I-1.000J0.000
N31770G01X43.580
N31780G2Y29.171I0.000J0.101
N31790G3X44.580Y30.170I0.000J0.999
N31800G01Y35.970
N31810G3X44.287Y36.677I-1.000J0.000
N31820G01X37.537Y43.427
N31830G3X36.830Y43.720I-0.707J-0.707
N31840G01X31.030
N31850G3X30.031Y42.720I0.000J-1.000
N31860G2X29.830I-0.101J0.000
N31870G01Y44.220
N31880G3X28.830Y45.220I-1.000J0.000
N31890G01X18.830
N31900G3X17.831Y44.220I0.000J-1.000
N31910G01Y42.720
N31920G2X17.630I-0.101J0.000
N31930G3X16.630Y43.720I-1.000J0.000
N31940G01X10.830
N31950G3X10.124Y43.427I0.000J-1.000
N31960G01X3.374Y36.677
N31970G3X3.081Y35.970I0.707J-0.707
N31980G01Y30.170
N31990G3X4.080Y29.171I1.000J0.000
N32000G2Y28.970I0.000J-0.101
N32010G01X2.580
N32020G3X1.581Y27.970I0.000J-1.000
N32030G01Y17.970
N32040G3X2.580Y16.971I1.000J0.000
N32050G01X4.080
N32060G2Y16.770I0.000J-0.101
N32070G3X3.081Y15.770I0.000J-0.999
N32080G01Y9.970
N32090G3X3.374Y9.263I1.000J0.000
N32100G01X10.124Y2.513
N32110G01Z-2.600F20.0
N32120G3X10.830Y2.221I0.707J0.707F500.0
N32130G01X16.630
N32140G3X17.630Y3.220I0.000J1.000
N32150G2X17.831I0.101J0.000
N32160G01Y1.720
N32170G3X18.830Y0.721I0.999J0.000
N32180G01X28.830
N32190G3X29.830Y1.720I0.000J0.999
N32200G01Y3.220
N32210G2X30.031I0.101J0.000
N32220G3X31.030Y2.221I1.000J0.000
N32230G01X36.830
N32240G3X37.537Y2.513I0.000J1.000
N32250G01X44.287Y9.263
N32260G3X44.580Y9.970I-0.707J0.707
N32270G01Y15.770
N32280G3X43.580Y16.770I-1.000J0.000
N32290G2X43.480Y16.870I0.000J0.101
N32300G2X43.580Y16.971I0.101J0.000
N32310G01X45.080
N32320G3X46.080Y17.970I0.000J1.000
N32330G01Y27.970
N32340G3X45.080Y28.970I-1.000J0.000
N32350G01X43.580
N32360G2Y29.171I0.000J0.101
N32370G3X44.580Y30.170I0.000J0.999
N32380G01Y35.970
N32390G3X44.287Y36.677I-1.000J0.000
N32400G01X37.537Y43.427
N32410G3X36.830Y43.720I-0.707J-0.707
N32420G01X31.030
N32430G3X30.031Y42.720I0.000J-1.000
N32440G2X29.830I-0.101J0.000
N32450G01Y44.220
N32460G3X28.830Y45.220I-1.000J0.000
N32470G01X18.830
N32480G3X17.831Y44.220I0.000J-1.000
N32490G01Y42.720
N32500G2X17.630I-0.101J0.000
N32510G3X16.630Y43.720I-1.000J0.000
N32520G01X10.830
N32530G3X10.124Y43.427I0.000J-1.000
N32540G01X3.374Y36.677
N32550G3X3.081Y35.970I0.707J-0.707
N32560G01Y30.170
N32570G3X4.080Y29.171I1.000J0.000
N32580G2Y28.970I0.000J-0.101
N32590G01X2.580
N32600G3X1.581Y27.970I0.000J-1.000
N32610G01Y17.970
N32620G3X2.580Y16.971I1.000J0.000
N32630G01X4.080
N32640G2Y16.770I0.000J-0.101
N32650G3X3.081Y15.770I0.000J-0.999
N32660G01Y9.970
N32670G3X3.374Y9.263I1.000J0.000
N32680G01X10.124Y2.513
N32690G01Z-2.700F20.0
N32700G3X10.830Y2.221I0.707J0.707F500.0
N32710G01X16.630
N32720G3X17.630Y3.220I0.000J1.000
N32730G2X17.831I0.101J0.000
N32740G01Y1.720
N32750G3X18.830Y0.721I0.999J0.000
N32760G01X28.830
N32770G3X29.830Y1.720I0.000J0.999
N32780G01Y3.220
N32790G2X30.031I0.101J0.000
N32800G3X31.030Y2.221I1.000J0.000
N32810G01X36.830
N32820G3X37.537Y2.513I0.000J1.000
N32830G01X44.287Y9.263
N32840G3X44.580Y9.970I-0.707J0.707
N32850G01Y15.770
N32860G3X43.580Y16.770I-1.000J0.000
N32870G2X43.480Y16.870I0.000J0.101
N32880G2X43.580Y16.971I0.101J0.000
N32890G01X45.080
N32900G3X46.080Y17.970I0.000J1.000
N32910G01Y27.970
N32920G3X45.080Y28.970I-1.000J0.000
N32930G01X43.580
N32940G2Y29.171I0.000J0.101
N32950G3X44.580Y30.170I0.000J0.999
N32960G01Y35.970
N32970G3X44.287Y36.677I-1.000J0.000
N32980G01X37.537Y43.427
N32990G3X36.830Y43.720I-0.707J-0.707
N33000G01X31.030
N33010G3X30.031Y42.720I0.000J-1.000
N33020G2X29.830I-0.101J0.000
N33030G01Y44.220
N33040G3X28.830Y45.220I-1.000J0.000
N33050G01X18.830
N33060G3X17.831Y44.220I0.000J-1.000
N33070G01Y42.720
N33080G2X17.630I-0.101J0.000
N33090G3X16.630Y43.720I-1.000J0.000
N33100G01X10.830
N33110G3X10.124Y43.427I0.000J-1.000
N33120G01X3.374Y36.677
N33130G3X3.081Y35.970I0.707J-0.707
N33140G01Y30.170
N33150G3X4.080Y29.171I1.000J0.000
N33160G2Y28.970I0.000J-0.101
N33170G01X2.580
N33180G3X1.581Y27.970I0.000J-1.000
N33190G01Y17.970
N33200G3X2.580Y16.971I1.000J0.000
N33210G01X4.080
N33220G2Y16.770I0.000J-0.101
N33230G3X3.081Y15.770I0.000J-0.999
N33240G01Y9.970
N33250G3X3.374Y9.263I1.000J0.000
N33260G01X10.124Y2.513
N33270G01Z-2.800F20.0
N33280G3X10.830Y2.221I0.707J0.707F500.0
N33290G01X16.630
N33300G3X17.630Y3.220I0.000J1.000
N33310G2X17.831I0.101J0.000
N33320G01Y1.720
N33330G3X18.830Y0.721I0.999J0.000
N33340G01X28.830
N33350G3X29.830Y1.720I0.000J0.999
N33360G01Y3.220
N33370G2X30.031I0.101J0.000
N33380G3X31.030Y2.221I1.000J0.000
N33390G01X36.830
N33400G3X37.537Y2.513I0.000J1.000
N33410G01X44.287Y9.263
N33420G3X44.580Y9.970I-0.707J0.707
N33430G01Y15.770
N33440G3X43.580Y16.770I-1.000J0.000
N33450G2X43.480Y16.870I0.000J0.101
N33460G2X43.580Y16.971I0.101J0.000
N33470G01X45.080
N33480G3X46.080Y17.970I0.000J1.000
N33490G01Y27.970
N33500G3X45.080Y28.970I-1.000J0.000
N33510G01X43.580
N33520G2Y29.171I0.000J0.101
N33530G3X44.580Y30.170I0.000J0.999
N33540G01Y35.970
N33550G3X44.287Y36.677I-1.000J0.000
N33560G01X37.537Y43.427
N33570G3X36.830Y43.720I-0.707J-0.707
N33580G01X31.030
N33590G3X30.031Y42.720I0.000J-1.000
N33600G2X29.830I-0.101J0.000
N33610G01Y44.220
N33620G3X28.830Y45.220I-1.000J0.000
N33630G01X18.830
N33640G3X17.831Y44.220I0.000J-1.000
N33650G01Y42.720
N33660G2X17.630I-0.101J0.000
N33670G3X16.630Y43.720I-1.000J0.000
N33680G01X10.830
N33690G3X10.124Y43.427I0.000J-1.000
N33700G01X3.374Y36.677
N33710G3X3.081Y35.970I0.707J-0.707
N33720G01Y30.170
N33730G3X4.080Y29.171I1.000J0.000
N33740G2Y28.970I0.000J-0.101
N33750G01X2.580
N33760G3X1.581Y27.970I0.000J-1.000
N33770G01Y17.970
N33780G3X2.580Y16.971I1.000J0.000
N33790G01X4.080
N33800G2Y16.770I0.000J-0.101
N33810G3X3.081Y15.770I0.000J-0.999
N33820G01Y9.970
N33830G3X3.374Y9.263I1.000J0.000
N33840G01X10.124Y2.513
N33850G01Z-2.900F20.0
N33860G3X10.830Y2.221I0.707J0.707F500.0
N33870G01X16.630
N33880G3X17.630Y3.220I0.000J1.000
N33890G2X17.831I0.101J0.000
N33900G01Y1.720
N33910G3X18.830Y0.721I0.999J0.000
N33920G01X28.830
N33930G3X29.830Y1.720I0.000J0.999
N33940G01Y3.220
N33950G2X30.031I0.101J0.000
N33960G3X31.030Y2.221I1.000J0.000
N33970G01X36.830
N33980G3X37.537Y2.513I0.000J1.000
N33990G01X44.287Y9.263
N34000G3X44.580Y9.970I-0.707J0.707
N34010G01Y15.770
N34020G3X43.580Y16.770I-1.000J0.000
N34030G2X43.480Y16.870I0.000J0.101
N34040G2X43.580Y16.971I0.101J0.000
N34050G01X45.080
N34060G3X46.080Y17.970I0.000J1.000
N34070G01Y27.970
N34080G3X45.080Y28.970I-1.000J0.000
N34090G01X43.580
N34100G2Y29.171I0.000J0.101
N34110G3X44.580Y30.170I0.000J0.999
N34120G01Y35.970
N34130G3X44.287Y36.677I-1.000J0.000
N34140G01X37.537Y43.427
N34150G3X36.830Y43.720I-0.707J-0.707
N34160G01X31.030
N34170G3X30.031Y42.720I0.000J-1.000
N34180G2X29.830I-0.101J0.000
N34190G01Y44.220
N34200G3X28.830Y45.220I-1.000J0.000
N34210G01X18.830
N34220G3X17.831Y44.220I0.000J-1.000
N34230G01Y42.720
N34240G2X17.630I-0.101J0.000
N34250G3X16.630Y43.720I-1.000J0.000
N34260G01X10.830
N34270G3X10.124Y43.427I0.000J-1.000
N34280G01X3.374Y36.677
N34290G3X3.081Y35.970I0.707J-0.707
N34300G01Y30.170
N34310G3X4.080Y29.171I1.000J0.000
N34320G2Y28.970I0.000J-0.101
N34330G01X2.580
N34340G3X1.581Y27.970I0.000J-1.000
N34350G01Y17.970
N34360G3X2.580Y16.971I1.000J0.000
N34370G01X4.080
N34380G2Y16.770I0.000J-0.101
N34390G3X3.081Y15.770I0.000J-0.999
N34400G01Y9.970
N34410G3X3.374Y9.263I1.000J0.000
N34420G01X10.124Y2.513
N34430G01Z-3.000F20.0
N34440G3X10.830Y2.221I0.707J0.707F500.0
N34450G01X16.630
N34460G3X17.630Y3.220I0.000J1.000
N34470G2X17.831I0.101J0.000
N34480G01Y1.720
N34490G3X18.830Y0.721I0.999J0.000
N34500G01X28.830
N34510G3X29.830Y1.720I0.000J0.999
N34520G01Y3.220
N34530G2X30.031I0.101J0.000
N34540G3X31.030Y2.221I1.000J0.000
N34550G01X36.830
N34560G3X37.537Y2.513I0.000J1.000
N34570G01X44.287Y9.263
N34580G3X44.580Y9.970I-0.707J0.707
N34590G01Y15.770
N34600G3X43.580Y16.770I-1.000J0.000
N34610G2X43.480Y16.870I0.000J0.101
N34620G2X43.580Y16.971I0.101J0.000
N34630G01X45.080
N34640G3X46.080Y17.970I0.000J1.000
N34650G01Y27.970
N34660G3X45.080Y28.970I-1.000J0.000
N34670G01X43.580
N34680G2Y29.171I0.000J0.101
N34690G3X44.580Y30.170I0.000J0.999
N34700G01Y35.970
N34710G3X44.287Y36.677I-1.000J0.000
N34720G01X37.537Y43.427
N34730G3X36.830Y43.720I-0.707J-0.707
N34740G01X31.030
N34750G3X30.031Y42.720I0.000J-1.000
N34760G2X29.830I-0.101J0.000
N34770G01Y44.220
N34780G3X28.830Y45.220I-1.000J0.000
N34790G01X18.830
N34800G3X17.831Y44.220I0.000J-1.000
N34810G01Y42.720
N34820G2X17.630I-0.101J0.000
N34830G3X16.630Y43.720I-1.000J0.000
N34840G01X10.830
N34850G3X10.124Y43.427I0.000J-1.000
N34860G01X3.374Y36.677
N34870G3X3.081Y35.970I0.707J-0.707
N34880G01Y30.170
N34890G3X4.080Y29.171I1.000J0.000
N34900G2Y28.970I0.000J-0.101
N34910G01X2.580
N34920G3X1.581Y27.970I0.000J-1.000
N34930G01Y17.970
N34940G3X2.580Y16.971I1.000J0.000
N34950G01X4.080
N34960G2Y16.770I0.000J-0.101
N34970G3X3.081Y15.770I0.000J-0.999
N34980G01Y9.970
N34990G3X3.374Y9.263I1.000J0.000
N35000G01X10.124Y2.513
N35010G01Z-3.100F20.0
N35020G3X10.830Y2.221I0.707J0.707F500.0
N35030G01X16.630
N35040G3X17.630Y3.220I0.000J1.000
N35050G2X17.831I0.101J0.000
N35060G01Y1.720
N35070G3X18.830Y0.721I0.999J0.000
N35080G01X28.830
N35090G3X29.830Y1.720I0.000J0.999
N35100G01Y3.220
N35110G2X30.031I0.101J0.000
N35120G3X31.030Y2.221I1.000J0.000
N35130G01X36.830
N35140G3X37.537Y2.513I0.000J1.000
N35150G01X44.287Y9.263
N35160G3X44.580Y9.970I-0.707J0.707
N35170G01Y15.770
N35180G3X43.580Y16.770I-1.000J0.000
N35190G2X43.480Y16.870I0.000J0.101
N35200G2X43.580Y16.971I0.101J0.000
N35210G01X45.080
N35220G3X46.080Y17.970I0.000J1.000
N35230G01Y27.970
N35240G3X45.080Y28.970I-1.000J0.000
N35250G01X43.580
N35260G2Y29.171I0.000J0.101
N35270G3X44.580Y30.170I0.000J0.999
N35280G01Y35.970
N35290G3X44.287Y36.677I-1.000J0.000
N35300G01X37.537Y43.427
N35310G3X36.830Y43.720I-0.707J-0.707
N35320G01X31.030
N35330G3X30.031Y42.720I0.000J-1.000
N35340G2X29.830I-0.101J0.000
N35350G01Y44.220
N35360G3X28.830Y45.220I-1.000J0.000
N35370G01X18.830
N35380G3X17.831Y44.220I0.000J-1.000
N35390G01Y42.720
N35400G2X17.630I-0.101J0.000
N35410G3X16.630Y43.720I-1.000J0.000
N35420G01X10.830
N35430G3X10.124Y43.427I0.000J-1.000
N35440G01X3.374Y36.677
N35450G3X3.081Y35.970I0.707J-0.707
N35460G01Y30.170
N35470G3X4.080Y29.171I1.000J0.000
N35480G2Y28.970I0.000J-0.101
N35490G01X2.580
N35500G3X1.581Y27.970I0.000J-1.000
N35510G01Y17.970
N35520G3X2.580Y16.971I1.000J0.000
N35530G01X4.080
N35540G2Y16.770I0.000J-0.101
N35550G3X3.081Y15.770I0.000J-0.999
N35560G01Y9.970
N35570G3X3.374Y9.263I1.000J0.000
N35580G01X10.124Y2.513
N35590G00Z6.000
N35600G00X54.824
N35610G01Z-0.100F20.0
N35620G3X55.530Y2.221I0.707J0.707F500.0
N35630G01X61.330
N35640G3X62.330Y3.220I0.000J1.000
N35650G2X62.531I0.100J0.000
N35660G01Y1.720
N35670G3X63.530Y0.721I1.000J0.000
N35680G01X73.530
N35690G3X74.530Y1.720I0.000J0.999
N35700G01Y3.220
N35710G2X74.630Y3.321I0.100J0.000
N35720G2X74.731Y3.220I0.000J-0.101
N35730G3X75.730Y2.221I1.000J0.000
N35740G01X81.530
N35750G3X82.237Y2.513I0.000J1.000
N35760G01X88.987Y9.263
N35770G3X89.280Y9.970I-0.707J0.707
N35780G01Y15.770
N35790G3X88.280Y16.770I-1.000J0.000
N35800G2X88.180Y16.870I0.000J0.101
N35810G2X88.280Y16.971I0.100J0.000
N35820G01X89.780
N35830G3X90.780Y17.970I0.000J1.000
N35840G01Y27.970
N35850G3X89.780Y28.970I-1.000J0.000
N35860G01X88.280
